;generated by SUSSYSLICER by LUKE FADEL
G90 ; Use absolute coordinates 
M82 ; Use absolute extruder positioning
M140 S60 ; Set bed temperature to 60C (do not wait)
M104 S205 ; Set nozzle temperature to 205C (do not wait)
G28 ; Home all axes
M190 S60 ; Wait for bed temperature to reach 60C
M109 S205 ; Wait for nozzle temperature to reach 205C
G29 ; Perform bed leveling
G92 E0 ; Reset extruder position
G1 E10 F600 ; Prime nozzle
G0 F6000 ; Rapid move to start position
G1 Z0.2 F300 ; Move to first layer heightG1 Z0.2
G1 X0 Y0
G1 X0 Y-99.8 E82.984
G1 X0 Y-100 E83.1503
G1 X-99.8 Y-100 E166.134
G1 X-100 Y-100 E166.301
G1 X-100 Y-0.2 E249.285
G1 X-100 Y0 E249.451
G1 X-0.2 Y0 E332.435
G1 X-74.7336 Y-53.64
G1 X-74.9989 Y-50.0146 E335.458
G1 X-75 Y-50 E335.47
G1 X-74.7346 Y-46.3745 E338.492
G1 X-74.7336 Y-46.36 E338.505
G1 X-73.9432 Y-42.8118 E341.527
G1 X-73.94 Y-42.7975 E341.539
G1 X-72.6414 Y-39.4022 E344.562
G1 X-72.6362 Y-39.3886 E344.574
G1 X-70.8571 Y-36.2185 E347.597
G1 X-70.85 Y-36.2058 E347.609
G1 X-68.6282 Y-33.3286 E350.632
G1 X-68.6193 Y-33.317 E350.644
G1 X-66.0023 Y-30.794 E353.666
G1 X-65.9918 Y-30.7838 E353.679
G1 X-63.0354 Y-28.6687 E356.701
G1 X-63.0235 Y-28.6602 E356.713
G1 X-59.7906 Y-26.998 E359.736
G1 X-59.7776 Y-26.9914 E359.748
G1 X-56.3371 Y-25.8176 E362.771
G1 X-56.3233 Y-25.8129 E362.783
G1 X-52.7486 Y-25.1526 E365.806
G1 X-52.7343 Y-25.15 E365.818
G1 X-49.1015 Y-25.0172 E368.84
G1 X-49.087 Y-25.0167 E368.853
G1 X-45.4736 Y-25.4143 E371.875
G1 X-45.4591 Y-25.4159 E371.887
G1 X-41.9421 Y-26.3353 E374.91
G1 X-41.928 Y-26.339 E374.922
G1 X-38.5824 Y-27.7607 E377.945
G1 X-38.5689 Y-27.7664 E377.957
G1 X-35.466 Y-29.6602 E380.98
G1 X-35.4535 Y-29.6678 E380.992
G1 X-32.6594 Y-31.9931 E384.014
G1 X-32.6482 Y-32.0024 E384.027
G1 X-30.2223 Y-34.7098 E387.049
G1 X-30.2126 Y-34.7207 E387.061
G1 X-28.2068 Y-37.7524 E390.084
G1 X-28.1988 Y-37.7645 E390.096
G1 X-26.6558 Y-41.056 E393.119
G1 X-26.6496 Y-41.0692 E393.131
G1 X-25.6023 Y-44.5503 E396.154
G1 X-25.5981 Y-44.5643 E396.166
G1 X-25.0688 Y-48.1607 E399.188
G1 X-25.0667 Y-48.1751 E399.2
G1 X-25.0667 Y-51.8103 E402.223
G1 X-25.0667 Y-51.8249 E402.235
G1 X-25.596 Y-55.4213 E405.258
G1 X-25.5981 Y-55.4357 E405.27
G1 X-26.6454 Y-58.9168 E408.293
G1 X-26.6496 Y-58.9308 E408.305
G1 X-28.1926 Y-62.2222 E411.328
G1 X-28.1988 Y-62.2355 E411.34
G1 X-30.2045 Y-65.2672 E414.362
G1 X-30.2126 Y-65.2793 E414.374
G1 X-32.6384 Y-67.9867 E417.397
G1 X-32.6482 Y-67.9976 E417.409
G1 X-35.4423 Y-70.3229 E420.432
G1 X-35.4535 Y-70.3322 E420.444
G1 X-38.5565 Y-72.2259 E423.467
G1 X-38.5689 Y-72.2335 E423.479
G1 X-41.9146 Y-73.6553 E426.501
G1 X-41.928 Y-73.661 E426.514
G1 X-45.445 Y-74.5804 E429.536
G1 X-45.4591 Y-74.5841 E429.548
G1 X-49.0724 Y-74.9817 E432.571
G1 X-49.087 Y-74.9833 E432.583
G1 X-52.7197 Y-74.8506 E435.606
G1 X-52.7343 Y-74.85 E435.618
G1 X-56.309 Y-74.1897 E438.641
G1 X-56.3233 Y-74.1871 E438.653
G1 X-59.7638 Y-73.0134 E441.675
G1 X-59.7776 Y-73.0087 E441.688
G1 X-63.0105 Y-71.3465 E444.71
G1 X-63.0235 Y-71.3398 E444.722
G1 X-65.98 Y-69.2247 E447.745
G1 X-65.9918 Y-69.2162 E447.757
G1 X-68.6088 Y-66.6931 E450.78
G1 X-68.6193 Y-66.683 E450.792
G1 X-70.841 Y-63.8057 E453.815
G1 X-70.85 Y-63.7942 E453.827
G1 X-72.6291 Y-60.6242 E456.849
G1 X-72.6362 Y-60.6114 E456.862
G1 X-73.9348 Y-57.2161 E459.884
G1 X-73.94 Y-57.2025 E459.896
G1 X-74.7304 Y-53.6543 E462.919
G1 X-100 Y-90
G1 X0 Y-90 E546.069
G1 X-100 Y-80
G1 X0 Y-80 E629.22
G1 X-100 Y-70
G1 X-64.8962 Y-70 E658.409
G1 X-35.0543 Y-70
G1 X0 Y-70 E687.556
G1 X-100 Y-60
G1 X-72.8701 Y-60 E710.115
G1 X-27.1508 Y-60
G1 X0 Y-60 E732.691
G1 X-100 Y-50
G1 X-75 Y-50 E753.479
G1 X-75 Y-50
G1 X-25.0667 Y-50 E794.998
G1 X0 Y-50
G1 X-100 Y-40
G1 X-72.8701 Y-40 E817.557
G1 X-27.1508 Y-40
G1 X0 Y-40 E840.133
G1 X-100 Y-30
G1 X-64.8962 Y-30 E869.322
G1 X-35.0543 Y-30
G1 X0 Y-30 E898.47
G1 X-100 Y-20
G1 X0 Y-20 E981.62
G1 X-100 Y-10
G1 X0 Y-10 E1064.77
G1 X-100 Y0
G1 X0 Y0 E1147.92
G1 Z0.4
G1 X0 Y0
G1 X0 Y-99.6 E1230.74
G1 X0 Y-100 E1231.07
G1 X-99.6 Y-100 E1313.89
G1 X-100 Y-100 E1314.22
G1 X-100 Y-0.4 E1397.04
G1 X-100 Y0 E1397.37
G1 X-0.4 Y0 E1480.19
G1 X-74.7336 Y-53.64
G1 X-74.9979 Y-50.0291 E1483.2
G1 X-75 Y-50 E1483.22
G1 X-74.7357 Y-46.3891 E1486.23
G1 X-74.7336 Y-46.36 E1486.26
G1 X-73.9464 Y-42.826 E1489.27
G1 X-73.94 Y-42.7975 E1489.29
G1 X-72.6466 Y-39.4159 E1492.3
G1 X-72.6362 Y-39.3886 E1492.33
G1 X-70.8642 Y-36.2313 E1495.34
G1 X-70.85 Y-36.2058 E1495.36
G1 X-68.6371 Y-33.3401 E1498.37
G1 X-68.6193 Y-33.317 E1498.4
G1 X-66.0128 Y-30.8041 E1501.41
G1 X-65.9918 Y-30.7838 E1501.43
G1 X-63.0473 Y-28.6772 E1504.44
G1 X-63.0235 Y-28.6602 E1504.47
G1 X-59.8036 Y-27.0047 E1507.48
G1 X-59.7776 Y-26.9914 E1507.5
G1 X-56.351 Y-25.8223 E1510.51
G1 X-56.3233 Y-25.8129 E1510.54
G1 X-52.763 Y-25.1553 E1513.55
G1 X-52.7343 Y-25.15 E1513.57
G1 X-49.1161 Y-25.0177 E1516.58
G1 X-49.087 Y-25.0167 E1516.61
G1 X-45.4881 Y-25.4127 E1519.62
G1 X-45.4591 Y-25.4159 E1519.64
G1 X-41.9562 Y-26.3316 E1522.65
G1 X-41.928 Y-26.339 E1522.68
G1 X-38.5958 Y-27.755 E1525.69
G1 X-38.5689 Y-27.7664 E1525.71
G1 X-35.4785 Y-29.6525 E1528.72
G1 X-35.4535 Y-29.6678 E1528.75
G1 X-32.6706 Y-31.9837 E1531.76
G1 X-32.6482 Y-32.0024 E1531.78
G1 X-30.2321 Y-34.6989 E1534.79
G1 X-30.2126 Y-34.7207 E1534.82
G1 X-28.2149 Y-37.7402 E1537.83
G1 X-28.1988 Y-37.7645 E1537.85
G1 X-26.662 Y-41.0428 E1540.86
G1 X-26.6496 Y-41.0692 E1540.89
G1 X-25.6065 Y-44.5363 E1543.9
G1 X-25.5981 Y-44.5643 E1543.92
G1 X-25.0709 Y-48.1462 E1546.93
G1 X-25.0667 Y-48.1751 E1546.95
G1 X-25.0667 Y-51.7957 E1549.97
G1 X-25.0667 Y-51.8249 E1549.99
G1 X-25.5938 Y-55.4069 E1553
G1 X-25.5981 Y-55.4357 E1553.02
G1 X-26.6412 Y-58.9028 E1556.03
G1 X-26.6496 Y-58.9308 E1556.06
G1 X-28.1864 Y-62.209 E1559.07
G1 X-28.1988 Y-62.2355 E1559.09
G1 X-30.1965 Y-65.255 E1562.1
G1 X-30.2126 Y-65.2793 E1562.13
G1 X-32.6287 Y-67.9758 E1565.14
G1 X-32.6482 Y-67.9976 E1565.16
G1 X-35.4311 Y-70.3136 E1568.17
G1 X-35.4535 Y-70.3322 E1568.2
G1 X-38.544 Y-72.2183 E1571.21
G1 X-38.5689 Y-72.2335 E1571.23
G1 X-41.9011 Y-73.6496 E1574.24
G1 X-41.928 Y-73.661 E1574.27
G1 X-45.4308 Y-74.5768 E1577.28
G1 X-45.4591 Y-74.5841 E1577.3
G1 X-49.0579 Y-74.9801 E1580.31
G1 X-49.087 Y-74.9833 E1580.34
G1 X-52.7051 Y-74.8511 E1583.35
G1 X-52.7343 Y-74.85 E1583.37
G1 X-56.2946 Y-74.1924 E1586.38
G1 X-56.3233 Y-74.1871 E1586.41
G1 X-59.75 Y-73.0181 E1589.42
G1 X-59.7776 Y-73.0087 E1589.44
G1 X-62.9975 Y-71.3532 E1592.45
G1 X-63.0235 Y-71.3398 E1592.48
G1 X-65.9681 Y-69.2332 E1595.49
G1 X-65.9918 Y-69.2162 E1595.51
G1 X-68.5983 Y-66.7032 E1598.52
G1 X-68.6193 Y-66.683 E1598.55
G1 X-70.8321 Y-63.8173 E1601.56
G1 X-70.85 Y-63.7942 E1601.58
G1 X-72.6219 Y-60.6369 E1604.59
G1 X-72.6362 Y-60.6114 E1604.62
G1 X-73.9296 Y-57.2298 E1607.63
G1 X-73.94 Y-57.2025 E1607.65
G1 X-74.7272 Y-53.6685 E1610.66
G1 X-100 Y-90
G1 X0 Y-90 E1693.81
G1 X-100 Y-80
G1 X0 Y-80 E1776.96
G1 X-100 Y-70
G1 X-64.8962 Y-70 E1806.15
G1 X-35.0543 Y-70
G1 X0 Y-70 E1835.3
G1 X-100 Y-60
G1 X-72.8701 Y-60 E1857.86
G1 X-27.1508 Y-60
G1 X0 Y-60 E1880.43
G1 X-100 Y-50
G1 X-75 Y-50 E1901.22
G1 X-75 Y-50
G1 X-25.0667 Y-50 E1942.74
G1 X0 Y-50
G1 X-100 Y-40
G1 X-72.8701 Y-40 E1965.3
G1 X-27.1508 Y-40
G1 X0 Y-40 E1987.88
G1 X-100 Y-30
G1 X-64.8962 Y-30 E2017.06
G1 X-35.0543 Y-30
G1 X0 Y-30 E2046.21
G1 X-100 Y-20
G1 X0 Y-20 E2129.36
G1 X-100 Y-10
G1 X0 Y-10 E2212.51
G1 X-100 Y0
G1 X0 Y0 E2295.66
G1 Z0.6
G1 X0 Y0
G1 X0 Y-99.4 E2378.31
G1 X0 Y-100 E2378.81
G1 X-99.4 Y-100 E2461.46
G1 X-100 Y-100 E2461.96
G1 X-100 Y-0.6 E2544.61
G1 X-100 Y0 E2545.11
G1 X-0.6 Y0 E2627.77
G1 X-74.7336 Y-53.64
G1 X-74.9968 Y-50.0437 E2630.76
G1 X-75 Y-50 E2630.8
G1 X-74.7368 Y-46.4037 E2633.8
G1 X-74.7336 Y-46.36 E2633.83
G1 X-73.9495 Y-42.8403 E2636.83
G1 X-73.94 Y-42.7975 E2636.87
G1 X-72.6519 Y-39.4295 E2639.87
G1 X-72.6362 Y-39.3886 E2639.9
G1 X-70.8714 Y-36.244 E2642.9
G1 X-70.85 Y-36.2058 E2642.94
G1 X-68.6461 Y-33.3517 E2645.94
G1 X-68.6193 Y-33.317 E2645.97
G1 X-66.0234 Y-30.8142 E2648.97
G1 X-65.9918 Y-30.7838 E2649.01
G1 X-63.0591 Y-28.6857 E2652.01
G1 X-63.0235 Y-28.6602 E2652.04
G1 X-59.8166 Y-27.0114 E2655.04
G1 X-59.7776 Y-26.9914 E2655.08
G1 X-56.3648 Y-25.8271 E2658.08
G1 X-56.3233 Y-25.8129 E2658.11
G1 X-52.7773 Y-25.1579 E2661.11
G1 X-52.7343 Y-25.15 E2661.15
G1 X-49.1307 Y-25.0183 E2664.15
G1 X-49.087 Y-25.0167 E2664.18
G1 X-45.5026 Y-25.4111 E2667.18
G1 X-45.4591 Y-25.4159 E2667.22
G1 X-41.9704 Y-26.3279 E2670.22
G1 X-41.928 Y-26.339 E2670.25
G1 X-38.6092 Y-27.7493 E2673.25
G1 X-38.5689 Y-27.7664 E2673.29
G1 X-35.4909 Y-29.6449 E2676.29
G1 X-35.4535 Y-29.6678 E2676.32
G1 X-32.6818 Y-31.9744 E2679.32
G1 X-32.6482 Y-32.0024 E2679.36
G1 X-30.2418 Y-34.688 E2682.36
G1 X-30.2126 Y-34.7207 E2682.39
G1 X-28.2229 Y-37.728 E2685.39
G1 X-28.1988 Y-37.7645 E2685.43
G1 X-26.6682 Y-41.0296 E2688.42
G1 X-26.6496 Y-41.0692 E2688.46
G1 X-25.6107 Y-44.5223 E2691.46
G1 X-25.5981 Y-44.5643 E2691.5
G1 X-25.0731 Y-48.1318 E2694.49
G1 X-25.0667 Y-48.1751 E2694.53
G1 X-25.0667 Y-51.7811 E2697.53
G1 X-25.0667 Y-51.8249 E2697.57
G1 X-25.5917 Y-55.3924 E2700.56
G1 X-25.5981 Y-55.4357 E2700.6
G1 X-26.637 Y-58.8888 E2703.6
G1 X-26.6496 Y-58.9308 E2703.63
G1 X-28.1802 Y-62.1958 E2706.63
G1 X-28.1988 Y-62.2355 E2706.67
G1 X-30.1884 Y-65.2428 E2709.67
G1 X-30.2126 Y-65.2793 E2709.7
G1 X-32.6189 Y-67.965 E2712.7
G1 X-32.6482 Y-67.9976 E2712.74
G1 X-35.4199 Y-70.3042 E2715.74
G1 X-35.4535 Y-70.3322 E2715.77
G1 X-38.5316 Y-72.2107 E2718.77
G1 X-38.5689 Y-72.2335 E2718.81
G1 X-41.8877 Y-73.6439 E2721.81
G1 X-41.928 Y-73.661 E2721.84
G1 X-45.4167 Y-74.5731 E2724.84
G1 X-45.4591 Y-74.5841 E2724.88
G1 X-49.0434 Y-74.9785 E2727.88
G1 X-49.087 Y-74.9833 E2727.91
G1 X-52.6905 Y-74.8516 E2730.91
G1 X-52.7343 Y-74.85 E2730.95
G1 X-56.2803 Y-74.195 E2733.95
G1 X-56.3233 Y-74.1871 E2733.98
G1 X-59.7362 Y-73.0228 E2736.98
G1 X-59.7776 Y-73.0087 E2737.02
G1 X-62.9846 Y-71.3599 E2740.02
G1 X-63.0235 Y-71.3398 E2740.05
G1 X-65.9562 Y-69.2417 E2743.05
G1 X-65.9918 Y-69.2162 E2743.09
G1 X-68.5878 Y-66.7134 E2746.09
G1 X-68.6193 Y-66.683 E2746.12
G1 X-70.8232 Y-63.8289 E2749.12
G1 X-70.85 Y-63.7942 E2749.16
G1 X-72.6148 Y-60.6496 E2752.16
G1 X-72.6362 Y-60.6114 E2752.19
G1 X-73.9244 Y-57.2434 E2755.19
G1 X-73.94 Y-57.2025 E2755.23
G1 X-74.7241 Y-53.6828 E2758.22
G1 X-100 Y-90
G1 X0 Y-90 E2841.38
G1 X-100 Y-80
G1 X0 Y-80 E2924.53
G1 X-100 Y-70
G1 X-64.8962 Y-70 E2953.71
G1 X-35.0543 Y-70
G1 X0 Y-70 E2982.86
G1 X-100 Y-60
G1 X-72.8701 Y-60 E3005.42
G1 X-27.1508 Y-60
G1 X0 Y-60 E3028
G1 X-100 Y-50
G1 X-75 Y-50 E3048.78
G1 X-75 Y-50
G1 X-25.0667 Y-50 E3090.3
G1 X0 Y-50
G1 X-100 Y-40
G1 X-72.8701 Y-40 E3112.86
G1 X-27.1508 Y-40
G1 X0 Y-40 E3135.44
G1 X-100 Y-30
G1 X-64.8962 Y-30 E3164.63
G1 X-35.0543 Y-30
G1 X0 Y-30 E3193.78
G1 X-100 Y-20
G1 X0 Y-20 E3276.93
G1 X-100 Y-10
G1 X0 Y-10 E3360.08
G1 X-100 Y0
G1 X0 Y0 E3443.23
G1 Z0.8
G1 X0 Y0
G1 X0 Y-99.2 E3525.71
G1 X0 Y-100 E3526.38
G1 X-99.2 Y-100 E3608.86
G1 X-100 Y-100 E3609.53
G1 X-100 Y-0.8 E3692.01
G1 X-100 Y0 E3692.68
G1 X-0.8 Y0 E3775.16
G1 X-74.7336 Y-53.64
G1 X-74.9957 Y-50.0582 E3778.15
G1 X-75 Y-50 E3778.2
G1 X-74.7378 Y-46.4182 E3781.18
G1 X-74.7336 Y-46.36 E3781.23
G1 X-73.9527 Y-42.8545 E3784.22
G1 X-73.94 Y-42.7975 E3784.27
G1 X-72.6571 Y-39.4431 E3787.25
G1 X-72.6362 Y-39.3886 E3787.3
G1 X-70.8785 Y-36.2567 E3790.29
G1 X-70.85 Y-36.2058 E3790.34
G1 X-68.655 Y-33.3633 E3793.32
G1 X-68.6193 Y-33.317 E3793.37
G1 X-66.0339 Y-30.8244 E3796.36
G1 X-65.9918 Y-30.7838 E3796.41
G1 X-63.071 Y-28.6941 E3799.39
G1 X-63.0235 Y-28.6602 E3799.44
G1 X-59.8296 Y-27.0181 E3802.43
G1 X-59.7776 Y-26.9914 E3802.48
G1 X-56.3786 Y-25.8318 E3805.46
G1 X-56.3233 Y-25.8129 E3805.51
G1 X-52.7917 Y-25.1606 E3808.5
G1 X-52.7343 Y-25.15 E3808.55
G1 X-49.1453 Y-25.0188 E3811.53
G1 X-49.087 Y-25.0167 E3811.58
G1 X-45.5171 Y-25.4095 E3814.57
G1 X-45.4591 Y-25.4159 E3814.61
G1 X-41.9845 Y-26.3242 E3817.6
G1 X-41.928 Y-26.339 E3817.65
G1 X-38.6227 Y-27.7436 E3820.64
G1 X-38.5689 Y-27.7664 E3820.68
G1 X-35.5034 Y-29.6373 E3823.67
G1 X-35.4535 Y-29.6678 E3823.72
G1 X-32.693 Y-31.9651 E3826.71
G1 X-32.6482 Y-32.0024 E3826.75
G1 X-30.2516 Y-34.6772 E3829.74
G1 X-30.2126 Y-34.7207 E3829.79
G1 X-28.231 Y-37.7158 E3832.78
G1 X-28.1988 Y-37.7645 E3832.82
G1 X-26.6744 Y-41.0164 E3835.81
G1 X-26.6496 Y-41.0692 E3835.86
G1 X-25.6149 Y-44.5083 E3838.84
G1 X-25.5981 Y-44.5643 E3838.89
G1 X-25.0752 Y-48.1173 E3841.88
G1 X-25.0667 Y-48.1751 E3841.93
G1 X-25.0667 Y-51.7665 E3844.91
G1 X-25.0667 Y-51.8249 E3844.96
G1 X-25.5896 Y-55.378 E3847.95
G1 X-25.5981 Y-55.4357 E3848
G1 X-26.6328 Y-58.8748 E3850.98
G1 X-26.6496 Y-58.9308 E3851.03
G1 X-28.174 Y-62.1826 E3854.02
G1 X-28.1988 Y-62.2355 E3854.07
G1 X-30.1804 Y-65.2306 E3857.05
G1 X-30.2126 Y-65.2793 E3857.1
G1 X-32.6092 Y-67.9541 E3860.09
G1 X-32.6482 Y-67.9976 E3860.14
G1 X-35.4086 Y-70.2949 E3863.12
G1 X-35.4535 Y-70.3322 E3863.17
G1 X-38.5191 Y-72.2031 E3866.16
G1 X-38.5689 Y-72.2335 E3866.21
G1 X-41.8742 Y-73.6382 E3869.19
G1 X-41.928 Y-73.661 E3869.24
G1 X-45.4026 Y-74.5694 E3872.23
G1 X-45.4591 Y-74.5841 E3872.28
G1 X-49.0289 Y-74.9769 E3875.26
G1 X-49.087 Y-74.9833 E3875.31
G1 X-52.6759 Y-74.8522 E3878.3
G1 X-52.7343 Y-74.85 E3878.35
G1 X-56.2659 Y-74.1977 E3881.33
G1 X-56.3233 Y-74.1871 E3881.38
G1 X-59.7224 Y-73.0275 E3884.37
G1 X-59.7776 Y-73.0087 E3884.42
G1 X-62.9716 Y-71.3665 E3887.4
G1 X-63.0235 Y-71.3398 E3887.45
G1 X-65.9443 Y-69.2502 E3890.44
G1 X-65.9918 Y-69.2162 E3890.48
G1 X-68.5773 Y-66.7235 E3893.47
G1 X-68.6193 Y-66.683 E3893.52
G1 X-70.8143 Y-63.8404 E3896.51
G1 X-70.85 Y-63.7942 E3896.55
G1 X-72.6076 Y-60.6623 E3899.54
G1 X-72.6362 Y-60.6114 E3899.59
G1 X-73.9191 Y-57.257 E3902.58
G1 X-73.94 Y-57.2025 E3902.62
G1 X-74.7209 Y-53.697 E3905.61
G1 X-100 Y-90
G1 X0 Y-90 E3988.76
G1 X-100 Y-80
G1 X0 Y-80 E4071.91
G1 X-100 Y-70
G1 X-64.8962 Y-70 E4101.1
G1 X-35.0543 Y-70
G1 X0 Y-70 E4130.25
G1 X-100 Y-60
G1 X-72.8701 Y-60 E4152.81
G1 X-27.1508 Y-60
G1 X0 Y-60 E4175.38
G1 X-100 Y-50
G1 X-75 Y-50 E4196.17
G1 X-75 Y-50
G1 X-25.0667 Y-50 E4237.69
G1 X0 Y-50
G1 X-100 Y-40
G1 X-72.8701 Y-40 E4260.25
G1 X-27.1508 Y-40
G1 X0 Y-40 E4282.82
G1 X-100 Y-30
G1 X-64.8962 Y-30 E4312.01
G1 X-35.0543 Y-30
G1 X0 Y-30 E4341.16
G1 X-100 Y-20
G1 X0 Y-20 E4424.31
G1 X-100 Y-10
G1 X0 Y-10 E4507.46
G1 X-100 Y0
G1 X0 Y0 E4590.61
G1 Z1
G1 X0 Y0
G1 X0 Y-99 E4672.93
G1 X0 Y-100 E4673.76
G1 X-99 Y-100 E4756.08
G1 X-100 Y-100 E4756.91
G1 X-100 Y-1 E4839.23
G1 X-100 Y0 E4840.06
G1 X-1 Y0 E4922.38
G1 X-74.7336 Y-53.64
G1 X-74.9947 Y-50.0728 E4925.36
G1 X-75 Y-50 E4925.42
G1 X-74.7389 Y-46.4328 E4928.39
G1 X-74.7336 Y-46.36 E4928.45
G1 X-73.9559 Y-42.8688 E4931.43
G1 X-73.94 Y-42.7975 E4931.49
G1 X-72.6623 Y-39.4568 E4934.46
G1 X-72.6362 Y-39.3886 E4934.52
G1 X-70.8857 Y-36.2695 E4937.49
G1 X-70.85 Y-36.2058 E4937.56
G1 X-68.6639 Y-33.3748 E4940.53
G1 X-68.6193 Y-33.317 E4940.59
G1 X-66.0444 Y-30.8345 E4943.56
G1 X-65.9918 Y-30.7838 E4943.63
G1 X-63.0829 Y-28.7026 E4946.6
G1 X-63.0235 Y-28.6602 E4946.66
G1 X-59.8425 Y-27.0247 E4949.63
G1 X-59.7776 Y-26.9914 E4949.69
G1 X-56.3924 Y-25.8365 E4952.67
G1 X-56.3233 Y-25.8129 E4952.73
G1 X-52.8061 Y-25.1632 E4955.7
G1 X-52.7343 Y-25.15 E4955.76
G1 X-49.1599 Y-25.0193 E4958.74
G1 X-49.087 Y-25.0167 E4958.8
G1 X-45.5316 Y-25.4079 E4961.77
G1 X-45.4591 Y-25.4159 E4961.83
G1 X-41.9986 Y-26.3205 E4964.81
G1 X-41.928 Y-26.339 E4964.87
G1 X-38.6361 Y-27.7379 E4967.84
G1 X-38.5689 Y-27.7664 E4967.9
G1 X-35.5158 Y-29.6297 E4970.88
G1 X-35.4535 Y-29.6678 E4970.94
G1 X-32.7043 Y-31.9557 E4973.91
G1 X-32.6482 Y-32.0024 E4973.97
G1 X-30.2613 Y-34.6663 E4976.95
G1 X-30.2126 Y-34.7207 E4977.01
G1 X-28.239 Y-37.7037 E4979.98
G1 X-28.1988 Y-37.7645 E4980.04
G1 X-26.6806 Y-41.0031 E4983.02
G1 X-26.6496 Y-41.0692 E4983.08
G1 X-25.6191 Y-44.4943 E4986.05
G1 X-25.5981 Y-44.5643 E4986.11
G1 X-25.0773 Y-48.1029 E4989.09
G1 X-25.0667 Y-48.1751 E4989.15
G1 X-25.0667 Y-51.7519 E4992.12
G1 X-25.0667 Y-51.8249 E4992.18
G1 X-25.5875 Y-55.3635 E4995.16
G1 X-25.5981 Y-55.4357 E4995.22
G1 X-26.6286 Y-58.8609 E4998.19
G1 X-26.6496 Y-58.9308 E4998.25
