;generated by SUSSYSLICER by LUKE FADEL
G90 ; Use absolute coordinates 
M82 ; Use absolute extruder positioning
M140 S60 ; Set bed temperature to 60C (do not wait)
M104 S205 ; Set nozzle temperature to 205C (do not wait)
G28 ; Home all axes
M190 S60 ; Wait for bed temperature to reach 60C
M109 S205 ; Wait for nozzle temperature to reach 205C
G29 ; Perform bed leveling
G92 E0 ; Reset extruder position
G1 E10 F600 ; Prime nozzle
G0 F6000 ; Rapid move to start position
G1 Z0.2 F300 ; Move to first layer heightG1 Z0.2
G1 X104.345 Y0
G1 X67.8275 Y-21.0833 E1.40247
G1 X67.8275 Y21.0833 E2.80494
G1 X24.3449 Y0
G1 X-12.1724 Y-21.0833 E4.2074
G1 X-12.1724 Y21.0833 E5.60987
G1 X-12.1724 Y-20.6833
G1 X-11.4796 Y-20.6833 E5.63291
G1 X67.8275 Y-20.6833
G1 X68.5203 Y-20.6833 E5.65596
G1 X-12.1724 Y-20.2833
G1 X-10.7868 Y-20.2833 E5.70204
G1 X67.8275 Y-20.2833
G1 X69.2131 Y-20.2833 E5.74813
G1 X-12.1724 Y-19.8833
G1 X-10.0939 Y-19.8833 E5.81726
G1 X67.8275 Y-19.8833
G1 X69.906 Y-19.8833 E5.88639
G1 X-12.1724 Y-19.4833
G1 X-9.40112 Y-19.4833 E5.97856
G1 X67.8275 Y-19.4833
G1 X70.5988 Y-19.4833 E6.07074
G1 X-12.1724 Y-19.0833
G1 X-8.7083 Y-19.0833 E6.18595
G1 X67.8275 Y-19.0833
G1 X71.2916 Y-19.0833 E6.30117
G1 X-12.1724 Y-18.6833
G1 X-8.01548 Y-18.6833 E6.43943
G1 X67.8275 Y-18.6833
G1 X71.9844 Y-18.6833 E6.57769
G1 X-12.1724 Y-18.2833
G1 X-7.32266 Y-18.2833 E6.73899
G1 X67.8275 Y-18.2833
G1 X72.6773 Y-18.2833 E6.9003
G1 X-12.1724 Y-17.8833
G1 X-6.62984 Y-17.8833 E7.08464
G1 X67.8275 Y-17.8833
G1 X73.3701 Y-17.8833 E7.26899
G1 X-12.1724 Y-17.4833
G1 X-5.93702 Y-17.4833 E7.47638
G1 X67.8275 Y-17.4833
G1 X74.0629 Y-17.4833 E7.68377
G1 X-12.1724 Y-17.0833
G1 X-5.2442 Y-17.0833 E7.9142
G1 X67.8275 Y-17.0833
G1 X74.7557 Y-17.0833 E8.14464
G1 X-12.1724 Y-16.6833
G1 X-4.55139 Y-16.6833 E8.39811
G1 X67.8275 Y-16.6833
G1 X75.4486 Y-16.6833 E8.65159
G1 X-12.1724 Y-16.2833
G1 X-3.85857 Y-16.2833 E8.92811
G1 X67.8275 Y-16.2833
G1 X76.1414 Y-16.2833 E9.20463
G1 X-12.1724 Y-15.8833
G1 X-3.16575 Y-15.8833 E9.50419
G1 X67.8275 Y-15.8833
G1 X76.8342 Y-15.8833 E9.80376
G1 X-12.1724 Y-15.4833
G1 X-2.47293 Y-15.4833 E10.1264
G1 X67.8275 Y-15.4833
G1 X77.527 Y-15.4833 E10.449
G1 X-12.1724 Y-15.0833
G1 X-1.78011 Y-15.0833 E10.7946
G1 X67.8275 Y-15.0833
G1 X78.2199 Y-15.0833 E11.1403
G1 X-12.1724 Y-14.6833
G1 X-1.08729 Y-14.6833 E11.509
G1 X67.8275 Y-14.6833
G1 X78.9127 Y-14.6833 E11.8777
G1 X-12.1724 Y-14.2833
G1 X-0.394468 Y-14.2833 E12.2694
G1 X67.8275 Y-14.2833
G1 X79.6055 Y-14.2833 E12.6611
G1 X-12.1724 Y-13.8833
G1 X0.298352 Y-13.8833 E13.0759
G1 X67.8275 Y-13.8833
G1 X80.2983 Y-13.8833 E13.4907
G1 X-12.1724 Y-13.4833
G1 X0.991171 Y-13.4833 E13.9285
G1 X67.8275 Y-13.4833
G1 X80.9911 Y-13.4833 E14.3663
G1 X-12.1724 Y-13.0833
G1 X1.68399 Y-13.0833 E14.8272
G1 X67.8275 Y-13.0833
G1 X81.684 Y-13.0833 E15.2881
G1 X-12.1724 Y-12.6833
G1 X2.37681 Y-12.6833 E15.772
G1 X67.8275 Y-12.6833
G1 X82.3768 Y-12.6833 E16.2559
G1 X-12.1724 Y-12.2833
G1 X3.06963 Y-12.2833 E16.7628
G1 X67.8275 Y-12.2833
G1 X83.0696 Y-12.2833 E17.2698
G1 X-12.1724 Y-11.8833
G1 X3.76245 Y-11.8833 E17.7998
G1 X67.8275 Y-11.8833
G1 X83.7624 Y-11.8833 E18.3298
G1 X-12.1724 Y-11.4833
G1 X4.45527 Y-11.4833 E18.8828
G1 X67.8275 Y-11.4833
G1 X84.4553 Y-11.4833 E19.4359
G1 X-12.1724 Y-11.0833
G1 X5.14809 Y-11.0833 E20.012
G1 X67.8275 Y-11.0833
G1 X85.1481 Y-11.0833 E20.588
G1 X-12.1724 Y-10.6833
G1 X5.84091 Y-10.6833 E21.1872
G1 X67.8275 Y-10.6833
G1 X85.8409 Y-10.6833 E21.7863
G1 X-12.1724 Y-10.2833
G1 X6.53373 Y-10.2833 E22.4085
G1 X67.8275 Y-10.2833
G1 X86.5337 Y-10.2833 E23.0306
G1 X-12.1724 Y-9.8833
G1 X7.22655 Y-9.8833 E23.6758
G1 X67.8275 Y-9.8833
G1 X87.2266 Y-9.8833 E24.3211
G1 X-12.1724 Y-9.4833
G1 X7.91937 Y-9.4833 E24.9893
G1 X67.8275 Y-9.4833
G1 X87.9194 Y-9.4833 E25.6576
G1 X-12.1724 Y-9.0833
G1 X8.61219 Y-9.0833 E26.3489
G1 X67.8275 Y-9.0833
G1 X88.6122 Y-9.0833 E27.0402
G1 X-12.1724 Y-8.6833
G1 X9.30501 Y-8.6833 E27.7545
G1 X67.8275 Y-8.6833
G1 X89.305 Y-8.6833 E28.4689
G1 X-12.1724 Y-8.2833
G1 X9.99783 Y-8.2833 E29.2062
G1 X67.8275 Y-8.2833
G1 X89.9978 Y-8.2833 E29.9436
G1 X-12.1724 Y-7.8833
G1 X10.6906 Y-7.8833 E30.7041
G1 X67.8275 Y-7.8833
G1 X90.6907 Y-7.8833 E31.4645
G1 X-12.1724 Y-7.4833
G1 X11.3835 Y-7.4833 E32.248
G1 X67.8275 Y-7.4833
G1 X91.3835 Y-7.4833 E33.0314
G1 X-12.1724 Y-7.0833
G1 X12.0763 Y-7.0833 E33.838
G1 X67.8275 Y-7.0833
G1 X92.0763 Y-7.0833 E34.6445
G1 X-12.1724 Y-6.6833
G1 X12.7691 Y-6.6833 E35.474
G1 X67.8275 Y-6.6833
G1 X92.7691 Y-6.6833 E36.3036
G1 X-12.1724 Y-6.2833
G1 X13.4619 Y-6.2833 E37.1562
G1 X67.8275 Y-6.2833
G1 X93.462 Y-6.2833 E38.0088
G1 X-12.1724 Y-5.8833
G1 X14.1547 Y-5.8833 E38.8844
G1 X67.8275 Y-5.8833
G1 X94.1548 Y-5.8833 E39.7601
G1 X-12.1724 Y-5.4833
G1 X14.8476 Y-5.4833 E40.6588
G1 X67.8275 Y-5.4833
G1 X94.8476 Y-5.4833 E41.5575
G1 X-12.1724 Y-5.0833
G1 X15.5404 Y-5.0833 E42.4792
G1 X67.8275 Y-5.0833
G1 X95.5404 Y-5.0833 E43.4009
G1 X-12.1724 Y-4.6833
G1 X16.2332 Y-4.6833 E44.3457
G1 X67.8275 Y-4.6833
G1 X96.2333 Y-4.6833 E45.2905
G1 X-12.1724 Y-4.2833
G1 X16.926 Y-4.2833 E46.2583
G1 X67.8275 Y-4.2833
G1 X96.9261 Y-4.2833 E47.2261
G1 X-12.1724 Y-3.8833
G1 X17.6188 Y-3.8833 E48.217
G1 X67.8275 Y-3.8833
G1 X97.6189 Y-3.8833 E49.2079
G1 X-12.1724 Y-3.4833
G1 X18.3117 Y-3.4833 E50.2218
G1 X67.8275 Y-3.4833
G1 X98.3117 Y-3.4833 E51.2357
G1 X-12.1724 Y-3.0833
G1 X19.0045 Y-3.0833 E52.2726
G1 X67.8275 Y-3.0833
G1 X99.0046 Y-3.0833 E53.3096
G1 X-12.1724 Y-2.6833
G1 X19.6973 Y-2.6833 E54.3696
G1 X67.8275 Y-2.6833
G1 X99.6974 Y-2.6833 E55.4296
G1 X-12.1724 Y-2.2833
G1 X20.3901 Y-2.2833 E56.5126
G1 X67.8275 Y-2.2833
G1 X100.39 Y-2.2833 E57.5956
G1 X-12.1724 Y-1.8833
G1 X21.0829 Y-1.8833 E58.7017
G1 X67.8275 Y-1.8833
G1 X101.083 Y-1.8833 E59.8078
G1 X-12.1724 Y-1.4833
G1 X21.7758 Y-1.4833 E60.9369
G1 X67.8275 Y-1.4833
G1 X101.776 Y-1.4833 E62.066
G1 X-12.1724 Y-1.0833
G1 X22.4686 Y-1.0833 E63.2182
G1 X67.8275 Y-1.0833
G1 X102.469 Y-1.0833 E64.3704
G1 X-12.1724 Y-0.683296
G1 X23.1614 Y-0.683296 E65.5456
G1 X67.8275 Y-0.683296
G1 X103.161 Y-0.683296 E66.7208
G1 X-12.1724 Y-0.283296
G1 X23.8542 Y-0.283296 E67.919
G1 X67.8275 Y-0.283296
G1 X103.854 Y-0.283296 E69.1173
G1 X-12.1724 Y0.116704
G1 X24.1428 Y0.116704 E70.3251
G1 X67.8275 Y0.116704
G1 X104.143 Y0.116704 E71.533
G1 X-12.1724 Y0.516704
G1 X23.4499 Y0.516704 E72.7178
G1 X67.8275 Y0.516704
G1 X103.45 Y0.516704 E73.9026
G1 X-12.1724 Y0.916704
G1 X22.7571 Y0.916704 E75.0644
G1 X67.8275 Y0.916704
G1 X102.757 Y0.916704 E76.2261
G1 X-12.1724 Y1.3167
G1 X22.0643 Y1.3167 E77.3649
G1 X67.8275 Y1.3167
G1 X102.064 Y1.3167 E78.5036
G1 X-12.1724 Y1.7167
G1 X21.3715 Y1.7167 E79.6193
G1 X67.8275 Y1.7167
G1 X101.372 Y1.7167 E80.7349
G1 X-12.1724 Y2.1167
G1 X20.6787 Y2.1167 E81.8276
G1 X67.8275 Y2.1167
G1 X100.679 Y2.1167 E82.9202
G1 X-12.1724 Y2.5167
G1 X19.9858 Y2.5167 E83.9898
G1 X67.8275 Y2.5167
G1 X99.9859 Y2.5167 E85.0594
G1 X-12.1724 Y2.9167
G1 X19.293 Y2.9167 E86.1059
G1 X67.8275 Y2.9167
G1 X99.2931 Y2.9167 E87.1525
G1 X-12.1724 Y3.3167
G1 X18.6002 Y3.3167 E88.176
G1 X67.8275 Y3.3167
G1 X98.6003 Y3.3167 E89.1995
G1 X-12.1724 Y3.7167
G1 X17.9074 Y3.7167 E90.1999
G1 X67.8275 Y3.7167
G1 X97.9075 Y3.7167 E91.2004
G1 X-12.1724 Y4.1167
G1 X17.2146 Y4.1167 E92.1778
G1 X67.8275 Y4.1167
G1 X97.2146 Y4.1167 E93.1552
G1 X-12.1724 Y4.5167
G1 X16.5217 Y4.5167 E94.1096
G1 X67.8275 Y4.5167
G1 X96.5218 Y4.5167 E95.064
G1 X-12.1724 Y4.9167
G1 X15.8289 Y4.9167 E95.9953
G1 X67.8275 Y4.9167
G1 X95.829 Y4.9167 E96.9267
G1 X-12.1724 Y5.3167
G1 X15.1361 Y5.3167 E97.8349
G1 X67.8275 Y5.3167
G1 X95.1362 Y5.3167 E98.7432
G1 X-12.1724 Y5.7167
G1 X14.4433 Y5.7167 E99.6285
G1 X67.8275 Y5.7167
G1 X94.4433 Y5.7167 E100.514
G1 X-12.1724 Y6.1167
G1 X13.7505 Y6.1167 E101.376
G1 X67.8275 Y6.1167
G1 X93.7505 Y6.1167 E102.238
G1 X-12.1724 Y6.5167
G1 X13.0577 Y6.5167 E103.077
G1 X67.8275 Y6.5167
G1 X93.0577 Y6.5167 E103.916
G1 X-12.1724 Y6.9167
G1 X12.3648 Y6.9167 E104.733
G1 X67.8275 Y6.9167
G1 X92.3649 Y6.9167 E105.549
G1 X-12.1724 Y7.3167
G1 X11.672 Y7.3167 E106.342
G1 X67.8275 Y7.3167
G1 X91.672 Y7.3167 E107.135
G1 X-12.1724 Y7.7167
G1 X10.9792 Y7.7167 E107.905
G1 X67.8275 Y7.7167
G1 X90.9792 Y7.7167 E108.675
G1 X-12.1724 Y8.1167
G1 X10.2864 Y8.1167 E109.422
G1 X67.8275 Y8.1167
G1 X90.2864 Y8.1167 E110.169
G1 X-12.1724 Y8.5167
G1 X9.59355 Y8.5167 E110.893
G1 X67.8275 Y8.5167
G1 X89.5936 Y8.5167 E111.617
G1 X-12.1724 Y8.9167
G1 X8.90073 Y8.9167 E112.318
G1 X67.8275 Y8.9167
G1 X88.9007 Y8.9167 E113.018
G1 X-12.1724 Y9.3167
G1 X8.20791 Y9.3167 E113.696
G1 X67.8275 Y9.3167
G1 X88.2079 Y9.3167 E114.374
G1 X-12.1724 Y9.7167
G1 X7.51509 Y9.7167 E115.029
G1 X67.8275 Y9.7167
G1 X87.5151 Y9.7167 E115.684
G1 X-12.1724 Y10.1167
G1 X6.82227 Y10.1167 E116.316
G1 X67.8275 Y10.1167
G1 X86.8223 Y10.1167 E116.947
G1 X-12.1724 Y10.5167
G1 X6.12946 Y10.5167 E117.556
G1 X67.8275 Y10.5167
G1 X86.1295 Y10.5167 E118.165
G1 X-12.1724 Y10.9167
G1 X5.43664 Y10.9167 E118.75
G1 X67.8275 Y10.9167
G1 X85.4366 Y10.9167 E119.336
G1 X-12.1724 Y11.3167
G1 X4.74382 Y11.3167 E119.899
G1 X67.8275 Y11.3167
G1 X84.7438 Y11.3167 E120.461
G1 X-12.1724 Y11.7167
G1 X4.051 Y11.7167 E121.001
G1 X67.8275 Y11.7167
G1 X84.051 Y11.7167 E121.541
G1 X-12.1724 Y12.1167
G1 X3.35818 Y12.1167 E122.057
G1 X67.8275 Y12.1167
G1 X83.3582 Y12.1167 E122.574
G1 X-12.1724 Y12.5167
G1 X2.66536 Y12.5167 E123.067
G1 X67.8275 Y12.5167
G1 X82.6653 Y12.5167 E123.561
G1 X-12.1724 Y12.9167
G1 X1.97254 Y12.9167 E124.031
G1 X67.8275 Y12.9167
G1 X81.9725 Y12.9167 E124.502
G1 X-12.1724 Y13.3167
G1 X1.27972 Y13.3167 E124.949
G1 X67.8275 Y13.3167
G1 X81.2797 Y13.3167 E125.397
G1 X-12.1724 Y13.7167
G1 X0.586899 Y13.7167 E125.821
G1 X67.8275 Y13.7167
G1 X80.5869 Y13.7167 E126.245
G1 X-12.1724 Y14.1167
G1 X-0.105921 Y14.1167 E126.647
G1 X67.8275 Y14.1167
G1 X79.894 Y14.1167 E127.048
G1 X-12.1724 Y14.5167
G1 X-0.798741 Y14.5167 E127.426
G1 X67.8275 Y14.5167
G1 X79.2012 Y14.5167 E127.805
G1 X-12.1724 Y14.9167
G1 X-1.49156 Y14.9167 E128.16
G1 X67.8275 Y14.9167
G1 X78.5084 Y14.9167 E128.515
G1 X-12.1724 Y15.3167
G1 X-2.18438 Y15.3167 E128.847
G1 X67.8275 Y15.3167
G1 X77.8156 Y15.3167 E129.179
G1 X-12.1724 Y15.7167
G1 X-2.8772 Y15.7167 E129.489
G1 X67.8275 Y15.7167
G1 X77.1228 Y15.7167 E129.798
G1 X-12.1724 Y16.1167
G1 X-3.57002 Y16.1167 E130.084
G1 X67.8275 Y16.1167
G1 X76.4299 Y16.1167 E130.37
G1 X-12.1724 Y16.5167
G1 X-4.26284 Y16.5167 E130.633
G1 X67.8275 Y16.5167
G1 X75.7371 Y16.5167 E130.896
G1 X-12.1724 Y16.9167
G1 X-4.95566 Y16.9167 E131.136
G1 X67.8275 Y16.9167
G1 X75.0443 Y16.9167 E131.376
G1 X-12.1724 Y17.3167
G1 X-5.64848 Y17.3167 E131.593
G1 X67.8275 Y17.3167
G1 X74.3515 Y17.3167 E131.81
G1 X-12.1724 Y17.7167
G1 X-6.3413 Y17.7167 E132.004
G1 X67.8275 Y17.7167
G1 X73.6586 Y17.7167 E132.198
G1 X-12.1724 Y18.1167
G1 X-7.03412 Y18.1167 E132.369
G1 X67.8275 Y18.1167
G1 X72.9658 Y18.1167 E132.54
G1 X-12.1724 Y18.5167
G1 X-7.72694 Y18.5167 E132.688
G1 X67.8275 Y18.5167
G1 X72.273 Y18.5167 E132.836
G1 X-12.1724 Y18.9167
G1 X-8.41976 Y18.9167 E132.96
G1 X67.8275 Y18.9167
G1 X71.5802 Y18.9167 E133.085
G1 X-12.1724 Y19.3167
G1 X-9.11258 Y19.3167 E133.187
G1 X67.8275 Y19.3167
G1 X70.8873 Y19.3167 E133.289
G1 X-12.1724 Y19.7167
G1 X-9.80539 Y19.7167 E133.367
G1 X67.8275 Y19.7167
G1 X70.1945 Y19.7167 E133.446
G1 X-12.1724 Y20.1167
G1 X-10.4982 Y20.1167 E133.502
G1 X67.8275 Y20.1167
G1 X69.5017 Y20.1167 E133.558
G1 X-12.1724 Y20.5167
G1 X-11.191 Y20.5167 E133.59
G1 X67.8275 Y20.5167
G1 X68.8089 Y20.5167 E133.623
G1 X-12.1724 Y20.9167
G1 X-11.8839 Y20.9167 E133.632
G1 X67.8275 Y20.9167
G1 X68.116 Y20.9167 E133.642
G1 Z0.4
G1 X104.195 Y0
G1 X67.9025 Y-20.9534 E135.036
G1 X67.9025 Y20.9534 E136.43
G1 X24.1949 Y0
G1 X-12.0974 Y-20.9534 E137.824
G1 X-12.0974 Y20.9534 E139.217
G1 X-12.0974 Y-20.5534
G1 X-11.4046 Y-20.5534 E139.24
G1 X67.9025 Y-20.5534
G1 X68.5953 Y-20.5534 E139.263
G1 X-12.0974 Y-20.1534
G1 X-10.7118 Y-20.1534 E139.31
G1 X67.9025 Y-20.1534
G1 X69.2881 Y-20.1534 E139.356
G1 X-12.0974 Y-19.7534
G1 X-10.0189 Y-19.7534 E139.425
G1 X67.9025 Y-19.7534
G1 X69.981 Y-19.7534 E139.494
G1 X-12.0974 Y-19.3534
G1 X-9.32612 Y-19.3534 E139.586
G1 X67.9025 Y-19.3534
G1 X70.6738 Y-19.3534 E139.678
G1 X-12.0974 Y-18.9534
G1 X-8.6333 Y-18.9534 E139.793
G1 X67.9025 Y-18.9534
G1 X71.3666 Y-18.9534 E139.909
G1 X-12.0974 Y-18.5534
G1 X-7.94048 Y-18.5534 E140.047
G1 X67.9025 Y-18.5534
G1 X72.0594 Y-18.5534 E140.185
G1 X-12.0974 Y-18.1534
G1 X-7.24766 Y-18.1534 E140.346
G1 X67.9025 Y-18.1534
G1 X72.7523 Y-18.1534 E140.508
G1 X-12.0974 Y-17.7534
G1 X-6.55484 Y-17.7534 E140.692
G1 X67.9025 Y-17.7534
G1 X73.4451 Y-17.7534 E140.876
G1 X-12.0974 Y-17.3534
G1 X-5.86202 Y-17.3534 E141.084
G1 X67.9025 Y-17.3534
G1 X74.1379 Y-17.3534 E141.291
G1 X-12.0974 Y-16.9534
G1 X-5.16921 Y-16.9534 E141.522
G1 X67.9025 Y-16.9534
G1 X74.8307 Y-16.9534 E141.752
G1 X-12.0974 Y-16.5534
G1 X-4.47639 Y-16.5534 E142.006
G1 X67.9025 Y-16.5534
G1 X75.5236 Y-16.5534 E142.259
G1 X-12.0974 Y-16.1534
G1 X-3.78357 Y-16.1534 E142.536
G1 X67.9025 Y-16.1534
G1 X76.2164 Y-16.1534 E142.812
G1 X-12.0974 Y-15.7534
G1 X-3.09075 Y-15.7534 E143.112
G1 X67.9025 Y-15.7534
G1 X76.9092 Y-15.7534 E143.411
G1 X-12.0974 Y-15.3534
G1 X-2.39793 Y-15.3534 E143.734
G1 X67.9025 Y-15.3534
G1 X77.602 Y-15.3534 E144.056
G1 X-12.0974 Y-14.9534
G1 X-1.70511 Y-14.9534 E144.402
G1 X67.9025 Y-14.9534
G1 X78.2949 Y-14.9534 E144.748
G1 X-12.0974 Y-14.5534
G1 X-1.01229 Y-14.5534 E145.116
G1 X67.9025 Y-14.5534
G1 X78.9877 Y-14.5534 E145.485
G1 X-12.0974 Y-14.1534
G1 X-0.319468 Y-14.1534 E145.877
G1 X67.9025 Y-14.1534
G1 X79.6805 Y-14.1534 E146.269
G1 X-12.0974 Y-13.7534
G1 X0.373351 Y-13.7534 E146.683
G1 X67.9025 Y-13.7534
G1 X80.3733 Y-13.7534 E147.098
G1 X-12.0974 Y-13.3534
G1 X1.06617 Y-13.3534 E147.536
G1 X67.9025 Y-13.3534
G1 X81.0661 Y-13.3534 E147.974
G1 X-12.0974 Y-12.9534
G1 X1.75899 Y-12.9534 E148.435
G1 X67.9025 Y-12.9534
G1 X81.759 Y-12.9534 E148.896
G1 X-12.0974 Y-12.5534
G1 X2.45181 Y-12.5534 E149.379
G1 X67.9025 Y-12.5534
G1 X82.4518 Y-12.5534 E149.863
G1 X-12.0974 Y-12.1534
G1 X3.14463 Y-12.1534 E150.37
G1 X67.9025 Y-12.1534
G1 X83.1446 Y-12.1534 E150.877
G1 X-12.0974 Y-11.7534
G1 X3.83745 Y-11.7534 E151.407
G1 X67.9025 Y-11.7534
G1 X83.8374 Y-11.7534 E151.937
G1 X-12.0974 Y-11.3534
G1 X4.53027 Y-11.3534 E152.49
G1 X67.9025 Y-11.3534
G1 X84.5303 Y-11.3534 E153.043
G1 X-12.0974 Y-10.9534
G1 X5.22309 Y-10.9534 E153.619
G1 X67.9025 Y-10.9534
G1 X85.2231 Y-10.9534 E154.196
G1 X-12.0974 Y-10.5534
G1 X5.91591 Y-10.5534 E154.795
G1 X67.9025 Y-10.5534
G1 X85.9159 Y-10.5534 E155.394
G1 X-12.0974 Y-10.1534
G1 X6.60873 Y-10.1534 E156.016
G1 X67.9025 Y-10.1534
G1 X86.6087 Y-10.1534 E156.638
G1 X-12.0974 Y-9.75339
G1 X7.30155 Y-9.75339 E157.283
G1 X67.9025 Y-9.75339
G1 X87.3016 Y-9.75339 E157.929
G1 X-12.0974 Y-9.35339
G1 X7.99437 Y-9.35339 E158.597
G1 X67.9025 Y-9.35339
G1 X87.9944 Y-9.35339 E159.265
G1 X-12.0974 Y-8.95339
G1 X8.68719 Y-8.95339 E159.956
G1 X67.9025 Y-8.95339
G1 X88.6872 Y-8.95339 E160.648
G1 X-12.0974 Y-8.55339
G1 X9.38001 Y-8.55339 E161.362
G1 X67.9025 Y-8.55339
G1 X89.38 Y-8.55339 E162.076
G1 X-12.0974 Y-8.15339
G1 X10.0728 Y-8.15339 E162.814
G1 X67.9025 Y-8.15339
G1 X90.0728 Y-8.15339 E163.551
G1 X-12.0974 Y-7.75339
G1 X10.7656 Y-7.75339 E164.312
G1 X67.9025 Y-7.75339
G1 X90.7657 Y-7.75339 E165.072
G1 X-12.0974 Y-7.35339
G1 X11.4585 Y-7.35339 E165.855
G1 X67.9025 Y-7.35339
G1 X91.4585 Y-7.35339 E166.639
G1 X-12.0974 Y-6.95339
G1 X12.1513 Y-6.95339 E167.445
G1 X67.9025 Y-6.95339
G1 X92.1513 Y-6.95339 E168.252
G1 X-12.0974 Y-6.55339
G1 X12.8441 Y-6.55339 E169.081
G1 X67.9025 Y-6.55339
G1 X92.8441 Y-6.55339 E169.911
G1 X-12.0974 Y-6.15339
G1 X13.5369 Y-6.15339 E170.764
G1 X67.9025 Y-6.15339
G1 X93.537 Y-6.15339 E171.616
G1 X-12.0974 Y-5.75339
G1 X14.2297 Y-5.75339 E172.492
G1 X67.9025 Y-5.75339
G1 X94.2298 Y-5.75339 E173.368
G1 X-12.0974 Y-5.35339
G1 X14.9226 Y-5.35339 E174.266
G1 X67.9025 Y-5.35339
G1 X94.9226 Y-5.35339 E175.165
G1 X-12.0974 Y-4.95339
G1 X15.6154 Y-4.95339 E176.087
G1 X67.9025 Y-4.95339
G1 X95.6154 Y-4.95339 E177.008
