;generated by SUSSYSLICER by LUKE FADEL
G90 ; Use absolute coordinates 
M82 ; Use absolute extruder positioning
M140 S60 ; Set bed temperature to 60C (do not wait)
M104 S205 ; Set nozzle temperature to 205C (do not wait)
G28 ; Home all axes
M190 S60 ; Wait for bed temperature to reach 60C
M109 S205 ; Wait for nozzle temperature to reach 205C
G29 ; Perform bed leveling
G92 E0 ; Reset extruder position
G1 E10 F600 ; Prime nozzle
G0 F6000 ; Rapid move to start position
G1 Z0.2 F300 ; Move to first layer height
G1 Z0.2
G1 X-12.5942 Y-4.32649
G1 X-12.4101 Y-4.06618 E0.265095
G1 X-12.3113 Y-3.92649 E0.407351
G1 X-12.877 Y-3.92649 E0.877719
G1 X-12.7755 Y-4.07009 E1.02395
G1 Z0.4
G1 X-12.5942 Y-4.52649
G1 X-12.226 Y-4.00587 E1.55414
G1 X-12.0285 Y-3.72649 E1.83866
G1 X-13.1599 Y-3.72649 E2.77939
G1 X-12.9568 Y-4.01368 E3.07186
G1 Z0.6
G1 X-12.5942 Y-4.72649
G1 X-12.042 Y-3.94556 E3.86714
G1 X-11.7457 Y-3.52649 E4.29391
G1 X-13.4427 Y-3.52649 E5.70502
G1 X-13.1381 Y-3.95728 E6.14372
G1 Z0.8
G1 X-12.5942 Y-4.92649
G1 X-11.8579 Y-3.88525 E7.2041
G1 X-11.4628 Y-3.32649 E7.77313
G1 X-13.7255 Y-3.32649 E9.6546
G1 X-13.3194 Y-3.90087 E10.2395
G1 Z1
G1 X-12.5942 Y-5.12649
G1 X-11.6738 Y-3.82494 E11.565
G1 X-11.18 Y-3.12649 E12.2763
G1 X-14.0084 Y-3.12649 E14.6281
G1 X-13.5007 Y-3.84447 E15.3593
G1 Z1.2
G1 X-12.5942 Y-5.32649
G1 X-11.4898 Y-3.76463 E16.9499
G1 X-10.8971 Y-2.92649 E17.8034
G1 X-14.2912 Y-2.92649 E20.6256
G1 X-13.682 Y-3.78807 E21.503
G1 Z1.4
G1 X-12.5942 Y-5.52649
G1 X-11.3057 Y-3.70432 E23.3587
G1 X-10.6143 Y-2.72649 E24.3545
G1 X-14.5741 Y-2.72649 E27.6471
G1 X-13.8633 Y-3.73166 E28.6707
G1 Z1.6
G1 X-12.5942 Y-5.72649
G1 X-11.1216 Y-3.64401 E30.7915
G1 X-10.3314 Y-2.52649 E31.9295
G1 X-14.8569 Y-2.52649 E35.6925
G1 X-14.0446 Y-3.67526 E36.8623
G1 Z1.8
G1 X-12.5942 Y-5.92649
G1 X-10.9376 Y-3.5837 E39.2482
G1 X-10.0486 Y-2.32649 E40.5285
G1 X-15.1398 Y-2.32649 E44.7618
G1 X-14.2259 Y-3.61885 E46.0779
G1 Z2
G1 X-12.5942 Y-6.12649
G1 X-10.7535 Y-3.52339 E48.7289
G1 X-9.76576 Y-2.12649 E50.1514
G1 X-15.4226 Y-2.12649 E54.8551
G1 X-14.4072 Y-3.56245 E56.3174
G1 Z2.2
G1 X-12.5942 Y-6.32649
G1 X-10.5694 Y-3.46308 E59.2335
G1 X-9.48292 Y-1.9265 E60.7983
G1 X-15.7054 Y-1.9265 E65.9724
G1 X-14.5885 Y-3.50605 E67.5809
G1 Z2.4
G1 X-12.5942 Y-6.52649
G1 X-10.3854 Y-3.40277 E70.7621
G1 X-9.20008 Y-1.7265 E72.4692
G1 X-15.9883 Y-1.7265 E78.1136
G1 X-14.7698 Y-3.44964 E79.8684
G1 Z2.6
G1 X-12.5942 Y-6.72649
G1 X-10.2013 Y-3.34246 E83.3146
G1 X-8.91723 Y-1.5265 E85.1639
G1 X-16.2711 Y-1.5265 E91.2787
G1 X-14.9512 Y-3.39324 E93.1798
G1 Z2.8
G1 X-12.5942 Y-6.92649
G1 X-10.0172 Y-3.28215 E96.8911
G1 X-8.63439 Y-1.3265 E98.8827
G1 X-16.554 Y-1.3265 E105.468
G1 X-15.1325 Y-3.33683 E107.515
G1 Z3
G1 X-12.5942 Y-7.12649
G1 X-9.83317 Y-3.22184 E111.492
G1 X-8.35155 Y-1.1265 E113.625
G1 X-16.8368 Y-1.1265 E120.681
G1 X-15.3138 Y-3.28043 E122.874
G1 Z3.2
G1 X-12.5942 Y-7.32649
G1 X-9.6491 Y-3.16153 E127.116
G1 X-8.06871 Y-0.926498 E129.392
G1 X-17.1197 Y-0.926498 E136.918
G1 X-15.4951 Y-3.22403 E139.258
G1 Z3.4
G1 X-12.5942 Y-7.52649
G1 X-9.46503 Y-3.10122 E143.764
G1 X-7.78587 Y-0.726498 E146.183
G1 X-17.4025 Y-0.726498 E154.179
G1 X-15.6764 Y-3.16762 E156.665
G1 Z3.6
G1 X-12.5942 Y-7.72649
G1 X-9.28096 Y-3.04091 E161.437
G1 X-7.50302 Y-0.526499 E163.997
G1 X-17.6853 Y-0.526499 E172.464
G1 X-15.8577 Y-3.11122 E175.096
G1 Z3.8
G1 X-12.5942 Y-7.92649
G1 X-9.0969 Y-2.9806 E180.133
G1 X-7.22018 Y-0.326499 E182.836
G1 X-17.9682 Y-0.326499 E191.773
G1 X-16.039 Y-3.05481 E194.551
G1 Z4
G1 X-12.5942 Y-8.12649
G1 X-8.91283 Y-2.92029 E199.853
G1 X-6.93734 Y-0.1265 E202.698
G1 X-18.251 Y-0.1265 E212.106
G1 X-16.2203 Y-2.99841 E215.03
G1 Z4.2
G1 X-18.4338 Y0
G1 X-18.4203 Y0 E215.041
G1 X-6.75493 Y0 E224.741
G1 X-8.72876 Y-2.85998 E227.631
G1 X-12.5942 Y-8.32649 E233.198
G1 X-16.4016 Y-2.94201 E238.681
G1 X-18.4819 Y0 E241.677
G1 X-18.4338 Y0 E241.717
G1 Z4.4
G1 X-18.4443 Y0
G1 X-18.3943 Y0 E241.759
G1 X-6.74537 Y0 E251.445
G1 X-8.54469 Y-2.79967 E254.212
G1 X-12.5942 Y-8.52649 E260.044
G1 X-16.5829 Y-2.8856 E265.789
G1 X-18.6233 Y0 E268.727
G1 X-18.4443 Y0 E268.876
G1 Z4.6
G1 X-18.4548 Y0
G1 X-18.3682 Y0 E268.948
G1 X-6.73581 Y0 E278.621
G1 X-8.36063 Y-2.73936 E281.269
G1 X-12.5942 Y-8.72649 E287.366
G1 X-16.7642 Y-2.8292 E293.372
G1 X-18.7647 Y0 E296.253
G1 X-18.4548 Y0 E296.511
G1 Z4.8
G1 X-18.4653 Y0
G1 X-18.3421 Y0 E296.613
G1 X-6.72626 Y0 E306.272
G1 X-8.17656 Y-2.67905 E308.805
G1 X-12.5942 Y-8.92649 E315.167
G1 X-16.9455 Y-2.77279 E321.434
G1 X-18.9062 Y0 E324.258
G1 X-18.4653 Y0 E324.624
G1 Z5
G1 X-18.4758 Y0
G1 X-18.3161 Y0 E324.757
G1 X-6.7167 Y0 E334.402
G1 X-7.99249 Y-2.61874 E336.824
G1 X-12.5942 Y-9.12649 E343.452
G1 X-17.1268 Y-2.71639 E349.98
G1 X-19.0476 Y0 E352.746
G1 X-18.4758 Y0 E353.221
G1 Z5.2
G1 X-18.4863 Y0
G1 X-18.29 Y0 E353.384
G1 X-6.70714 Y0 E363.016
G1 X-7.80842 Y-2.55843 E365.332
G1 X-12.5942 Y-9.32649 E372.224
G1 X-17.3081 Y-2.65999 E379.013
G1 X-19.189 Y0 E381.722
G1 X-18.4863 Y0 E382.306
G1 Z5.4
G1 X-18.4968 Y0
G1 X-18.264 Y0 E382.5
G1 X-6.69758 Y0 E392.118
G1 X-7.62436 Y-2.49812 E394.333
G1 X-12.5942 Y-9.52649 E401.491
G1 X-17.4894 Y-2.60358 E408.541
G1 X-19.3304 Y0 E411.192
G1 X-18.4968 Y0 E411.885
G1 Z5.6
G1 X-18.5073 Y0
G1 X-18.2379 Y0 E412.109
G1 X-6.68802 Y0 E421.713
G1 X-7.44029 Y-2.43781 E423.834
G1 X-12.5942 Y-9.72649 E431.257
G1 X-17.6707 Y-2.54718 E438.568
G1 X-19.4719 Y0 E441.162
G1 X-18.5073 Y0 E441.964
G1 Z5.8
G1 X-18.5178 Y0
G1 X-18.2118 Y0 E442.219
G1 X-6.67847 Y0 E451.809
G1 X-7.25622 Y-2.3775 E453.843
G1 X-12.5942 Y-9.92649 E461.531
G1 X-17.852 Y-2.49077 E469.103
G1 X-19.6133 Y0 E471.64
G1 X-18.5178 Y0 E472.551
G1 Z6
G1 X-18.5283 Y0
G1 X-18.1858 Y0 E472.836
G1 X-6.66891 Y0 E482.412
G1 X-7.07215 Y-2.31719 E484.368
G1 X-12.5942 Y-10.1265 E492.321
G1 X-18.0334 Y-2.43437 E500.154
G1 X-19.7547 Y0 E502.633
G1 X-18.5283 Y0 E503.653
G1 X-19.6653 Y-0.126488
G1 X-5.52311 Y-0.126488 E515.412
G1 Z6.2
G1 X-18.5388 Y0
G1 X-18.1597 Y0 E515.727
G1 X-6.65935 Y0 E525.29
G1 X-6.88808 Y-2.25688 E527.176
G1 X-12.5942 Y-10.3265 E535.394
G1 X-18.2147 Y-2.37797 E543.489
G1 X-19.8961 Y0 E545.91
G1 X-18.5388 Y0 E547.039
G1 X-19.6653 Y-0.326488
G1 X-5.5231 Y-0.326488 E558.798
G1 Z6.4
G1 X-18.5493 Y0
G1 X-18.1336 Y0 E559.144
G1 X-6.64979 Y0 E568.693
G1 X-6.70402 Y-2.19657 E570.52
G1 X-12.5942 Y-10.5265 E579.003
G1 X-18.396 Y-2.32156 E587.359
G1 X-20.0375 Y0 E589.723
G1 X-18.5493 Y0 E590.96
G1 X-19.6653 Y-0.526488
G1 X-5.5231 Y-0.526488 E602.719
G1 Z6.6
G1 X-18.5598 Y0
G1 X-18.1076 Y0 E603.096
G1 X-6.64023 Y0 E612.631
G1 X-6.51995 Y-2.13627 E614.41
G1 X-12.5942 Y-10.7265 E623.158
G1 X-18.5773 Y-2.26516 E631.775
G1 X-20.179 Y0 E634.082
G1 X-18.5598 Y0 E635.428
G1 X-19.6653 Y-0.726488
G1 X-5.5231 Y-0.726488 E647.187
G1 Z6.8
G1 X-18.5704 Y0
G1 X-18.0815 Y0 E647.594
G1 X-6.63068 Y0 E657.115
G1 X-6.33588 Y-2.07596 E658.858
G1 X-12.5942 Y-10.9265 E667.872
G1 X-18.7586 Y-2.20875 E676.75
G1 X-20.3204 Y0 E678.999
G1 X-18.5704 Y0 E680.454
G1 X-19.6653 Y-0.926488
G1 X-5.5231 Y-0.926488 E692.213
G1 Z7
G1 X-18.5809 Y0
G1 X-18.0554 Y0 E692.65
G1 X-6.62112 Y0 E702.158
G1 X-6.15181 Y-2.01565 E703.879
G1 X-12.5942 Y-11.1265 E713.157
G1 X-18.9399 Y-2.15235 E722.296
G1 X-20.4618 Y0 E724.488
G1 X-18.5809 Y0 E726.052
G1 X-19.6653 Y-1.12649
G1 X-5.52309 Y-1.12649 E737.811
G1 Z7.2
G1 X-18.5914 Y0
G1 X-18.0294 Y0 E738.279
G1 X-6.61156 Y0 E747.773
G1 X-5.96775 Y-1.95534 E749.484
G1 X-12.5942 Y-11.3265 E759.028
G1 X-19.1212 Y-2.09595 E768.428
G1 X-20.6032 Y0 E770.562
G1 X-18.5914 Y0 E772.235
G1 X-19.6653 Y-1.32649
G1 X-5.52309 Y-1.32649 E783.995
G1 Z7.4
G1 X-18.6019 Y0
G1 X-18.0033 Y0 E784.492
G1 X-6.602 Y0 E793.973
G1 X-5.78368 Y-1.89503 E795.689
G1 X-12.5942 Y-11.5265 E805.497
G1 X-19.3025 Y-2.03954 E815.159
G1 X-20.7447 Y0 E817.236
G1 X-18.6019 Y0 E819.017
G1 X-19.6653 Y-1.52649
G1 X-5.52309 Y-1.52649 E830.777
G1 Z7.6
G1 X-18.6124 Y0
G1 X-17.9773 Y0 E831.305
G1 X-6.59245 Y0 E840.771
G1 X-5.59961 Y-1.83472 E842.506
G1 X-12.5942 Y-11.7265 E852.58
G1 X-19.4838 Y-1.98314 E862.502
G1 X-20.8861 Y0 E864.522
G1 X-18.6124 Y0 E866.412
G1 X-19.6653 Y-1.72649
G1 X-5.52308 Y-1.72649 E878.171
G1 X-23.1918 Y3.36304
G1 X-23.1918 Y3.36304 E878.171
G1 X-23.3423 Y3.47357 E878.327
G1 X-23.3423 Y3.47357 E878.327
G1 Z7.8
G1 X-18.6229 Y0
G1 X-17.9512 Y0 E878.885
G1 X-6.58289 Y0 E888.338
G1 X-5.41554 Y-1.77441 E890.104
G1 X-12.5942 Y-11.9265 E900.443
G1 X-19.6651 Y-1.92673 E910.626
G1 X-21.0275 Y0 E912.588
G1 X-18.6229 Y0 E914.588
G1 X-19.6653 Y-1.92649
G1 X-5.52308 Y-1.92649 E926.347
G1 X-1.83678 Y3.67356
G1 X-1.7635 Y3.527 E926.483
G1 X-1.72348 Y3.44695 E926.558
G1 X-1.56324 Y3.67356 E926.789
G1 X-23.1957 Y3.35817
G1 X-23.1957 Y3.35817 E926.789
G1 X-23.6251 Y3.67357 E927.232
G1 X-23.6251 Y3.67357 E927.232
G1 Z8
G1 X-18.6334 Y0
G1 X-17.9251 Y0 E927.821
G1 X-6.57333 Y0 E937.26
G1 X-5.23148 Y-1.7141 E939.07
G1 X-12.5942 Y-12.1265 E949.674
G1 X-19.8464 Y-1.87033 E960.118
G1 X-21.1689 Y0 E962.023
G1 X-18.6334 Y0 E964.131
G1 X-19.6653 Y-2.12649
G1 X-5.52308 Y-2.12649 E975.891
G1 X-1.93678 Y3.87356
G1 X-1.76094 Y3.52188 E976.217
G1 X-1.6649 Y3.3298 E976.396
G1 X-1.2804 Y3.87356 E976.95
G1 X-23.1995 Y3.35329
G1 X-23.1995 Y3.35329 E976.95
G1 X-23.908 Y3.87357 E977.681
G1 X-23.908 Y3.87357 E977.681
G1 Z8.2
G1 X-18.6439 Y0
G1 X-17.8991 Y0 E978.3
G1 X-6.56377 Y0 E987.725
G1 X-5.04741 Y-1.65379 E989.591
G1 X-12.5942 Y-12.3265 E1000.46
G1 X-20.0277 Y-1.81393 E1011.17
G1 X-21.3103 Y0 E1013.01
G1 X-18.6439 Y0 E1015.23
G1 X-19.6653 Y-2.32649
G1 X-5.52308 Y-2.32649 E1026.99
G1 X-2.03678 Y4.07356
G1 X-1.75838 Y3.51676 E1027.51
G1 X-1.60632 Y3.21264 E1027.79
G1 X-0.997555 Y4.07356 E1028.67
G1 X-23.2034 Y3.34842
G1 X-23.2034 Y3.34842 E1028.67
G1 X-24.1908 Y4.07357 E1029.69
G1 X-24.1908 Y4.07357 E1029.69
G1 Z8.4
G1 X-18.6544 Y0
G1 X-17.873 Y0 E1030.33
G1 X-6.55421 Y0 E1039.75
G1 X-4.86334 Y-1.59348 E1041.68
G1 X-12.5942 Y-12.5265 E1052.81
G1 X-20.209 Y-1.75752 E1063.78
G1 X-21.4518 Y0 E1065.57
G1 X-18.6544 Y0 E1067.9
G1 X-19.6653 Y-2.52649
G1 X-5.52308 Y-2.52649 E1079.65
G1 X-2.13678 Y4.27356
G1 X-1.75582 Y3.51164 E1080.36
G1 X-1.54774 Y3.09548 E1080.75
G1 X-0.714713 Y4.27356 E1081.95
G1 X-23.2073 Y3.34354
G1 X-23.2073 Y3.34354 E1081.95
G1 X-24.4737 Y4.27357 E1083.26
G1 X-24.4737 Y4.27357 E1083.26
G1 Z8.6
G1 X-18.6649 Y0
G1 X-17.8469 Y0 E1083.94
G1 X-6.54466 Y0 E1093.33
G1 X-4.67927 Y-1.53317 E1095.34
G1 X-12.5942 Y-12.7265 E1106.74
G1 X-20.3903 Y-1.70112 E1117.97
G1 X-21.5932 Y0 E1119.7
G1 X-18.6649 Y0 E1122.14
G1 X-19.6653 Y-2.72649
G1 X-5.52308 Y-2.72649 E1133.9
G1 X-2.23678 Y4.47356
G1 X-1.75326 Y3.50652 E1134.79
G1 X-1.48916 Y2.97832 E1135.29
G1 X-0.431871 Y4.47356 E1136.81
G1 X-23.2111 Y3.33867
G1 X-23.2111 Y3.33867 E1136.81
G1 X-24.7565 Y4.47357 E1138.4
G1 X-24.7565 Y4.47357 E1138.4
G1 Z8.8
G1 X-18.6754 Y0
G1 X-17.8209 Y0 E1139.11
G1 X-6.5351 Y0 E1148.5
G1 X-4.49521 Y-1.47286 E1150.59
G1 X-12.5942 Y-12.9265 E1162.25
G1 X-20.5716 Y-1.64471 E1173.74
G1 X-21.7346 Y0 E1175.42
G1 X-18.6754 Y0 E1177.96
G1 X-19.6653 Y-2.92649
G1 X-5.52308 Y-2.92649 E1189.72
G1 X-2.33678 Y4.67356
G1 X-1.7507 Y3.5014 E1190.81
G1 X-1.43058 Y2.86116 E1191.41
G1 X-0.149028 Y4.67356 E1193.25
G1 X-23.215 Y3.33379
G1 X-23.215 Y3.33379 E1193.25
G1 X-25.0393 Y4.67357 E1195.13
G1 X-25.0393 Y4.67357 E1195.13
G1 Z9
G1 X-18.6859 Y0
G1 X-17.7948 Y0 E1195.87
G1 X-6.52554 Y0 E1205.24
G1 X-4.31114 Y-1.41255 E1207.43
G1 X-12.5942 Y-13.1265 E1219.36
G1 X-20.7529 Y-1.58831 E1231.11
G1 X-21.876 Y0 E1232.73
G1 X-18.6859 Y0 E1235.38
G1 X-19.6653 Y-3.12649
G1 X-5.52308 Y-3.12649 E1247.14
G1 X-2.43678 Y4.87356
G1 X-1.74814 Y3.49628 E1248.42
G1 X-1.372 Y2.74401 E1249.12
G1 X0.133814 Y4.87356 E1251.29
G1 X-23.2188 Y3.32891
G1 X-23.2188 Y3.32891 E1251.29
G1 X-25.3222 Y4.87357 E1253.46
G1 X-25.3222 Y4.87357 E1253.46
G1 Z9.2
G1 X-18.6964 Y0
G1 X-17.7687 Y0 E1254.23
G1 X-6.51598 Y0 E1263.58
G1 X-4.12707 Y-1.35224 E1265.87
G1 X-12.5942 Y-13.3265 E1278.06
G1 X-20.9342 Y-1.53191 E1290.07
G1 X-22.0175 Y0 E1291.63
G1 X-18.6964 Y0 E1294.39
G1 X-19.6653 Y-3.32649
G1 X-5.52308 Y-3.32649 E1306.15
G1 X-2.53678 Y5.07356
G1 X-1.74558 Y3.49116 E1307.62
G1 X-1.31342 Y2.62685 E1308.43
G1 X0.416656 Y5.07356 E1310.92
G1 X-23.2227 Y3.32404
G1 X-23.2227 Y3.32404 E1310.92
G1 X-25.605 Y5.07357 E1313.38
G1 X-25.605 Y5.07357 E1313.38
G1 Z9.4
G1 X-18.7069 Y0
G1 X-17.7427 Y0 E1314.18
G1 X-6.50642 Y0 E1323.52
G1 X-3.943 Y-1.29193 E1325.91
G1 X-12.5942 Y-13.5265 E1338.37
G1 X-21.1156 Y-1.4755 E1350.64
G1 X-22.1589 Y0 E1352.14
G1 X-18.7069 Y0 E1355.01
G1 X-19.6653 Y-3.52649
G1 X-5.52308 Y-3.52649 E1366.77
G1 X-2.63678 Y5.27356
G1 X-1.74302 Y3.48604 E1368.43
G1 X-1.25485 Y2.50969 E1369.34
G1 X0.699499 Y5.27356 E1372.16
G1 X-23.2266 Y3.31916
G1 X-23.2266 Y3.31916 E1372.16
G1 X-25.8879 Y5.27357 E1374.9
G1 X-25.8879 Y5.27357 E1374.9
G1 Z9.6
G1 X-18.7174 Y0
G1 X-17.7166 Y0 E1375.73
G1 X-6.49687 Y0 E1385.06
G1 X-3.75894 Y-1.23162 E1387.56
G1 X-12.5942 Y-13.7265 E1400.28
G1 X-21.2969 Y-1.4191 E1412.82
G1 X-22.3003 Y0 E1414.26
G1 X-18.7174 Y0 E1417.24
G1 X-19.6653 Y-3.72649
G1 X-5.52308 Y-3.72649 E1429
G1 X-2.73678 Y5.47355
G1 X-1.74046 Y3.48091 E1430.85
G1 X-1.19627 Y2.39253 E1431.87
G1 X0.982341 Y5.47356 E1435
G1 X-23.2304 Y3.31429
G1 X-23.2304 Y3.31429 E1435
G1 X-26.1707 Y5.47357 E1438.04
G1 X-26.1707 Y5.47357 E1438.04
G1 Z9.8
G1 X-18.7279 Y0
G1 X-17.6906 Y0 E1438.9
G1 X-6.48731 Y0 E1448.21
G1 X-3.57487 Y-1.17131 E1450.83
G1 X-12.5942 Y-13.9265 E1463.81
G1 X-21.4782 Y-1.36269 E1476.61
G1 X-22.4417 Y0 E1478
G1 X-18.7279 Y0 E1481.09
G1 X-19.6653 Y-3.92649
G1 X-5.52308 Y-3.92649 E1492.84
G1 X-2.83678 Y5.67355
G1 X-1.7379 Y3.47579 E1494.89
G1 X-1.13769 Y2.27538 E1496
G1 X1.26518 Y5.67356 E1499.46
G1 X-23.2343 Y3.30941
G1 X-23.2343 Y3.30941 E1499.46
G1 X-26.4536 Y5.67357 E1502.79
G1 X-26.4536 Y5.67357 E1502.79
G1 Z10
G1 X-18.7384 Y0
G1 X-17.6645 Y0 E1503.68
G1 X-6.47775 Y0 E1512.98
G1 X-3.3908 Y-1.111 E1515.71
G1 X-12.5942 Y-14.1265 E1528.96
G1 X-21.6595 Y-1.30629 E1542.02
G1 X-22.5831 Y0 E1543.35
G1 X-18.7384 Y0 E1546.55
G1 X-19.6653 Y-4.12649
G1 X-5.52308 Y-4.12649 E1558.31
G1 X-2.93678 Y5.87355
G1 X-1.73534 Y3.47067 E1560.54
G1 X-1.07911 Y2.15822 E1561.76
G1 X1.54803 Y5.87356 E1565.54
G1 X-23.2382 Y3.30453
G1 X-23.2382 Y3.30453 E1565.54
G1 X-26.7364 Y5.87357 E1569.15
G1 X-26.7364 Y5.87357 E1569.15
G1 Z10.2
G1 X-18.7489 Y0
G1 X-17.6384 Y0 E1570.08
G1 X-6.46819 Y0 E1579.36
G1 X-3.20673 Y-1.05069 E1582.21
G1 X-12.5942 Y-14.3265 E1595.73
G1 X-21.8408 Y-1.24988 E1609.05
G1 X-22.7246 Y0 E1610.32
G1 X-18.7489 Y0 E1613.63
G1 X-19.6653 Y-4.32649
G1 X-5.52308 Y-4.32649 E1625.39
G1 X-3.03678 Y6.07355
G1 X-1.73278 Y3.46555 E1627.81
G1 X-1.02053 Y2.04106 E1629.14
G1 X1.83087 Y6.07356 E1633.24
G1 X-23.242 Y3.29966
G1 X-23.242 Y3.29966 E1633.24
G1 X-27.0192 Y6.07357 E1637.14
G1 X-27.0192 Y6.07357 E1637.14
G1 Z10.4
G1 X-18.7595 Y0
G1 X-17.6124 Y0 E1638.09
G1 X-6.45864 Y0 E1647.37
G1 X-3.02267 Y-0.990378 E1650.34
G1 X-12.5942 Y-14.5265 E1664.13
G1 X-22.0221 Y-1.19348 E1677.7
G1 X-22.866 Y0 E1678.92
G1 X-18.7595 Y0 E1682.33
G1 X-19.6653 Y-4.52649
G1 X-5.52308 Y-4.52649 E1694.09
G1 X-3.13678 Y6.27355
G1 X-1.73022 Y3.46043 E1696.71
G1 X-0.961952 Y1.9239 E1698.14
G1 X2.11371 Y6.27356 E1702.57
G1 X-23.2459 Y3.29478
G1 X-23.2459 Y3.29478 E1702.57
G1 X-27.3021 Y6.27357 E1706.75
G1 X-27.3021 Y6.27357 E1706.75
G1 Z10.6
G1 X-18.77 Y0
G1 X-17.5863 Y0 E1707.73
G1 X-6.44908 Y0 E1717
G1 X-2.8386 Y-0.930068 E1720.1
G1 X-12.5942 Y-14.7265 E1734.15
G1 X-22.2034 Y-1.13708 E1747.98
G1 X-23.0074 Y0 E1749.14
G1 X-18.77 Y0 E1752.67
G1 X-19.6653 Y-4.72649
G1 X-5.52308 Y-4.72649 E1764.43
G1 X-3.23678 Y6.47355
G1 X-1.72765 Y3.45531 E1767.23
G1 X-0.903373 Y1.80675 E1768.76
G1 X2.39655 Y6.47356 E1773.52
G1 X-23.2498 Y3.28991
G1 X-23.2498 Y3.28991 E1773.52
G1 X-27.5849 Y6.47357 E1777.99
G1 X-27.5849 Y6.47357 E1777.99
G1 Z10.8
G1 X-18.7805 Y0
G1 X-17.5602 Y0 E1779
G1 X-6.43952 Y0 E1788.25
G1 X-2.65453 Y-0.869758 E1791.48
G1 X-12.5942 Y-14.9265 E1805.79
G1 X-22.3847 Y-1.08067 E1819.9
G1 X-23.1488 Y0 E1821
G1 X-18.7805 Y0 E1824.63
G1 X-19.6653 Y-4.92649
G1 X-5.52308 Y-4.92649 E1836.39
