;generated by SUSSYSLICER by LUKE FADEL
G90 ; Use absolute coordinates 
M82 ; Use absolute extruder positioning
M140 S60 ; Set bed temperature to 60C (do not wait)
M104 S205 ; Set nozzle temperature to 205C (do not wait)
G28 ; Home all axes
M190 S60 ; Wait for bed temperature to reach 60C
M109 S205 ; Wait for nozzle temperature to reach 205C
G29 ; Perform bed leveling
G92 E0 ; Reset extruder position
G1 E10 F600 ; Prime nozzle
G0 F6000 ; Rapid move to start position
G1 Z0.2 F300 ; Move to first layer height
G1 Z0.2
G1 X31.7333 Y10.0001
G1 X12.5333 Y10.0001 E0.798243
G1 X11.7333 Y10.0001 E0.831503
G1 X11.7333 Y19.6001 E1.23062
G1 X11.7333 Y20.0001 E1.24726
G1 X30.9333 Y20.0001 E2.0455
G1 X31.7333 Y20.0001 E2.07876
G1 X31.7333 Y10.4001 E2.47788
G1 X31.7333 Y10.0001 E2.49451
G1 X15 Y18
G1 X15 Y12.72 E2.71403
G1 X15 Y12.5 E2.72317
G1 X28.92 Y12.5 E3.3019
G1 X29.5 Y12.5 E3.32601
G1 X29.5 Y17.78 E3.54553
G1 X29.5 Y18 E3.55468
G1 X15.58 Y18 E4.1334
G1 X15 Y18 E4.15752
G1 X11.7333 Y10.5001
G1 X31.7333 Y10.5001 E4.98902
G1 X11.7333 Y11.0001
G1 X31.7333 Y11.0001 E5.82052
G1 X11.7333 Y11.5001
G1 X31.7333 Y11.5001 E6.65203
G1 X11.7333 Y12.0001
G1 X31.7333 Y12.0001 E7.48353
G1 X11.7333 Y12.5001
G1 X15 Y12.5001 E7.61935
G1 X29.5 Y12.5001
G1 X31.7333 Y12.5001 E7.71219
G1 X11.7333 Y13.0001
G1 X15 Y13.0001 E7.84801
G1 X29.5 Y13.0001
G1 X31.7333 Y13.0001 E7.94086
G1 X11.7333 Y13.5001
G1 X15 Y13.5001 E8.07667
G1 X29.5 Y13.5001
G1 X31.7333 Y13.5001 E8.16952
G1 X11.7333 Y14.0001
G1 X15 Y14.0001 E8.30534
G1 X29.5 Y14.0001
G1 X31.7333 Y14.0001 E8.39818
G1 X11.7333 Y14.5001
G1 X15 Y14.5001 E8.534
G1 X29.5 Y14.5001
G1 X31.7333 Y14.5001 E8.62685
G1 X11.7333 Y15.0001
G1 X15 Y15.0001 E8.76266
G1 X29.5 Y15.0001
G1 X31.7333 Y15.0001 E8.85551
G1 X11.7333 Y15.5001
G1 X15 Y15.5001 E8.99133
G1 X29.5 Y15.5001
G1 X31.7333 Y15.5001 E9.08417
G1 X11.7333 Y16.0001
G1 X15 Y16.0001 E9.21999
G1 X29.5 Y16.0001
G1 X31.7333 Y16.0001 E9.31284
G1 X11.7333 Y16.5001
G1 X15 Y16.5001 E9.44865
G1 X29.5 Y16.5001
G1 X31.7333 Y16.5001 E9.5415
G1 X11.7333 Y17.0001
G1 X15 Y17.0001 E9.67732
G1 X29.5 Y17.0001
G1 X31.7333 Y17.0001 E9.77016
G1 X11.7333 Y17.5001
G1 X15 Y17.5001 E9.90598
G1 X29.5 Y17.5001
G1 X31.7333 Y17.5001 E9.99883
G1 X11.7333 Y18.0001
G1 X31.7333 Y18.0001 E10.8303
G1 X11.7333 Y18.5001
G1 X31.7333 Y18.5001 E11.6618
G1 X11.7333 Y19.0001
G1 X31.7333 Y19.0001 E12.4933
G1 X11.7333 Y19.5001
G1 X31.7333 Y19.5001 E13.3248
G1 Z0.4
G1 X31.7333 Y10.0001
G1 X13.3333 Y10.0001 E14.0898
G1 X11.7333 Y10.0001 E14.1563
G1 X11.7333 Y19.2001 E14.5388
G1 X11.7333 Y20.0001 E14.5721
G1 X30.1333 Y20.0001 E15.3371
G1 X31.7333 Y20.0001 E15.4036
G1 X31.7333 Y10.8001 E15.7861
G1 X31.7333 Y10.0001 E15.8194
G1 X15 Y18
G1 X15 Y12.94 E16.0297
G1 X15 Y12.5 E16.048
G1 X28.34 Y12.5 E16.6026
G1 X29.5 Y12.5 E16.6509
G1 X29.5 Y17.56 E16.8612
G1 X29.5 Y18 E16.8795
G1 X16.16 Y18 E17.4341
G1 X15 Y18 E17.4824
G1 X11.7333 Y10.5001
G1 X31.7333 Y10.5001 E18.3139
G1 X11.7333 Y11.0001
G1 X31.7333 Y11.0001 E19.1454
G1 X11.7333 Y11.5001
G1 X31.7333 Y11.5001 E19.9769
G1 X11.7333 Y12.0001
G1 X31.7333 Y12.0001 E20.8084
G1 X11.7333 Y12.5001
G1 X15 Y12.5001 E20.9442
G1 X29.5 Y12.5001
G1 X31.7333 Y12.5001 E21.037
G1 X11.7333 Y13.0001
G1 X15 Y13.0001 E21.1729
G1 X29.5 Y13.0001
G1 X31.7333 Y13.0001 E21.2657
G1 X11.7333 Y13.5001
G1 X15 Y13.5001 E21.4015
G1 X29.5 Y13.5001
G1 X31.7333 Y13.5001 E21.4944
G1 X11.7333 Y14.0001
G1 X15 Y14.0001 E21.6302
G1 X29.5 Y14.0001
G1 X31.7333 Y14.0001 E21.723
G1 X11.7333 Y14.5001
G1 X15 Y14.5001 E21.8588
G1 X29.5 Y14.5001
G1 X31.7333 Y14.5001 E21.9517
G1 X11.7333 Y15.0001
G1 X15 Y15.0001 E22.0875
G1 X29.5 Y15.0001
G1 X31.7333 Y15.0001 E22.1804
G1 X11.7333 Y15.5001
G1 X15 Y15.5001 E22.3162
G1 X29.5 Y15.5001
G1 X31.7333 Y15.5001 E22.409
G1 X11.7333 Y16.0001
G1 X15 Y16.0001 E22.5448
G1 X29.5 Y16.0001
G1 X31.7333 Y16.0001 E22.6377
G1 X11.7333 Y16.5001
G1 X15 Y16.5001 E22.7735
G1 X29.5 Y16.5001
G1 X31.7333 Y16.5001 E22.8663
G1 X11.7333 Y17.0001
G1 X15 Y17.0001 E23.0022
G1 X29.5 Y17.0001
G1 X31.7333 Y17.0001 E23.095
G1 X11.7333 Y17.5001
G1 X15 Y17.5001 E23.2308
G1 X29.5 Y17.5001
G1 X31.7333 Y17.5001 E23.3237
G1 X11.7333 Y18.0001
G1 X31.7333 Y18.0001 E24.1552
G1 X11.7333 Y18.5001
G1 X31.7333 Y18.5001 E24.9867
G1 X11.7333 Y19.0001
G1 X31.7333 Y19.0001 E25.8182
G1 X11.7333 Y19.5001
G1 X31.7333 Y19.5001 E26.6497
G1 Z0.6
G1 X31.7333 Y10.0001
G1 X14.1333 Y10.0001 E27.3814
G1 X11.7333 Y10.0001 E27.4812
G1 X11.7333 Y18.8001 E27.847
G1 X11.7333 Y20.0001 E27.8969
G1 X29.3333 Y20.0001 E28.6287
G1 X31.7333 Y20.0001 E28.7284
G1 X31.7333 Y11.2001 E29.0943
G1 X31.7333 Y10.0001 E29.1442
G1 X15 Y18
G1 X15 Y13.16 E29.3454
G1 X15 Y12.5 E29.3729
G1 X27.76 Y12.5 E29.9034
G1 X29.5 Y12.5 E29.9757
G1 X29.5 Y17.34 E30.1769
G1 X29.5 Y18 E30.2044
G1 X16.74 Y18 E30.7349
G1 X15 Y18 E30.8072
G1 X11.7333 Y10.5001
G1 X31.7333 Y10.5001 E31.6387
G1 X11.7333 Y11.0001
G1 X31.7333 Y11.0001 E32.4702
G1 X11.7333 Y11.5001
G1 X31.7333 Y11.5001 E33.3017
G1 X11.7333 Y12.0001
G1 X31.7333 Y12.0001 E34.1332
G1 X11.7333 Y12.5001
G1 X15 Y12.5001 E34.269
G1 X29.5 Y12.5001
G1 X31.7333 Y12.5001 E34.3619
G1 X11.7333 Y13.0001
G1 X15 Y13.0001 E34.4977
G1 X29.5 Y13.0001
G1 X31.7333 Y13.0001 E34.5905
G1 X11.7333 Y13.5001
G1 X15 Y13.5001 E34.7264
G1 X29.5 Y13.5001
G1 X31.7333 Y13.5001 E34.8192
G1 X11.7333 Y14.0001
G1 X15 Y14.0001 E34.955
G1 X29.5 Y14.0001
G1 X31.7333 Y14.0001 E35.0479
G1 X11.7333 Y14.5001
G1 X15 Y14.5001 E35.1837
G1 X29.5 Y14.5001
G1 X31.7333 Y14.5001 E35.2765
G1 X11.7333 Y15.0001
G1 X15 Y15.0001 E35.4123
G1 X29.5 Y15.0001
G1 X31.7333 Y15.0001 E35.5052
G1 X11.7333 Y15.5001
G1 X15 Y15.5001 E35.641
G1 X29.5 Y15.5001
G1 X31.7333 Y15.5001 E35.7339
G1 X11.7333 Y16.0001
G1 X15 Y16.0001 E35.8697
G1 X29.5 Y16.0001
G1 X31.7333 Y16.0001 E35.9625
G1 X11.7333 Y16.5001
G1 X15 Y16.5001 E36.0983
G1 X29.5 Y16.5001
G1 X31.7333 Y16.5001 E36.1912
G1 X11.7333 Y17.0001
G1 X15 Y17.0001 E36.327
G1 X29.5 Y17.0001
G1 X31.7333 Y17.0001 E36.4198
G1 X11.7333 Y17.5001
G1 X15 Y17.5001 E36.5557
G1 X29.5 Y17.5001
G1 X31.7333 Y17.5001 E36.6485
G1 X11.7333 Y18.0001
G1 X31.7333 Y18.0001 E37.48
G1 X11.7333 Y18.5001
G1 X31.7333 Y18.5001 E38.3115
G1 X11.7333 Y19.0001
G1 X31.7333 Y19.0001 E39.143
G1 X11.7333 Y19.5001
G1 X31.7333 Y19.5001 E39.9745
G1 Z0.8
G1 X31.7333 Y10.0001
G1 X14.9333 Y10.0001 E40.673
G1 X11.7333 Y10.0001 E40.806
G1 X11.7333 Y18.4001 E41.1553
G1 X11.7333 Y20.0001 E41.2218
G1 X28.5333 Y20.0001 E41.9202
G1 X31.7333 Y20.0001 E42.0533
G1 X31.7333 Y11.6001 E42.4025
G1 X31.7333 Y10.0001 E42.469
G1 X15 Y18
G1 X15 Y13.38 E42.6611
G1 X15 Y12.5 E42.6977
G1 X27.18 Y12.5 E43.2041
G1 X29.5 Y12.5 E43.3005
G1 X29.5 Y17.12 E43.4926
G1 X29.5 Y18 E43.5292
G1 X17.32 Y18 E44.0356
G1 X15 Y18 E44.132
G1 X11.7333 Y10.5001
G1 X31.7333 Y10.5001 E44.9635
G1 X11.7333 Y11.0001
G1 X31.7333 Y11.0001 E45.795
G1 X11.7333 Y11.5001
G1 X31.7333 Y11.5001 E46.6266
G1 X11.7333 Y12.0001
G1 X31.7333 Y12.0001 E47.4581
G1 X11.7333 Y12.5001
G1 X15 Y12.5001 E47.5939
G1 X29.5 Y12.5001
G1 X31.7333 Y12.5001 E47.6867
G1 X11.7333 Y13.0001
G1 X15 Y13.0001 E47.8225
G1 X29.5 Y13.0001
G1 X31.7333 Y13.0001 E47.9154
G1 X11.7333 Y13.5001
G1 X15 Y13.5001 E48.0512
G1 X29.5 Y13.5001
G1 X31.7333 Y13.5001 E48.144
G1 X11.7333 Y14.0001
G1 X15 Y14.0001 E48.2799
G1 X29.5 Y14.0001
G1 X31.7333 Y14.0001 E48.3727
G1 X11.7333 Y14.5001
G1 X15 Y14.5001 E48.5085
G1 X29.5 Y14.5001
G1 X31.7333 Y14.5001 E48.6014
G1 X11.7333 Y15.0001
G1 X15 Y15.0001 E48.7372
G1 X29.5 Y15.0001
G1 X31.7333 Y15.0001 E48.83
G1 X11.7333 Y15.5001
G1 X15 Y15.5001 E48.9659
G1 X29.5 Y15.5001
G1 X31.7333 Y15.5001 E49.0587
G1 X11.7333 Y16.0001
G1 X15 Y16.0001 E49.1945
G1 X29.5 Y16.0001
G1 X31.7333 Y16.0001 E49.2874
G1 X11.7333 Y16.5001
G1 X15 Y16.5001 E49.4232
G1 X29.5 Y16.5001
G1 X31.7333 Y16.5001 E49.516
G1 X11.7333 Y17.0001
G1 X15 Y17.0001 E49.6518
G1 X29.5 Y17.0001
G1 X31.7333 Y17.0001 E49.7447
G1 X11.7333 Y17.5001
G1 X15 Y17.5001 E49.8805
G1 X29.5 Y17.5001
G1 X31.7333 Y17.5001 E49.9734
G1 X11.7333 Y18.0001
G1 X31.7333 Y18.0001 E50.8049
G1 X11.7333 Y18.5001
G1 X31.7333 Y18.5001 E51.6364
G1 X11.7333 Y19.0001
G1 X31.7333 Y19.0001 E52.4679
G1 X11.7333 Y19.5001
G1 X31.7333 Y19.5001 E53.2994
G1 Z1
G1 X31.7333 Y10.0001
G1 X15.7333 Y10.0001 E53.9646
G1 X11.7333 Y10.0001 E54.1309
G1 X11.7333 Y18.0001 E54.4635
G1 X11.7333 Y20.0001 E54.5466
G1 X27.7333 Y20.0001 E55.2118
G1 X31.7333 Y20.0001 E55.3781
G1 X31.7333 Y12.0001 E55.7107
G1 X31.7333 Y10.0001 E55.7939
G1 X15 Y18
G1 X15 Y13.6 E55.9768
G1 X15 Y12.5 E56.0225
G1 X26.6 Y12.5 E56.5048
G1 X29.5 Y12.5 E56.6254
G1 X29.5 Y16.9 E56.8083
G1 X29.5 Y18 E56.854
G1 X17.9 Y18 E57.3363
G1 X15 Y18 E57.4569
G1 X11.7333 Y10.5001
G1 X31.7333 Y10.5001 E58.2884
G1 X11.7333 Y11.0001
G1 X31.7333 Y11.0001 E59.1199
G1 X11.7333 Y11.5001
G1 X31.7333 Y11.5001 E59.9514
G1 X11.7333 Y12.0001
G1 X31.7333 Y12.0001 E60.7829
G1 X11.7333 Y12.5001
G1 X15 Y12.5001 E60.9187
G1 X29.5 Y12.5001
G1 X31.7333 Y12.5001 E61.0116
G1 X11.7333 Y13.0001
G1 X15 Y13.0001 E61.1474
G1 X29.5 Y13.0001
G1 X31.7333 Y13.0001 E61.2402
G1 X11.7333 Y13.5001
G1 X15 Y13.5001 E61.376
G1 X29.5 Y13.5001
G1 X31.7333 Y13.5001 E61.4689
G1 X11.7333 Y14.0001
G1 X15 Y14.0001 E61.6047
G1 X29.5 Y14.0001
G1 X31.7333 Y14.0001 E61.6976
G1 X11.7333 Y14.5001
G1 X15 Y14.5001 E61.8334
G1 X29.5 Y14.5001
G1 X31.7333 Y14.5001 E61.9262
G1 X11.7333 Y15.0001
G1 X15 Y15.0001 E62.062
G1 X29.5 Y15.0001
G1 X31.7333 Y15.0001 E62.1549
G1 X11.7333 Y15.5001
G1 X15 Y15.5001 E62.2907
G1 X29.5 Y15.5001
G1 X31.7333 Y15.5001 E62.3835
G1 X11.7333 Y16.0001
G1 X15 Y16.0001 E62.5194
G1 X29.5 Y16.0001
G1 X31.7333 Y16.0001 E62.6122
G1 X11.7333 Y16.5001
G1 X15 Y16.5001 E62.748
G1 X29.5 Y16.5001
G1 X31.7333 Y16.5001 E62.8409
G1 X11.7333 Y17.0001
G1 X15 Y17.0001 E62.9767
G1 X29.5 Y17.0001
G1 X31.7333 Y17.0001 E63.0695
G1 X11.7333 Y17.5001
G1 X15 Y17.5001 E63.2053
G1 X29.5 Y17.5001
G1 X31.7333 Y17.5001 E63.2982
G1 X11.7333 Y18.0001
G1 X31.7333 Y18.0001 E64.1297
G1 X11.7333 Y18.5001
G1 X31.7333 Y18.5001 E64.9612
G1 X11.7333 Y19.0001
G1 X31.7333 Y19.0001 E65.7927
G1 X11.7333 Y19.5001
G1 X31.7333 Y19.5001 E66.6242
G1 Z1.2
G1 X31.7333 Y10.0001
G1 X16.5333 Y10.0001 E67.2562
G1 X11.7333 Y10.0001 E67.4557
G1 X11.7333 Y17.6001 E67.7717
G1 X11.7333 Y20.0001 E67.8715
G1 X26.9333 Y20.0001 E68.5034
G1 X31.7333 Y20.0001 E68.703
G1 X31.7333 Y12.4001 E69.0189
G1 X31.7333 Y10.0001 E69.1187
G1 X15 Y18
G1 X15 Y13.82 E69.2925
G1 X15 Y12.5 E69.3474
G1 X26.02 Y12.5 E69.8055
G1 X29.5 Y12.5 E69.9502
G1 X29.5 Y16.68 E70.124
G1 X29.5 Y18 E70.1789
G1 X18.48 Y18 E70.637
G1 X15 Y18 E70.7817
G1 X11.7333 Y10.5001
G1 X31.7333 Y10.5001 E71.6132
G1 X11.7333 Y11.0001
G1 X31.7333 Y11.0001 E72.4447
G1 X11.7333 Y11.5001
G1 X31.7333 Y11.5001 E73.2762
G1 X11.7333 Y12.0001
G1 X31.7333 Y12.0001 E74.1077
G1 X11.7333 Y12.5001
G1 X15 Y12.5001 E74.2436
G1 X29.5 Y12.5001
G1 X31.7333 Y12.5001 E74.3364
G1 X11.7333 Y13.0001
G1 X15 Y13.0001 E74.4722
G1 X29.5 Y13.0001
G1 X31.7333 Y13.0001 E74.5651
G1 X11.7333 Y13.5001
G1 X15 Y13.5001 E74.7009
G1 X29.5 Y13.5001
G1 X31.7333 Y13.5001 E74.7937
G1 X11.7333 Y14.0001
G1 X15 Y14.0001 E74.9295
G1 X29.5 Y14.0001
G1 X31.7333 Y14.0001 E75.0224
G1 X11.7333 Y14.5001
G1 X15 Y14.5001 E75.1582
G1 X29.5 Y14.5001
G1 X31.7333 Y14.5001 E75.2511
G1 X11.7333 Y15.0001
G1 X15 Y15.0001 E75.3869
G1 X29.5 Y15.0001
G1 X31.7333 Y15.0001 E75.4797
G1 X11.7333 Y15.5001
G1 X15 Y15.5001 E75.6155
G1 X29.5 Y15.5001
G1 X31.7333 Y15.5001 E75.7084
G1 X11.7333 Y16.0001
G1 X15 Y16.0001 E75.8442
G1 X29.5 Y16.0001
G1 X31.7333 Y16.0001 E75.937
G1 X11.7333 Y16.5001
G1 X15 Y16.5001 E76.0729
G1 X29.5 Y16.5001
G1 X31.7333 Y16.5001 E76.1657
G1 X11.7333 Y17.0001
G1 X15 Y17.0001 E76.3015
G1 X29.5 Y17.0001
G1 X31.7333 Y17.0001 E76.3944
G1 X11.7333 Y17.5001
G1 X15 Y17.5001 E76.5302
G1 X29.5 Y17.5001
G1 X31.7333 Y17.5001 E76.623
G1 X11.7333 Y18.0001
G1 X31.7333 Y18.0001 E77.4545
G1 X11.7333 Y18.5001
G1 X31.7333 Y18.5001 E78.286
G1 X11.7333 Y19.0001
G1 X31.7333 Y19.0001 E79.1175
G1 X11.7333 Y19.5001
G1 X31.7333 Y19.5001 E79.949
G1 Z1.4
G1 X31.7333 Y10.0001
G1 X17.3333 Y10.0001 E80.5477
G1 X11.7333 Y10.0001 E80.7806
G1 X11.7333 Y17.2001 E81.0799
G1 X11.7333 Y20.0001 E81.1963
G1 X26.1333 Y20.0001 E81.795
G1 X31.7333 Y20.0001 E82.0278
G1 X31.7333 Y12.8001 E82.3271
G1 X31.7333 Y10.0001 E82.4436
G1 X15 Y18
G1 X15 Y14.04 E82.6082
G1 X15 Y12.5 E82.6722
G1 X25.44 Y12.5 E83.1063
G1 X29.5 Y12.5 E83.2751
G1 X29.5 Y16.46 E83.4397
G1 X29.5 Y18 E83.5037
G1 X19.06 Y18 E83.9378
G1 X15 Y18 E84.1066
G1 X11.7333 Y10.5001
G1 X31.7333 Y10.5001 E84.9381
G1 X11.7333 Y11.0001
G1 X31.7333 Y11.0001 E85.7696
G1 X11.7333 Y11.5001
G1 X31.7333 Y11.5001 E86.6011
G1 X11.7333 Y12.0001
G1 X31.7333 Y12.0001 E87.4326
G1 X11.7333 Y12.5001
G1 X15 Y12.5001 E87.5684
G1 X29.5 Y12.5001
G1 X31.7333 Y12.5001 E87.6612
G1 X11.7333 Y13.0001
G1 X15 Y13.0001 E87.7971
G1 X29.5 Y13.0001
G1 X31.7333 Y13.0001 E87.8899
G1 X11.7333 Y13.5001
G1 X15 Y13.5001 E88.0257
G1 X29.5 Y13.5001
G1 X31.7333 Y13.5001 E88.1186
G1 X11.7333 Y14.0001
G1 X15 Y14.0001 E88.2544
G1 X29.5 Y14.0001
G1 X31.7333 Y14.0001 E88.3472
G1 X11.7333 Y14.5001
G1 X15 Y14.5001 E88.483
G1 X29.5 Y14.5001
G1 X31.7333 Y14.5001 E88.5759
G1 X11.7333 Y15.0001
G1 X15 Y15.0001 E88.7117
G1 X29.5 Y15.0001
G1 X31.7333 Y15.0001 E88.8046
G1 X11.7333 Y15.5001
G1 X15 Y15.5001 E88.9404
G1 X29.5 Y15.5001
G1 X31.7333 Y15.5001 E89.0332
G1 X11.7333 Y16.0001
G1 X15 Y16.0001 E89.169
G1 X29.5 Y16.0001
G1 X31.7333 Y16.0001 E89.2619
G1 X11.7333 Y16.5001
G1 X15 Y16.5001 E89.3977
G1 X29.5 Y16.5001
G1 X31.7333 Y16.5001 E89.4906
G1 X11.7333 Y17.0001
G1 X15 Y17.0001 E89.6264
G1 X29.5 Y17.0001
G1 X31.7333 Y17.0001 E89.7192
G1 X11.7333 Y17.5001
G1 X15 Y17.5001 E89.855
G1 X29.5 Y17.5001
G1 X31.7333 Y17.5001 E89.9479
G1 X11.7333 Y18.0001
G1 X31.7333 Y18.0001 E90.7794
G1 X11.7333 Y18.5001
G1 X31.7333 Y18.5001 E91.6109
G1 X11.7333 Y19.0001
G1 X31.7333 Y19.0001 E92.4424
G1 X11.7333 Y19.5001
G1 X31.7333 Y19.5001 E93.2739
G1 Z1.6
G1 X31.7333 Y10.0001
G1 X18.1333 Y10.0001 E93.8393
G1 X11.7333 Y10.0001 E94.1054
G1 X11.7333 Y16.8001 E94.3881
G1 X11.7333 Y20.0001 E94.5211
G1 X25.3333 Y20.0001 E95.0866
G1 X31.7333 Y20.0001 E95.3526
G1 X31.7333 Y13.2001 E95.6354
G1 X31.7333 Y10.0001 E95.7684
G1 X15 Y18
G1 X15 Y14.26 E95.9239
G1 X15 Y12.5 E95.9971
G1 X24.86 Y12.5 E96.407
G1 X29.5 Y12.5 E96.5999
G1 X29.5 Y16.24 E96.7554
G1 X29.5 Y18 E96.8286
G1 X19.64 Y18 E97.2385
G1 X15 Y18 E97.4314
G1 X11.7333 Y10.5001
G1 X31.7333 Y10.5001 E98.2629
G1 X11.7333 Y11.0001
G1 X31.7333 Y11.0001 E99.0944
G1 X11.7333 Y11.5001
G1 X31.7333 Y11.5001 E99.9259
G1 X11.7333 Y12.0001
G1 X31.7333 Y12.0001 E100.757
G1 X11.7333 Y12.5001
G1 X15 Y12.5001 E100.893
G1 X29.5 Y12.5001
G1 X31.7333 Y12.5001 E100.986
G1 X11.7333 Y13.0001
G1 X15 Y13.0001 E101.122
G1 X29.5 Y13.0001
G1 X31.7333 Y13.0001 E101.215
G1 X11.7333 Y13.5001
G1 X15 Y13.5001 E101.351
G1 X29.5 Y13.5001
G1 X31.7333 Y13.5001 E101.443
G1 X11.7333 Y14.0001
G1 X15 Y14.0001 E101.579
G1 X29.5 Y14.0001
G1 X31.7333 Y14.0001 E101.672
G1 X11.7333 Y14.5001
G1 X15 Y14.5001 E101.808
G1 X29.5 Y14.5001
G1 X31.7333 Y14.5001 E101.901
G1 X11.7333 Y15.0001
G1 X15 Y15.0001 E102.037
G1 X29.5 Y15.0001
G1 X31.7333 Y15.0001 E102.129
G1 X11.7333 Y15.5001
G1 X15 Y15.5001 E102.265
G1 X29.5 Y15.5001
G1 X31.7333 Y15.5001 E102.358
G1 X11.7333 Y16.0001
G1 X15 Y16.0001 E102.494
G1 X29.5 Y16.0001
G1 X31.7333 Y16.0001 E102.587
G1 X11.7333 Y16.5001
G1 X15 Y16.5001 E102.723
G1 X29.5 Y16.5001
G1 X31.7333 Y16.5001 E102.815
G1 X11.7333 Y17.0001
G1 X15 Y17.0001 E102.951
G1 X29.5 Y17.0001
G1 X31.7333 Y17.0001 E103.044
G1 X11.7333 Y17.5001
G1 X15 Y17.5001 E103.18
G1 X29.5 Y17.5001
G1 X31.7333 Y17.5001 E103.273
G1 X11.7333 Y18.0001
G1 X31.7333 Y18.0001 E104.104
G1 X11.7333 Y18.5001
G1 X31.7333 Y18.5001 E104.936
G1 X11.7333 Y19.0001
G1 X31.7333 Y19.0001 E105.767
G1 X11.7333 Y19.5001
G1 X31.7333 Y19.5001 E106.599
G1 Z1.8
G1 X31.7333 Y10.0001
G1 X18.9333 Y10.0001 E107.131
G1 X11.7333 Y10.0001 E107.43
G1 X11.7333 Y16.4001 E107.696
G1 X11.7333 Y20.0001 E107.846
G1 X24.5333 Y20.0001 E108.378
G1 X31.7333 Y20.0001 E108.677
G1 X31.7333 Y13.6001 E108.944
G1 X31.7333 Y10.0001 E109.093
G1 X15 Y18
