;generated by SUSSYSLICER by LUKE FADEL
G90 ; Use absolute coordinates 
M82 ; Use absolute extruder positioning
M140 S60 ; Set bed temperature to 60C (do not wait)
M104 S205 ; Set nozzle temperature to 205C (do not wait)
G28 ; Home all axes
M190 S60 ; Wait for bed temperature to reach 60C
M109 S205 ; Wait for nozzle temperature to reach 205C
G29 ; Perform bed leveling
G92 E0 ; Reset extruder position
G1 E10 F600 ; Prime nozzle
G0 F6000 ; Rapid move to start position
G1 Z0.2 F300 ; Move to first layer heightG1 Z0.2
G1 X-32.3607 Y-23.5114
G1 X-8.21152 Y-0.117557 E1.11828
G1 X-8.09017 Y1.11022e-15 E1.1239
G1 X-32.2393 Y23.3939 E2.24218
G1 X-32.3607 Y23.5114 E2.2478
G1 X-2.6493 Y7.7733 E3.36608
G1 X-2.5 Y7.69421 E3.3717
G1 X12.2864 Y37.8905 E4.48998
G1 X12.3607 Y38.0423 E4.4956
G1 X6.57416 Y4.92172 E5.61388
G1 X6.54509 Y4.75528 E5.6195
G1 X39.8327 Y0.0237764 E6.73778
G1 X40 Y0 E6.7434
G1 X6.71236 Y-4.73151 E7.86168
G1 X6.54509 Y-4.75528 E7.8673
G1 X12.3316 Y-37.8758 E8.98557
G1 X12.3607 Y-38.0423 E8.99119
G1 X-2.4257 Y-7.84595 E10.1095
G1 X-2.5 Y-7.69421 E10.1151
G1 X-32.2114 Y-23.4323 E11.2334
G1 X12.1648 Y-37.6423
G1 X12.2908 Y-37.6423 E11.2376
G1 X11.9689 Y-37.2423
G1 X12.2209 Y-37.2423 E11.2459
G1 X11.7731 Y-36.8423
G1 X12.151 Y-36.8423 E11.2585
G1 X11.5772 Y-36.4423
G1 X12.0811 Y-36.4423 E11.2753
G1 X11.3813 Y-36.0423
G1 X12.0113 Y-36.0423 E11.2962
G1 X11.1855 Y-35.6423
G1 X11.9414 Y-35.6423 E11.3214
G1 X10.9896 Y-35.2423
G1 X11.8715 Y-35.2423 E11.3507
G1 X10.7937 Y-34.8423
G1 X11.8016 Y-34.8423 E11.3842
G1 X10.5979 Y-34.4423
G1 X11.7317 Y-34.4423 E11.4219
G1 X10.402 Y-34.0423
G1 X11.6618 Y-34.0423 E11.4638
G1 X10.2061 Y-33.6423
G1 X11.592 Y-33.6423 E11.5099
G1 X10.0102 Y-33.2423
G1 X11.5221 Y-33.2423 E11.5602
G1 X9.81437 Y-32.8423
G1 X11.4522 Y-32.8423 E11.6147
G1 X9.6185 Y-32.4423
G1 X11.3823 Y-32.4423 E11.6734
G1 X9.42263 Y-32.0423
G1 X11.3124 Y-32.0423 E11.7362
G1 X9.22676 Y-31.6423
G1 X11.2425 Y-31.6423 E11.8033
G1 X9.03089 Y-31.2423
G1 X11.1726 Y-31.2423 E11.8745
G1 X8.83502 Y-30.8423
G1 X11.1028 Y-30.8423 E11.9499
G1 X8.63915 Y-30.4423
G1 X11.0329 Y-30.4423 E12.0295
G1 X8.44328 Y-30.0423
G1 X10.963 Y-30.0423 E12.1133
G1 X8.24741 Y-29.6423
G1 X10.8931 Y-29.6423 E12.2013
G1 X8.05154 Y-29.2423
G1 X10.8232 Y-29.2423 E12.2935
G1 X7.85567 Y-28.8423
G1 X10.7533 Y-28.8423 E12.3899
G1 X7.6598 Y-28.4423
G1 X10.6835 Y-28.4423 E12.4905
G1 X7.46393 Y-28.0423
G1 X10.6136 Y-28.0423 E12.5952
G1 X7.26806 Y-27.6423
G1 X10.5437 Y-27.6423 E12.7042
G1 X7.07219 Y-27.2423
G1 X10.4738 Y-27.2423 E12.8173
G1 X6.87632 Y-26.8423
G1 X10.4039 Y-26.8423 E12.9346
G1 X6.68045 Y-26.4423
G1 X10.334 Y-26.4423 E13.0562
G1 X6.48458 Y-26.0423
G1 X10.2642 Y-26.0423 E13.1819
G1 X6.28871 Y-25.6423
G1 X10.1943 Y-25.6423 E13.3118
G1 X6.09284 Y-25.2423
G1 X10.1244 Y-25.2423 E13.4459
G1 X5.89697 Y-24.8423
G1 X10.0545 Y-24.8423 E13.5841
G1 X5.7011 Y-24.4423
G1 X9.98461 Y-24.4423 E13.7266
G1 X5.50523 Y-24.0423
G1 X9.91473 Y-24.0423 E13.8733
G1 X5.30936 Y-23.6423
G1 X9.84484 Y-23.6423 E14.0241
G1 X-32.0828 Y-23.2423
G1 X-31.8526 Y-23.2423 E14.0318
G1 X5.11349 Y-23.2423
G1 X9.77496 Y-23.2423 E14.1868
G1 X-31.6699 Y-22.8423
G1 X-31.0974 Y-22.8423 E14.2059
G1 X4.91762 Y-22.8423
G1 X9.70508 Y-22.8423 E14.3651
G1 X-31.257 Y-22.4423
G1 X-30.3423 Y-22.4423 E14.3955
G1 X4.72175 Y-22.4423
G1 X9.63519 Y-22.4423 E14.5589
G1 X-30.8441 Y-22.0423
G1 X-29.5871 Y-22.0423 E14.6007
G1 X4.52588 Y-22.0423
G1 X9.56531 Y-22.0423 E14.7684
G1 X-30.4312 Y-21.6423
G1 X-28.832 Y-21.6423 E14.8215
G1 X4.33001 Y-21.6423
G1 X9.49542 Y-21.6423 E14.9933
G1 X-30.0183 Y-21.2423
G1 X-28.0768 Y-21.2423 E15.0579
G1 X4.13414 Y-21.2423
G1 X9.42554 Y-21.2423 E15.2339
G1 X-29.6054 Y-20.8423
G1 X-27.3217 Y-20.8423 E15.3099
G1 X3.93827 Y-20.8423
G1 X9.35565 Y-20.8423 E15.49
G1 X-29.1924 Y-20.4423
G1 X-26.5666 Y-20.4423 E15.5774
G1 X3.7424 Y-20.4423
G1 X9.28577 Y-20.4423 E15.7618
G1 X-28.7795 Y-20.0423
G1 X-25.8114 Y-20.0423 E15.8605
G1 X3.54653 Y-20.0423
G1 X9.21589 Y-20.0423 E16.049
G1 X-28.3666 Y-19.6423
G1 X-25.0563 Y-19.6423 E16.1591
G1 X3.35066 Y-19.6423
G1 X9.146 Y-19.6423 E16.3519
G1 X-27.9537 Y-19.2423
G1 X-24.3011 Y-19.2423 E16.4734
G1 X3.15479 Y-19.2423
G1 X9.07612 Y-19.2423 E16.6703
G1 X-27.5408 Y-18.8423
G1 X-23.546 Y-18.8423 E16.8032
G1 X2.95892 Y-18.8423
G1 X9.00623 Y-18.8423 E17.0043
G1 X-27.1279 Y-18.4423
G1 X-22.7908 Y-18.4423 E17.1486
G1 X2.76305 Y-18.4423
G1 X8.93635 Y-18.4423 E17.3539
G1 X-26.715 Y-18.0423
G1 X-22.0357 Y-18.0423 E17.5095
G1 X2.56718 Y-18.0423
G1 X8.86646 Y-18.0423 E17.7191
G1 X-26.302 Y-17.6423
G1 X-21.2805 Y-17.6423 E17.8861
G1 X2.37131 Y-17.6423
G1 X8.79658 Y-17.6423 E18.0998
G1 X-25.8891 Y-17.2423
G1 X-20.5254 Y-17.2423 E18.2782
G1 X2.17544 Y-17.2423
G1 X8.72669 Y-17.2423 E18.4961
G1 X-25.4762 Y-16.8423
G1 X-19.7703 Y-16.8423 E18.6858
G1 X1.97957 Y-16.8423
G1 X8.65681 Y-16.8423 E18.9079
G1 X-25.0633 Y-16.4423
G1 X-19.0151 Y-16.4423 E19.1091
G1 X1.7837 Y-16.4423
G1 X8.58693 Y-16.4423 E19.3354
G1 X-24.6504 Y-16.0423
G1 X-18.26 Y-16.0423 E19.5479
G1 X1.58783 Y-16.0423
G1 X8.51704 Y-16.0423 E19.7784
G1 X-24.2375 Y-15.6423
G1 X-17.5048 Y-15.6423 E20.0023
G1 X1.39196 Y-15.6423
G1 X8.44716 Y-15.6423 E20.237
G1 X-23.8245 Y-15.2423
G1 X-16.7497 Y-15.2423 E20.4723
G1 X1.19609 Y-15.2423
G1 X8.37727 Y-15.2423 E20.7111
G1 X-23.4116 Y-14.8423
G1 X-15.9945 Y-14.8423 E20.9578
G1 X1.00022 Y-14.8423
G1 X8.30739 Y-14.8423 E21.2009
G1 X-22.9987 Y-14.4423
G1 X-15.2394 Y-14.4423 E21.4589
G1 X0.804351 Y-14.4423
G1 X8.2375 Y-14.4423 E21.7062
G1 X-22.5858 Y-14.0423
G1 X-14.4842 Y-14.0423 E21.9756
G1 X0.608481 Y-14.0423
G1 X8.16762 Y-14.0423 E22.227
G1 X-22.1729 Y-13.6423
G1 X-13.7291 Y-13.6423 E22.5079
G1 X0.412612 Y-13.6423
G1 X8.09774 Y-13.6423 E22.7635
G1 X-21.76 Y-13.2423
G1 X-12.974 Y-13.2423 E23.0557
G1 X0.216742 Y-13.2423
G1 X8.02785 Y-13.2423 E23.3155
G1 X-21.3471 Y-12.8423
G1 X-12.2188 Y-12.8423 E23.6191
G1 X0.0208716 Y-12.8423
G1 X7.95797 Y-12.8423 E23.8831
G1 X-20.9341 Y-12.4423
G1 X-11.4637 Y-12.4423 E24.1981
G1 X-0.174998 Y-12.4423
G1 X7.88808 Y-12.4423 E24.4663
G1 X-20.5212 Y-12.0423
G1 X-10.7085 Y-12.0423 E24.7927
G1 X-0.370868 Y-12.0423
G1 X7.8182 Y-12.0423 E25.065
G1 X-20.1083 Y-11.6423
G1 X-9.95337 Y-11.6423 E25.4028
G1 X-0.566738 Y-11.6423
G1 X7.74831 Y-11.6423 E25.6793
G1 X-19.6954 Y-11.2423
G1 X-9.19823 Y-11.2423 E26.0285
G1 X-0.762608 Y-11.2423
G1 X7.67843 Y-11.2423 E26.3092
G1 X-19.2825 Y-10.8423
G1 X-8.44308 Y-10.8423 E26.6697
G1 X-0.958478 Y-10.8423
G1 X7.60855 Y-10.8423 E26.9547
G1 X-18.8696 Y-10.4423
G1 X-7.68794 Y-10.4423 E27.3266
G1 X-1.15435 Y-10.4423
G1 X7.53866 Y-10.4423 E27.6157
G1 X-18.4567 Y-10.0423
G1 X-6.93279 Y-10.0423 E27.999
G1 X-1.35022 Y-10.0423
G1 X7.46878 Y-10.0423 E28.2923
G1 X-18.0437 Y-9.64226
G1 X-6.17765 Y-9.64226 E28.687
G1 X-1.54609 Y-9.64226
G1 X7.39889 Y-9.64226 E28.9845
G1 X-17.6308 Y-9.24226
G1 X-5.42251 Y-9.24226 E29.3906
G1 X-1.74196 Y-9.24226
G1 X7.32901 Y-9.24226 E29.6923
G1 X-17.2179 Y-8.84226
G1 X-4.66736 Y-8.84226 E30.1097
G1 X-1.93783 Y-8.84226
G1 X7.25912 Y-8.84226 E30.4156
G1 X-16.805 Y-8.44226
G1 X-3.91222 Y-8.44226 E30.8444
G1 X-2.1337 Y-8.44226
G1 X7.18924 Y-8.44226 E31.1545
G1 X-16.3921 Y-8.04226
G1 X-3.15707 Y-8.04226 E31.5947
G1 X-2.32957 Y-8.04226
G1 X7.11936 Y-8.04226 E31.9089
G1 X-15.9792 Y-7.64226
G1 X7.04947 Y-7.64226 E32.6749
G1 X-15.5663 Y-7.24226
G1 X6.97959 Y-7.24226 E33.4248
G1 X-15.1533 Y-6.84226
G1 X6.9097 Y-6.84226 E34.1586
G1 X-14.7404 Y-6.44226
G1 X6.83982 Y-6.44226 E34.8763
G1 X-14.3275 Y-6.04226
G1 X6.76993 Y-6.04226 E35.578
G1 X-13.9146 Y-5.64226
G1 X6.70005 Y-5.64226 E36.2637
G1 X-13.5017 Y-5.24226
G1 X6.63017 Y-5.24226 E36.9333
G1 X-13.0888 Y-4.84226
G1 X6.56028 Y-4.84226 E37.5868
G1 X-12.6759 Y-4.44226
G1 X8.7473 Y-4.44226 E38.2993
G1 X-12.2629 Y-4.04226
G1 X11.5614 Y-4.04226 E39.0917
G1 X-11.85 Y-3.64226
G1 X14.3756 Y-3.64226 E39.964
G1 X-11.4371 Y-3.24226
G1 X17.1897 Y-3.24226 E40.9161
G1 X-11.0242 Y-2.84226
G1 X20.0038 Y-2.84226 E41.9481
G1 X-10.6113 Y-2.44226
G1 X22.8179 Y-2.44226 E43.06
G1 X-10.1984 Y-2.04226
G1 X25.6321 Y-2.04226 E44.2517
G1 X-9.78545 Y-1.64226
G1 X28.4462 Y-1.64226 E45.5233
G1 X-9.37254 Y-1.24226
G1 X31.2603 Y-1.24226 E46.8748
G1 X-8.95962 Y-0.84226
G1 X34.0744 Y-0.84226 E48.3061
G1 X-8.54671 Y-0.44226
G1 X36.8886 Y-0.44226 E49.8173
G1 X-8.13379 Y-0.04226
G1 X39.7027 Y-0.04226 E51.4083
G1 X-8.45946 Y0.35774
G1 X37.4832 Y0.35774 E52.9364
G1 X-8.87237 Y0.75774
G1 X34.6691 Y0.75774 E54.3846
G1 X-9.28529 Y1.15774
G1 X31.8549 Y1.15774 E55.7529
G1 X-9.6982 Y1.55774
G1 X29.0408 Y1.55774 E57.0414
G1 X-10.1111 Y1.95774
G1 X26.2267 Y1.95774 E58.25
G1 X-10.524 Y2.35774
G1 X23.4126 Y2.35774 E59.3787
G1 X-10.9369 Y2.75774
G1 X20.5984 Y2.75774 E60.4276
G1 X-11.3499 Y3.15774
G1 X17.7843 Y3.15774 E61.3966
G1 X-11.7628 Y3.55774
G1 X14.9702 Y3.55774 E62.2857
G1 X-12.1757 Y3.95774
G1 X12.1561 Y3.95774 E63.095
G1 X-12.5886 Y4.35774
G1 X9.34193 Y4.35774 E63.8244
G1 X-13.0015 Y4.75774
G1 X6.54551 Y4.75774 E64.4745
G1 X-13.4144 Y5.15774
G1 X6.6154 Y5.15774 E65.1407
G1 X-13.8273 Y5.55774
G1 X6.68528 Y5.55774 E65.823
G1 X-14.2403 Y5.95774
G1 X6.75517 Y5.95774 E66.5213
G1 X-14.6532 Y6.35774
G1 X6.82505 Y6.35774 E67.2357
G1 X-15.0661 Y6.75774
G1 X6.89494 Y6.75774 E67.9661
G1 X-15.479 Y7.15774
G1 X6.96482 Y7.15774 E68.7126
G1 X-15.8919 Y7.55774
G1 X7.0347 Y7.55774 E69.4751
G1 X-16.3048 Y7.95774
G1 X-2.99751 Y7.95774 E69.9177
G1 X-2.37096 Y7.95774
G1 X7.10459 Y7.95774 E70.2329
G1 X-16.7178 Y8.35774
G1 X-3.75265 Y8.35774 E70.6641
G1 X-2.17509 Y8.35774
G1 X7.17447 Y8.35774 E70.9751
G1 X-17.1307 Y8.75774
G1 X-4.5078 Y8.75774 E71.3949
G1 X-1.97922 Y8.75774
G1 X7.24436 Y8.75774 E71.7017
G1 X-17.5436 Y9.15774
G1 X-5.26294 Y9.15774 E72.1102
G1 X-1.78335 Y9.15774
G1 X7.31424 Y9.15774 E72.4127
G1 X-17.9565 Y9.55774
G1 X-6.01809 Y9.55774 E72.8098
G1 X-1.58748 Y9.55774
G1 X7.38413 Y9.55774 E73.1082
G1 X-18.3694 Y9.95774
G1 X-6.77323 Y9.95774 E73.4939
G1 X-1.39161 Y9.95774
G1 X7.45401 Y9.95774 E73.7881
G1 X-18.7823 Y10.3577
G1 X-7.52838 Y10.3577 E74.1624
G1 X-1.19574 Y10.3577
G1 X7.52389 Y10.3577 E74.4524
G1 X-19.1952 Y10.7577
G1 X-8.28352 Y10.7577 E74.8154
G1 X-0.999866 Y10.7577
G1 X7.59378 Y10.7577 E75.1012
G1 X-19.6082 Y11.1577
G1 X-9.03867 Y11.1577 E75.4527
G1 X-0.803996 Y11.1577
G1 X7.66366 Y11.1577 E75.7344
G1 X-20.0211 Y11.5577
G1 X-9.79381 Y11.5577 E76.0745
G1 X-0.608126 Y11.5577
G1 X7.73355 Y11.5577 E76.352
G1 X-20.434 Y11.9577
G1 X-10.549 Y11.9577 E76.6807
G1 X-0.412256 Y11.9577
G1 X7.80343 Y11.9577 E76.954
G1 X-20.8469 Y12.3577
G1 X-11.3041 Y12.3577 E77.2714
G1 X-0.216386 Y12.3577
G1 X7.87332 Y12.3577 E77.5405
G1 X-21.2598 Y12.7577
G1 X-12.0592 Y12.7577 E77.8465
G1 X-0.0205158 Y12.7577
G1 X7.9432 Y12.7577 E78.1113
G1 X-21.6727 Y13.1577
G1 X-12.8144 Y13.1577 E78.406
G1 X0.175354 Y13.1577
G1 X8.01309 Y13.1577 E78.6667
G1 X-22.0856 Y13.5577
G1 X-13.5695 Y13.5577 E78.9499
G1 X0.371224 Y13.5577
G1 X8.08297 Y13.5577 E79.2064
G1 X-22.4986 Y13.9577
G1 X-14.3247 Y13.9577 E79.4783
G1 X0.567094 Y13.9577
G1 X8.15285 Y13.9577 E79.7306
G1 X-22.9115 Y14.3577
G1 X-15.0798 Y14.3577 E79.991
G1 X0.762964 Y14.3577
G1 X8.22274 Y14.3577 E80.2392
G1 X-23.3244 Y14.7577
G1 X-15.835 Y14.7577 E80.4883
G1 X0.958834 Y14.7577
G1 X8.29262 Y14.7577 E80.7322
G1 X-23.7373 Y15.1577
G1 X-16.5901 Y15.1577 E80.9699
G1 X1.1547 Y15.1577
G1 X8.36251 Y15.1577 E81.2096
G1 X-24.1502 Y15.5577
G1 X-17.3453 Y15.5577 E81.436
G1 X1.35057 Y15.5577
G1 X8.43239 Y15.5577 E81.6715
G1 X-24.5631 Y15.9577
G1 X-18.1004 Y15.9577 E81.8865
G1 X1.54644 Y15.9577
G1 X8.50228 Y15.9577 E82.1178
G1 X-24.976 Y16.3577
G1 X-18.8555 Y16.3577 E82.3214
G1 X1.74231 Y16.3577
G1 X8.57216 Y16.3577 E82.5485
G1 X-25.389 Y16.7577
G1 X-19.6107 Y16.7577 E82.7407
G1 X1.93818 Y16.7577
G1 X8.64204 Y16.7577 E82.9637
G1 X-25.8019 Y17.1577
G1 X-20.3658 Y17.1577 E83.1445
G1 X2.13405 Y17.1577
G1 X8.71193 Y17.1577 E83.3633
G1 X-26.2148 Y17.5577
G1 X-21.121 Y17.5577 E83.5327
G1 X2.32992 Y17.5577
G1 X8.78181 Y17.5577 E83.7473
G1 X-26.6277 Y17.9577
G1 X-21.8761 Y17.9577 E83.9053
G1 X2.52579 Y17.9577
G1 X8.8517 Y17.9577 E84.1157
G1 X-27.0406 Y18.3577
G1 X-22.6313 Y18.3577 E84.2624
G1 X2.72166 Y18.3577
G1 X8.92158 Y18.3577 E84.4686
G1 X-27.4535 Y18.7577
G1 X-23.3864 Y18.7577 E84.6039
G1 X2.91753 Y18.7577
G1 X8.99147 Y18.7577 E84.8059
G1 X-27.8664 Y19.1577
G1 X-24.1416 Y19.1577 E84.9298
G1 X3.1134 Y19.1577
G1 X9.06135 Y19.1577 E85.1276
G1 X-28.2794 Y19.5577
G1 X-24.8967 Y19.5577 E85.2401
G1 X3.30927 Y19.5577
G1 X9.13123 Y19.5577 E85.4338
G1 X-28.6923 Y19.9577
G1 X-25.6518 Y19.9577 E85.5349
G1 X3.50514 Y19.9577
G1 X9.20112 Y19.9577 E85.7243
G1 X-29.1052 Y20.3577
G1 X-26.407 Y20.3577 E85.8141
G1 X3.70101 Y20.3577
G1 X9.271 Y20.3577 E85.9993
G1 X-29.5181 Y20.7577
G1 X-27.1621 Y20.7577 E86.0777
G1 X3.89688 Y20.7577
G1 X9.34089 Y20.7577 E86.2588
G1 X-29.931 Y21.1577
G1 X-27.9173 Y21.1577 E86.3257
G1 X4.09275 Y21.1577
G1 X9.41077 Y21.1577 E86.5026
G1 X-30.3439 Y21.5577
G1 X-28.6724 Y21.5577 E86.5582
G1 X4.28862 Y21.5577
G1 X9.48066 Y21.5577 E86.7309
G1 X-30.7568 Y21.9577
G1 X-29.4276 Y21.9577 E86.7751
G1 X4.48449 Y21.9577
G1 X9.55054 Y21.9577 E86.9436
G1 X-31.1698 Y22.3577
G1 X-30.1827 Y22.3577 E86.9764
G1 X4.68036 Y22.3577
G1 X9.62042 Y22.3577 E87.1407
G1 X-31.5827 Y22.7577
G1 X-30.9379 Y22.7577 E87.1622
G1 X4.87623 Y22.7577
G1 X9.69031 Y22.7577 E87.3223
G1 X-31.9956 Y23.1577
G1 X-31.693 Y23.1577 E87.3324
G1 X5.0721 Y23.1577
G1 X9.76019 Y23.1577 E87.4883
G1 X5.26797 Y23.5577
G1 X9.83008 Y23.5577 E87.64
G1 X5.46384 Y23.9577
G1 X9.89996 Y23.9577 E87.7876
G1 X5.65971 Y24.3577
G1 X9.96985 Y24.3577 E87.9309
G1 X5.85558 Y24.7577
G1 X10.0397 Y24.7577 E88.0701
G1 X6.05145 Y25.1577
G1 X10.1096 Y25.1577 E88.2051
G1 X6.24732 Y25.5577
G1 X10.1795 Y25.5577 E88.3359
G1 X6.44319 Y25.9577
G1 X10.2494 Y25.9577 E88.4625
G1 X6.63906 Y26.3577
G1 X10.3193 Y26.3577 E88.5849
G1 X6.83493 Y26.7577
G1 X10.3892 Y26.7577 E88.7031
G1 X7.0308 Y27.1577
G1 X10.459 Y27.1577 E88.8171
G1 X7.22667 Y27.5577
G1 X10.5289 Y27.5577 E88.9269
G1 X7.42254 Y27.9577
G1 X10.5988 Y27.9577 E89.0326
G1 X7.61841 Y28.3577
G1 X10.6687 Y28.3577 E89.134
G1 X7.81428 Y28.7577
G1 X10.7386 Y28.7577 E89.2313
G1 X8.01015 Y29.1577
G1 X10.8085 Y29.1577 E89.3244
G1 X8.20602 Y29.5577
G1 X10.8783 Y29.5577 E89.4132
G1 X8.40189 Y29.9577
G1 X10.9482 Y29.9577 E89.4979
G1 X8.59776 Y30.3577
G1 X11.0181 Y30.3577 E89.5784
G1 X8.79363 Y30.7577
G1 X11.088 Y30.7577 E89.6547
G1 X8.9895 Y31.1577
G1 X11.1579 Y31.1577 E89.7269
G1 X9.18537 Y31.5577
G1 X11.2278 Y31.5577 E89.7948
G1 X9.38124 Y31.9577
G1 X11.2976 Y31.9577 E89.8585
G1 X9.57711 Y32.3577
G1 X11.3675 Y32.3577 E89.9181
G1 X9.77298 Y32.7577
G1 X11.4374 Y32.7577 E89.9734
G1 X9.96885 Y33.1577
G1 X11.5073 Y33.1577 E90.0246
G1 X10.1647 Y33.5577
G1 X11.5772 Y33.5577 E90.0716
G1 X10.3606 Y33.9577
G1 X11.6471 Y33.9577 E90.1144
G1 X10.5565 Y34.3577
G1 X11.717 Y34.3577 E90.153
G1 X10.7523 Y34.7577
G1 X11.7868 Y34.7577 E90.1874
G1 X10.9482 Y35.1577
G1 X11.8567 Y35.1577 E90.2176
G1 X11.1441 Y35.5577
G1 X11.9266 Y35.5577 E90.2436
G1 X11.3399 Y35.9577
G1 X11.9965 Y35.9577 E90.2655
G1 X11.5358 Y36.3577
G1 X12.0664 Y36.3577 E90.2831
G1 X11.7317 Y36.7577
G1 X12.1363 Y36.7577 E90.2966
G1 X11.9276 Y37.1577
G1 X12.2061 Y37.1577 E90.3058
G1 X12.1234 Y37.5577
G1 X12.276 Y37.5577 E90.3109
G1 X12.3193 Y37.9577
G1 X12.3459 Y37.9577 E90.3118
G1 Z0.4
G1 X-32.3607 Y-23.5114
G1 X-8.33288 Y-0.235114 E91.4245
G1 X-8.09017 Y1.11022e-15 E91.4357
G1 X-32.118 Y23.2763 E92.5484
G1 X-32.3607 Y23.5114 E92.5596
G1 X-2.79861 Y7.85238 E93.6723
G1 X-2.5 Y7.69421 E93.6835
G1 X12.2121 Y37.7388 E94.7962
G1 X12.3607 Y38.0423 E94.8074
G1 X6.60324 Y5.08815 E95.9201
G1 X6.54509 Y4.75528 E95.9313
G1 X39.6655 Y0.0475528 E97.044
G1 X40 Y0 E97.0552
G1 X6.87963 Y-4.70773 E98.1679
G1 X6.54509 Y-4.75528 E98.1791
G1 X12.3025 Y-37.7094 E99.2918
G1 X12.3607 Y-38.0423 E99.303
G1 X-2.35139 Y-7.99769 E100.416
G1 X-2.5 Y-7.69421 E100.427
G1 X-32.0621 Y-23.3532 E101.54
G1 X12.1648 Y-37.6423
G1 X12.2908 Y-37.6423 E101.544
G1 X11.9689 Y-37.2423
G1 X12.2209 Y-37.2423 E101.552
G1 X11.7731 Y-36.8423
G1 X12.151 Y-36.8423 E101.565
G1 X11.5772 Y-36.4423
