;generated by SUSSYSLICER by LUKE FADEL
G90 ; Use absolute coordinates 
M82 ; Use absolute extruder positioning
M140 S60 ; Set bed temperature to 60C (do not wait)
M104 S205 ; Set nozzle temperature to 205C (do not wait)
G28 ; Home all axes
M190 S60 ; Wait for bed temperature to reach 60C
M109 S205 ; Wait for nozzle temperature to reach 205C
G29 ; Perform bed leveling
G92 E0 ; Reset extruder position
G1 E10 F600 ; Prime nozzle
G0 F6000 ; Rapid move to start position
G1 Z0.2 F300 ; Move to first layer height
G1 Z0.2
G1 X-32.3607 Y-23.5114
G1 X-8.21152 Y-0.117557 E27.957
G1 X-8.09017 Y1.11022e-15 E28.0975
G1 X-32.2393 Y23.3939 E56.0545
G1 X-32.3607 Y23.5114 E56.195
G1 X-2.6493 Y7.7733 E84.152
G1 X-2.5 Y7.69421 E84.2924
G1 X12.2864 Y37.8905 E112.249
G1 X12.3607 Y38.0423 E112.39
G1 X6.57416 Y4.92172 E140.347
G1 X6.54509 Y4.75528 E140.487
G1 X39.8327 Y0.0237764 E168.444
G1 X40 Y0 E168.585
G1 X6.71236 Y-4.73151 E196.542
G1 X6.54509 Y-4.75528 E196.682
G1 X12.3316 Y-37.8758 E224.639
G1 X12.3607 Y-38.0423 E224.78
G1 X-2.4257 Y-7.84595 E252.737
G1 X-2.5 Y-7.69421 E252.877
G1 X-32.2114 Y-23.4323 E280.834
G1 X-32.3607 Y-23.5114 E280.975
G1 X7.46393 Y-28.0423
G1 X10.6136 Y-28.0423 E283.594
G1 X-26.715 Y-18.0423
G1 X-22.0357 Y-18.0423 E287.485
G1 X2.56718 Y-18.0423
G1 X8.86646 Y-18.0423 E292.722
G1 X-16.3921 Y-8.04226
G1 X-3.15707 Y-8.04226 E303.727
G1 X-2.32957 Y-8.04226
G1 X7.11936 Y-8.04226 E311.584
G1 X-10.1111 Y1.95774
G1 X26.2267 Y1.95774 E341.799
G1 X-20.434 Y11.9577
G1 X-10.549 Y11.9577 E350.019
G1 X-0.412256 Y11.9577
G1 X7.80343 Y11.9577 E356.85
G1 X-30.7568 Y21.9577
G1 X-29.4276 Y21.9577 E357.955
G1 X4.48449 Y21.9577
G1 X9.55054 Y21.9577 E362.168
G1 X9.38124 Y31.9577
G1 X11.2976 Y31.9577 E363.761
G1 Z0.4
G1 X-32.3607 Y-23.5114
G1 X-8.33288 Y-0.235114 E391.578
G1 X-8.09017 Y1.11022e-15 E391.859
G1 X-32.118 Y23.2763 E419.675
G1 X-32.3607 Y23.5114 E419.956
G1 X-2.79861 Y7.85238 E447.773
G1 X-2.5 Y7.69421 E448.054
G1 X12.2121 Y37.7388 E475.87
G1 X12.3607 Y38.0423 E476.151
G1 X6.60324 Y5.08815 E503.968
G1 X6.54509 Y4.75528 E504.249
G1 X39.6655 Y0.0475528 E532.065
G1 X40 Y0 E532.346
G1 X6.87963 Y-4.70773 E560.163
G1 X6.54509 Y-4.75528 E560.444
G1 X12.3025 Y-37.7094 E588.26
G1 X12.3607 Y-38.0423 E588.541
G1 X-2.35139 Y-7.99769 E616.358
G1 X-2.5 Y-7.69421 E616.639
G1 X-32.0621 Y-23.3532 E644.455
G1 X-32.3607 Y-23.5114 E644.736
G1 X7.46393 Y-28.0423
G1 X10.6136 Y-28.0423 E647.355
G1 X-26.715 Y-18.0423
G1 X-22.0357 Y-18.0423 E651.246
G1 X2.56718 Y-18.0423
G1 X8.86646 Y-18.0423 E656.484
G1 X-16.3921 Y-8.04226
G1 X-3.15707 Y-8.04226 E667.489
G1 X-2.32957 Y-8.04226
G1 X7.11936 Y-8.04226 E675.346
G1 X-10.1111 Y1.95774
G1 X26.2267 Y1.95774 E705.561
G1 X-20.434 Y11.9577
G1 X-10.549 Y11.9577 E713.78
G1 X-0.412256 Y11.9577
G1 X7.80343 Y11.9577 E720.611
G1 X-30.7568 Y21.9577
G1 X-29.4276 Y21.9577 E721.717
G1 X4.48449 Y21.9577
G1 X9.55054 Y21.9577 E725.929
G1 X9.38124 Y31.9577
G1 X11.2976 Y31.9577 E727.523
G1 Z0.6
G1 X-32.3607 Y-23.5114
G1 X-8.45423 Y-0.352671 E755.199
G1 X-8.09017 Y1.11022e-15 E755.62
G1 X-31.9966 Y23.1587 E783.296
G1 X-32.3607 Y23.5114 E783.718
G1 X-2.94791 Y7.93147 E811.394
G1 X-2.5 Y7.69421 E811.815
G1 X12.1378 Y37.587 E839.491
G1 X12.3607 Y38.0423 E839.912
G1 X6.63232 Y5.25459 E867.589
G1 X6.54509 Y4.75528 E868.01
G1 X39.4982 Y0.0713292 E895.686
G1 X40 Y0 E896.107
G1 X7.04691 Y-4.68395 E923.783
G1 X6.54509 Y-4.75528 E924.205
G1 X12.2734 Y-37.543 E951.881
G1 X12.3607 Y-38.0423 E952.302
G1 X-2.27709 Y-8.14943 E979.978
G1 X-2.5 Y-7.69421 E980.4
G1 X-31.9128 Y-23.2742 E1008.08
G1 X-32.3607 Y-23.5114 E1008.5
G1 X7.46393 Y-28.0423
G1 X10.6136 Y-28.0423 E1011.12
G1 X-26.715 Y-18.0423
G1 X-22.0357 Y-18.0423 E1015.01
G1 X2.56718 Y-18.0423
G1 X8.86646 Y-18.0423 E1020.25
G1 X-16.3921 Y-8.04226
G1 X-3.15707 Y-8.04226 E1031.25
G1 X-2.32957 Y-8.04226
G1 X7.11936 Y-8.04226 E1039.11
G1 X-10.1111 Y1.95774
G1 X26.2267 Y1.95774 E1069.32
G1 X-20.434 Y11.9577
G1 X-10.549 Y11.9577 E1077.54
G1 X-0.412256 Y11.9577
G1 X7.80343 Y11.9577 E1084.37
G1 X-30.7568 Y21.9577
G1 X-29.4276 Y21.9577 E1085.48
G1 X4.48449 Y21.9577
G1 X9.55054 Y21.9577 E1089.69
G1 X9.38124 Y31.9577
G1 X11.2976 Y31.9577 E1091.28
G1 Z0.8
G1 X-32.3607 Y-23.5114
G1 X-8.57558 Y-0.470228 E1118.82
G1 X-8.09017 Y1.11022e-15 E1119.38
G1 X-31.8753 Y23.0412 E1146.92
G1 X-32.3607 Y23.5114 E1147.48
G1 X-3.09721 Y8.01055 E1175.01
G1 X-2.5 Y7.69421 E1175.58
G1 X12.0635 Y37.4353 E1203.11
G1 X12.3607 Y38.0423 E1203.67
G1 X6.6614 Y5.42102 E1231.21
G1 X6.54509 Y4.75528 E1231.77
G1 X39.3309 Y0.0951057 E1259.31
G1 X40 Y0 E1259.87
G1 X7.21418 Y-4.66018 E1287.4
G1 X6.54509 Y-4.75528 E1287.97
G1 X12.2444 Y-37.3765 E1315.5
G1 X12.3607 Y-38.0423 E1316.06
G1 X-2.20279 Y-8.30117 E1343.6
G1 X-2.5 Y-7.69421 E1344.16
G1 X-31.7635 Y-23.1951 E1371.7
G1 X-32.3607 Y-23.5114 E1372.26
G1 X7.46393 Y-28.0423
G1 X10.6136 Y-28.0423 E1374.88
G1 X-26.715 Y-18.0423
G1 X-22.0357 Y-18.0423 E1378.77
G1 X2.56718 Y-18.0423
G1 X8.86646 Y-18.0423 E1384.01
G1 X-16.3921 Y-8.04226
G1 X-3.15707 Y-8.04226 E1395.01
G1 X-2.32957 Y-8.04226
G1 X7.11936 Y-8.04226 E1402.87
G1 X-10.1111 Y1.95774
G1 X26.2267 Y1.95774 E1433.08
G1 X-20.434 Y11.9577
G1 X-10.549 Y11.9577 E1441.3
G1 X-0.412256 Y11.9577
G1 X7.80343 Y11.9577 E1448.13
G1 X-30.7568 Y21.9577
G1 X-29.4276 Y21.9577 E1449.24
G1 X4.48449 Y21.9577
G1 X9.55054 Y21.9577 E1453.45
G1 X9.38124 Y31.9577
G1 X11.2976 Y31.9577 E1455.05
G1 Z1
G1 X-32.3607 Y-23.5114
G1 X-8.69693 Y-0.587785 E1482.44
G1 X-8.09017 Y1.11022e-15 E1483.14
G1 X-31.7539 Y22.9236 E1510.54
G1 X-32.3607 Y23.5114 E1511.24
G1 X-3.24652 Y8.08964 E1538.64
G1 X-2.5 Y7.69421 E1539.34
G1 X11.9892 Y37.2836 E1566.73
G1 X12.3607 Y38.0423 E1567.44
G1 X6.69047 Y5.58746 E1594.83
G1 X6.54509 Y4.75528 E1595.53
G1 X39.1636 Y0.118882 E1622.93
G1 X40 Y0 E1623.63
G1 X7.38146 Y-4.6364 E1651.03
G1 X6.54509 Y-4.75528 E1651.73
G1 X12.2153 Y-37.2101 E1679.12
G1 X12.3607 Y-38.0423 E1679.82
G1 X-2.12848 Y-8.45291 E1707.22
G1 X-2.5 Y-7.69421 E1707.92
G1 X-31.6142 Y-23.116 E1735.32
G1 X-32.3607 Y-23.5114 E1736.02
G1 X7.46393 Y-28.0423
G1 X10.6136 Y-28.0423 E1738.64
G1 X-26.715 Y-18.0423
G1 X-22.0357 Y-18.0423 E1742.53
G1 X2.56718 Y-18.0423
G1 X8.86646 Y-18.0423 E1747.77
G1 X-16.3921 Y-8.04226
G1 X-3.15707 Y-8.04226 E1758.77
G1 X-2.32957 Y-8.04226
G1 X7.11936 Y-8.04226 E1766.63
G1 X-10.1111 Y1.95774
G1 X26.2267 Y1.95774 E1796.84
G1 X-20.434 Y11.9577
G1 X-10.549 Y11.9577 E1805.06
G1 X-0.412256 Y11.9577
G1 X7.80343 Y11.9577 E1811.9
G1 X-30.7568 Y21.9577
G1 X-29.4276 Y21.9577 E1813
G1 X4.48449 Y21.9577
G1 X9.55054 Y21.9577 E1817.21
G1 X9.38124 Y31.9577
G1 X11.2976 Y31.9577 E1818.81
G1 Z1.2
G1 X-32.3607 Y-23.5114
G1 X-8.81829 Y-0.705342 E1846.06
G1 X-8.09017 Y1.11022e-15 E1846.9
G1 X-31.6326 Y22.8061 E1874.16
G1 X-32.3607 Y23.5114 E1875
G1 X-3.39582 Y8.16873 E1902.26
G1 X-2.5 Y7.69421 E1903.1
G1 X11.9149 Y37.1318 E1930.35
G1 X12.3607 Y38.0423 E1931.2
G1 X6.71955 Y5.75389 E1958.45
G1 X6.54509 Y4.75528 E1959.29
G1 X38.9964 Y0.142658 E1986.55
G1 X40 Y0 E1987.39
G1 X7.54873 Y-4.61262 E2014.65
G1 X6.54509 Y-4.75528 E2015.49
G1 X12.1862 Y-37.0437 E2042.74
G1 X12.3607 Y-38.0423 E2043.59
G1 X-2.05418 Y-8.60465 E2070.84
G1 X-2.5 Y-7.69421 E2071.68
G1 X-31.4649 Y-23.0369 E2098.94
G1 X-32.3607 Y-23.5114 E2099.78
G1 X7.46393 Y-28.0423
G1 X10.6136 Y-28.0423 E2102.4
G1 X-26.715 Y-18.0423
G1 X-22.0357 Y-18.0423 E2106.29
G1 X2.56718 Y-18.0423
G1 X8.86646 Y-18.0423 E2111.53
G1 X-16.3921 Y-8.04226
G1 X-3.15707 Y-8.04226 E2122.53
G1 X-2.32957 Y-8.04226
G1 X7.11936 Y-8.04226 E2130.39
G1 X-10.1111 Y1.95774
G1 X26.2267 Y1.95774 E2160.61
G1 X-20.434 Y11.9577
G1 X-10.549 Y11.9577 E2168.83
G1 X-0.412256 Y11.9577
G1 X7.80343 Y11.9577 E2175.66
G1 X-30.7568 Y21.9577
G1 X-29.4276 Y21.9577 E2176.76
G1 X4.48449 Y21.9577
G1 X9.55054 Y21.9577 E2180.97
G1 X9.38124 Y31.9577
G1 X11.2976 Y31.9577 E2182.57
G1 Z1.4
G1 X-32.3607 Y-23.5114
G1 X-8.93964 Y-0.822899 E2209.68
G1 X-8.09017 Y1.11022e-15 E2210.67
G1 X-31.5112 Y22.6885 E2237.78
G1 X-32.3607 Y23.5114 E2238.76
G1 X-3.54512 Y8.24781 E2265.88
G1 X-2.5 Y7.69421 E2266.86
G1 X11.8406 Y36.9801 E2293.97
G1 X12.3607 Y38.0423 E2294.96
G1 X6.74863 Y5.92033 E2322.07
G1 X6.54509 Y4.75528 E2323.06
G1 X38.8291 Y0.166435 E2350.17
G1 X40 Y0 E2351.15
G1 X7.71601 Y-4.58885 E2378.27
G1 X6.54509 Y-4.75528 E2379.25
G1 X12.1571 Y-36.8772 E2406.36
G1 X12.3607 Y-38.0423 E2407.35
G1 X-1.97988 Y-8.75639 E2434.46
G1 X-2.5 Y-7.69421 E2435.45
G1 X-31.3156 Y-22.9578 E2462.56
G1 X-32.3607 Y-23.5114 E2463.54
G1 X7.46393 Y-28.0423
G1 X10.6136 Y-28.0423 E2466.16
G1 X-26.715 Y-18.0423
G1 X-22.0357 Y-18.0423 E2470.05
G1 X2.56718 Y-18.0423
G1 X8.86646 Y-18.0423 E2475.29
G1 X-16.3921 Y-8.04226
G1 X-3.15707 Y-8.04226 E2486.3
G1 X-2.32957 Y-8.04226
G1 X7.11936 Y-8.04226 E2494.15
G1 X-10.1111 Y1.95774
G1 X26.2267 Y1.95774 E2524.37
G1 X-20.434 Y11.9577
G1 X-10.549 Y11.9577 E2532.59
G1 X-0.412256 Y11.9577
G1 X7.80343 Y11.9577 E2539.42
G1 X-30.7568 Y21.9577
G1 X-29.4276 Y21.9577 E2540.52
G1 X4.48449 Y21.9577
G1 X9.55054 Y21.9577 E2544.74
G1 X9.38124 Y31.9577
G1 X11.2976 Y31.9577 E2546.33
G1 Z1.6
G1 X-32.3607 Y-23.5114
G1 X-9.06099 Y-0.940456 E2573.3
G1 X-8.09017 Y1.11022e-15 E2574.43
G1 X-31.3899 Y22.571 E2601.4
G1 X-32.3607 Y23.5114 E2602.52
G1 X-3.69443 Y8.3269 E2629.5
G1 X-2.5 Y7.69421 E2630.62
G1 X11.7663 Y36.8283 E2657.59
G1 X12.3607 Y38.0423 E2658.72
G1 X6.77771 Y6.08676 E2685.69
G1 X6.54509 Y4.75528 E2686.82
G1 X38.6618 Y0.190211 E2713.79
G1 X40 Y0 E2714.91
G1 X7.88328 Y-4.56507 E2741.89
G1 X6.54509 Y-4.75528 E2743.01
G1 X12.1281 Y-36.7108 E2769.98
G1 X12.3607 Y-38.0423 E2771.11
G1 X-1.90557 Y-8.90813 E2798.08
G1 X-2.5 Y-7.69421 E2799.21
G1 X-31.1663 Y-22.8787 E2826.18
G1 X-32.3607 Y-23.5114 E2827.3
G1 X7.46393 Y-28.0423
G1 X10.6136 Y-28.0423 E2829.92
G1 X-26.715 Y-18.0423
G1 X-22.0357 Y-18.0423 E2833.81
G1 X2.56718 Y-18.0423
G1 X8.86646 Y-18.0423 E2839.05
G1 X-16.3921 Y-8.04226
G1 X-3.15707 Y-8.04226 E2850.06
G1 X-2.32957 Y-8.04226
G1 X7.11936 Y-8.04226 E2857.91
G1 X-10.1111 Y1.95774
G1 X26.2267 Y1.95774 E2888.13
G1 X-20.434 Y11.9577
G1 X-10.549 Y11.9577 E2896.35
G1 X-0.412256 Y11.9577
G1 X7.80343 Y11.9577 E2903.18
G1 X-30.7568 Y21.9577
G1 X-29.4276 Y21.9577 E2904.28
G1 X4.48449 Y21.9577
G1 X9.55054 Y21.9577 E2908.5
G1 X9.38124 Y31.9577
G1 X11.2976 Y31.9577 E2910.09
G1 Z1.8
G1 X-32.3607 Y-23.5114
G1 X-9.18234 Y-1.05801 E2936.92
G1 X-8.09017 Y1.11022e-15 E2938.19
G1 X-31.2685 Y22.4534 E2965.02
G1 X-32.3607 Y23.5114 E2966.29
G1 X-3.84373 Y8.40598 E2993.12
G1 X-2.5 Y7.69421 E2994.38
G1 X11.6919 Y36.6766 E3021.22
G1 X12.3607 Y38.0423 E3022.48
G1 X6.80679 Y6.2532 E3049.31
G1 X6.54509 Y4.75528 E3050.58
G1 X38.4945 Y0.213988 E3077.41
G1 X40 Y0 E3078.68
G1 X8.05056 Y-4.5413 E3105.51
G1 X6.54509 Y-4.75528 E3106.77
G1 X12.099 Y-36.5443 E3133.61
G1 X12.3607 Y-38.0423 E3134.87
G1 X-1.83127 Y-9.05987 E3161.7
G1 X-2.5 Y-7.69421 E3162.97
G1 X-31.0169 Y-22.7996 E3189.8
G1 X-32.3607 Y-23.5114 E3191.07
G1 X7.46393 Y-28.0423
G1 X10.6136 Y-28.0423 E3193.68
G1 X-26.715 Y-18.0423
G1 X-22.0357 Y-18.0423 E3197.57
G1 X2.56718 Y-18.0423
G1 X8.86646 Y-18.0423 E3202.81
G1 X-16.3921 Y-8.04226
G1 X-3.15707 Y-8.04226 E3213.82
G1 X-2.32957 Y-8.04226
G1 X7.11936 Y-8.04226 E3221.67
G1 X-10.1111 Y1.95774
G1 X26.2267 Y1.95774 E3251.89
G1 X-20.434 Y11.9577
G1 X-10.549 Y11.9577 E3260.11
G1 X-0.412256 Y11.9577
G1 X7.80343 Y11.9577 E3266.94
G1 X-30.7568 Y21.9577
G1 X-29.4276 Y21.9577 E3268.05
G1 X4.48449 Y21.9577
G1 X9.55054 Y21.9577 E3272.26
G1 X9.38124 Y31.9577
G1 X11.2976 Y31.9577 E3273.85
G1 Z2
G1 X-32.3607 Y-23.5114
G1 X-9.3037 Y-1.17557 E3300.54
G1 X-8.09017 Y1.11022e-15 E3301.95
G1 X-31.1472 Y22.3358 E3328.64
G1 X-32.3607 Y23.5114 E3330.05
G1 X-3.99303 Y8.48507 E3356.74
G1 X-2.5 Y7.69421 E3358.14
G1 X11.6176 Y36.5249 E3384.84
G1 X12.3607 Y38.0423 E3386.24
G1 X6.83586 Y6.41963 E3412.93
G1 X6.54509 Y4.75528 E3414.34
G1 X38.3273 Y0.237764 E3441.03
G1 X40 Y0 E3442.44
G1 X8.21783 Y-4.51752 E3469.13
G1 X6.54509 Y-4.75528 E3470.53
G1 X12.0699 Y-36.3779 E3497.23
G1 X12.3607 Y-38.0423 E3498.63
G1 X-1.75697 Y-9.21161 E3525.32
G1 X-2.5 Y-7.69421 E3526.73
G1 X-30.8676 Y-22.7205 E3553.42
G1 X-32.3607 Y-23.5114 E3554.83
G1 X7.46393 Y-28.0423
G1 X10.6136 Y-28.0423 E3557.45
G1 X-26.715 Y-18.0423
G1 X-22.0357 Y-18.0423 E3561.34
G1 X2.56718 Y-18.0423
G1 X8.86646 Y-18.0423 E3566.57
G1 X-16.3921 Y-8.04226
G1 X-3.15707 Y-8.04226 E3577.58
G1 X-2.32957 Y-8.04226
G1 X7.11936 Y-8.04226 E3585.44
G1 X-10.1111 Y1.95774
G1 X26.2267 Y1.95774 E3615.65
G1 X-20.434 Y11.9577
G1 X-10.549 Y11.9577 E3623.87
G1 X-0.412256 Y11.9577
G1 X7.80343 Y11.9577 E3630.7
G1 X-30.7568 Y21.9577
G1 X-29.4276 Y21.9577 E3631.81
G1 X4.48449 Y21.9577
G1 X9.55054 Y21.9577 E3636.02
G1 X9.38124 Y31.9577
G1 X11.2976 Y31.9577 E3637.61
G1 Z2.2
G1 X-32.3607 Y-23.5114
G1 X-9.42505 Y-1.29313 E3664.16
G1 X-8.09017 Y1.11022e-15 E3665.71
G1 X-31.0258 Y22.2183 E3692.26
G1 X-32.3607 Y23.5114 E3693.81
G1 X-4.14234 Y8.56416 E3720.36
G1 X-2.5 Y7.69421 E3721.91
G1 X11.5433 Y36.3731 E3748.46
G1 X12.3607 Y38.0423 E3750
G1 X6.86494 Y6.58607 E3776.55
G1 X6.54509 Y4.75528 E3778.1
G1 X38.16 Y0.261541 E3804.65
G1 X40 Y0 E3806.2
G1 X8.38511 Y-4.49374 E3832.75
G1 X6.54509 Y-4.75528 E3834.3
G1 X12.0408 Y-36.2115 E3860.85
G1 X12.3607 Y-38.0423 E3862.39
G1 X-1.68266 Y-9.36335 E3888.94
G1 X-2.5 Y-7.69421 E3890.49
G1 X-30.7183 Y-22.6415 E3917.04
G1 X-32.3607 Y-23.5114 E3918.59
G1 X7.46393 Y-28.0423
G1 X10.6136 Y-28.0423 E3921.21
G1 X-26.715 Y-18.0423
G1 X-22.0357 Y-18.0423 E3925.1
G1 X2.56718 Y-18.0423
G1 X8.86646 Y-18.0423 E3930.34
G1 X-16.3921 Y-8.04226
G1 X-3.15707 Y-8.04226 E3941.34
G1 X-2.32957 Y-8.04226
G1 X7.11936 Y-8.04226 E3949.2
G1 X-10.1111 Y1.95774
G1 X26.2267 Y1.95774 E3979.41
G1 X-20.434 Y11.9577
G1 X-10.549 Y11.9577 E3987.63
G1 X-0.412256 Y11.9577
G1 X7.80343 Y11.9577 E3994.46
G1 X-30.7568 Y21.9577
G1 X-29.4276 Y21.9577 E3995.57
G1 X4.48449 Y21.9577
G1 X9.55054 Y21.9577 E3999.78
G1 X9.38124 Y31.9577
G1 X11.2976 Y31.9577 E4001.37
G1 Z2.4
G1 X-32.3607 Y-23.5114
G1 X-9.5464 Y-1.41068 E4027.79
G1 X-8.09017 Y1.11022e-15 E4029.47
G1 X-30.9044 Y22.1007 E4055.88
G1 X-32.3607 Y23.5114 E4057.57
G1 X-4.29164 Y8.64324 E4083.98
G1 X-2.5 Y7.69421 E4085.67
G1 X11.469 Y36.2214 E4112.08
G1 X12.3607 Y38.0423 E4113.76
G1 X6.89402 Y6.7525 E4140.18
G1 X6.54509 Y4.75528 E4141.86
G1 X37.9927 Y0.285317 E4168.27
G1 X40 Y0 E4169.96
G1 X8.55238 Y-4.46997 E4196.37
G1 X6.54509 Y-4.75528 E4198.06
G1 X12.0117 Y-36.045 E4224.47
G1 X12.3607 Y-38.0423 E4226.15
G1 X-1.60836 Y-9.51509 E4252.57
G1 X-2.5 Y-7.69421 E4254.25
G1 X-30.569 Y-22.5624 E4280.66
G1 X-32.3607 Y-23.5114 E4282.35
G1 X7.46393 Y-28.0423
G1 X10.6136 Y-28.0423 E4284.97
G1 X-26.715 Y-18.0423
G1 X-22.0357 Y-18.0423 E4288.86
G1 X2.56718 Y-18.0423
G1 X8.86646 Y-18.0423 E4294.1
G1 X-16.3921 Y-8.04226
G1 X-3.15707 Y-8.04226 E4305.1
G1 X-2.32957 Y-8.04226
G1 X7.11936 Y-8.04226 E4312.96
G1 X-10.1111 Y1.95774
G1 X26.2267 Y1.95774 E4343.17
G1 X-20.434 Y11.9577
G1 X-10.549 Y11.9577 E4351.39
G1 X-0.412256 Y11.9577
G1 X7.80343 Y11.9577 E4358.22
G1 X-30.7568 Y21.9577
G1 X-29.4276 Y21.9577 E4359.33
G1 X4.48449 Y21.9577
G1 X9.55054 Y21.9577 E4363.54
G1 X9.38124 Y31.9577
G1 X11.2976 Y31.9577 E4365.14
G1 Z2.6
G1 X-32.3607 Y-23.5114
G1 X-9.66775 Y-1.52824 E4391.41
G1 X-8.09017 Y1.11022e-15 E4393.23
G1 X-30.7831 Y21.9832 E4419.5
G1 X-32.3607 Y23.5114 E4421.33
G1 X-4.44094 Y8.72233 E4447.6
G1 X-2.5 Y7.69421 E4449.43
G1 X11.3947 Y36.0696 E4475.7
G1 X12.3607 Y38.0423 E4477.53
G1 X6.9231 Y6.91894 E4503.8
G1 X6.54509 Y4.75528 E4505.62
G1 X37.8254 Y0.309093 E4531.89
G1 X40 Y0 E4533.72
G1 X8.71965 Y-4.44619 E4559.99
G1 X6.54509 Y-4.75528 E4561.82
G1 X11.9827 Y-35.8786 E4588.09
G1 X12.3607 Y-38.0423 E4589.92
G1 X-1.53406 Y-9.66683 E4616.19
G1 X-2.5 Y-7.69421 E4618.01
G1 X-30.4197 Y-22.4833 E4644.28
G1 X-32.3607 Y-23.5114 E4646.11
G1 X7.46393 Y-28.0423
G1 X10.6136 Y-28.0423 E4648.73
G1 X-26.715 Y-18.0423
G1 X-22.0357 Y-18.0423 E4652.62
G1 X2.56718 Y-18.0423
G1 X8.86646 Y-18.0423 E4657.86
G1 X-16.3921 Y-8.04226
G1 X-3.15707 Y-8.04226 E4668.86
G1 X-2.32957 Y-8.04226
G1 X7.11936 Y-8.04226 E4676.72
G1 X-10.1111 Y1.95774
G1 X26.2267 Y1.95774 E4706.93
