;generated by SUSSYSLICER by LUKE FADEL
G90 ; Use absolute coordinates 
M82 ; Use absolute extruder positioning
M140 S60 ; Set bed temperature to 60C (do not wait)
M104 S205 ; Set nozzle temperature to 205C (do not wait)
G28 ; Home all axes
M190 S60 ; Wait for bed temperature to reach 60C
M109 S205 ; Wait for nozzle temperature to reach 205C
G29 ; Perform bed leveling
G92 E0 ; Reset extruder position
G1 E10 F600 ; Prime nozzle
G0 F6000 ; Rapid move to start position
G1 Z0.2 F300 ; Move to first layer heightG1 Z0.2
G1 X31.7333 Y10.0001
G1 X12.5333 Y10.0001 E0.638595
G1 X11.7333 Y10.0001 E0.665203
G1 X11.7333 Y19.6001 E0.9845
G1 X11.7333 Y20.0001 E0.997804
G1 X30.9333 Y20.0001 E1.6364
G1 X31.7333 Y20.0001 E1.66301
G1 X31.7333 Y10.4001 E1.9823
G1 X11.7333 Y10.4001
G1 X31.7333 Y10.4001 E2.64751
G1 X31.7333 Y10.4001
G1 X11.7333 Y10.8001
G1 X31.7333 Y10.8001 E3.31271
G1 X11.7333 Y11.2001
G1 X31.7333 Y11.2001 E3.97791
G1 X11.7333 Y11.6001
G1 X31.7333 Y11.6001 E4.64311
G1 X11.7333 Y12.0001
G1 X31.7333 Y12.0001 E5.30832
G1 X11.7333 Y12.4001
G1 X31.7333 Y12.4001 E5.97352
G1 X11.7333 Y12.8001
G1 X31.7333 Y12.8001 E6.63872
G1 X11.7333 Y13.2001
G1 X31.7333 Y13.2001 E7.30393
G1 X11.7333 Y13.6001
G1 X31.7333 Y13.6001 E7.96913
G1 X11.7333 Y14.0001
G1 X31.7333 Y14.0001 E8.63433
G1 X11.7333 Y14.4001
G1 X31.7333 Y14.4001 E9.29953
G1 X11.7333 Y14.8001
G1 X31.7333 Y14.8001 E9.96474
G1 X11.7333 Y15.2001
G1 X31.7333 Y15.2001 E10.6299
G1 X11.7333 Y15.6001
G1 X31.7333 Y15.6001 E11.2951
G1 X11.7333 Y16.0001
G1 X31.7333 Y16.0001 E11.9603
G1 X11.7333 Y16.4001
G1 X31.7333 Y16.4001 E12.6255
G1 X11.7333 Y16.8001
G1 X31.7333 Y16.8001 E13.2907
G1 X11.7333 Y17.2001
G1 X31.7333 Y17.2001 E13.956
G1 X11.7333 Y17.6001
G1 X31.7333 Y17.6001 E14.6212
G1 X11.7333 Y18.0001
G1 X31.7333 Y18.0001 E15.2864
G1 X11.7333 Y18.4001
G1 X31.7333 Y18.4001 E15.9516
G1 X11.7333 Y18.8001
G1 X31.7333 Y18.8001 E16.6168
G1 X11.7333 Y19.2001
G1 X31.7333 Y19.2001 E17.282
G1 X11.7333 Y19.6001
G1 X31.7333 Y19.6001 E17.9472
G1 X11.7333 Y20.0001
G1 X31.7333 Y20.0001 E18.6124
G1 Z0.4
G1 X31.7333 Y10.0001
G1 X13.3333 Y10.0001 E19.2244
G1 X11.7333 Y10.0001 E19.2776
G1 X11.7333 Y19.2001 E19.5836
G1 X11.7333 Y20.0001 E19.6102
G1 X30.1333 Y20.0001 E20.2222
G1 X31.7333 Y20.0001 E20.2754
G1 X31.7333 Y10.8001 E20.5814
G1 X11.7333 Y10.4001
G1 X31.7333 Y10.4001 E21.2466
G1 X11.7333 Y10.8001
G1 X31.7333 Y10.8001 E21.9118
G1 X31.7333 Y10.8001
G1 X11.7333 Y11.2001
G1 X31.7333 Y11.2001 E22.577
G1 X11.7333 Y11.6001
G1 X31.7333 Y11.6001 E23.2422
G1 X11.7333 Y12.0001
G1 X31.7333 Y12.0001 E23.9074
G1 X11.7333 Y12.4001
G1 X31.7333 Y12.4001 E24.5726
G1 X11.7333 Y12.8001
G1 X31.7333 Y12.8001 E25.2378
G1 X11.7333 Y13.2001
G1 X31.7333 Y13.2001 E25.903
G1 X11.7333 Y13.6001
G1 X31.7333 Y13.6001 E26.5682
G1 X11.7333 Y14.0001
G1 X31.7333 Y14.0001 E27.2334
G1 X11.7333 Y14.4001
G1 X31.7333 Y14.4001 E27.8986
G1 X11.7333 Y14.8001
G1 X31.7333 Y14.8001 E28.5638
G1 X11.7333 Y15.2001
G1 X31.7333 Y15.2001 E29.229
G1 X11.7333 Y15.6001
G1 X31.7333 Y15.6001 E29.8942
G1 X11.7333 Y16.0001
G1 X31.7333 Y16.0001 E30.5594
G1 X11.7333 Y16.4001
G1 X31.7333 Y16.4001 E31.2246
G1 X11.7333 Y16.8001
G1 X31.7333 Y16.8001 E31.8898
G1 X11.7333 Y17.2001
G1 X31.7333 Y17.2001 E32.555
G1 X11.7333 Y17.6001
G1 X31.7333 Y17.6001 E33.2202
G1 X11.7333 Y18.0001
G1 X31.7333 Y18.0001 E33.8854
G1 X11.7333 Y18.4001
G1 X31.7333 Y18.4001 E34.5506
G1 X11.7333 Y18.8001
G1 X31.7333 Y18.8001 E35.2158
G1 X11.7333 Y19.2001
G1 X31.7333 Y19.2001 E35.881
G1 X11.7333 Y19.6001
G1 X31.7333 Y19.6001 E36.5462
G1 X11.7333 Y20.0001
G1 X31.7333 Y20.0001 E37.2114
G1 Z0.6
G1 X31.7333 Y10.0001
G1 X14.1333 Y10.0001 E37.7968
G1 X11.7333 Y10.0001 E37.8766
G1 X11.7333 Y18.8001 E38.1693
G1 X11.7333 Y20.0001 E38.2092
G1 X29.3333 Y20.0001 E38.7946
G1 X31.7333 Y20.0001 E38.8744
G1 X31.7333 Y11.2001 E39.1671
G1 X11.7333 Y10.4001
G1 X31.7333 Y10.4001 E39.8323
G1 X11.7333 Y10.8001
G1 X31.7333 Y10.8001 E40.4975
G1 X11.7333 Y11.2001
G1 X31.7333 Y11.2001 E41.1627
G1 X31.7333 Y11.2001
G1 X11.7333 Y11.6001
G1 X31.7333 Y11.6001 E41.8279
G1 X11.7333 Y12.0001
G1 X31.7333 Y12.0001 E42.4931
G1 X11.7333 Y12.4001
G1 X31.7333 Y12.4001 E43.1584
G1 X11.7333 Y12.8001
G1 X31.7333 Y12.8001 E43.8236
G1 X11.7333 Y13.2001
G1 X31.7333 Y13.2001 E44.4888
G1 X11.7333 Y13.6001
G1 X31.7333 Y13.6001 E45.154
G1 X11.7333 Y14.0001
G1 X31.7333 Y14.0001 E45.8192
G1 X11.7333 Y14.4001
G1 X31.7333 Y14.4001 E46.4844
G1 X11.7333 Y14.8001
G1 X31.7333 Y14.8001 E47.1496
G1 X11.7333 Y15.2001
G1 X31.7333 Y15.2001 E47.8148
G1 X11.7333 Y15.6001
G1 X31.7333 Y15.6001 E48.48
G1 X11.7333 Y16.0001
G1 X31.7333 Y16.0001 E49.1452
G1 X11.7333 Y16.4001
G1 X31.7333 Y16.4001 E49.8104
G1 X11.7333 Y16.8001
G1 X31.7333 Y16.8001 E50.4756
G1 X11.7333 Y17.2001
G1 X31.7333 Y17.2001 E51.1408
G1 X11.7333 Y17.6001
G1 X31.7333 Y17.6001 E51.806
G1 X11.7333 Y18.0001
G1 X31.7333 Y18.0001 E52.4712
G1 X11.7333 Y18.4001
G1 X31.7333 Y18.4001 E53.1364
G1 X11.7333 Y18.8001
G1 X31.7333 Y18.8001 E53.8016
G1 X11.7333 Y19.2001
G1 X31.7333 Y19.2001 E54.4668
G1 X11.7333 Y19.6001
G1 X31.7333 Y19.6001 E55.132
G1 X11.7333 Y20.0001
G1 X31.7333 Y20.0001 E55.7972
G1 Z0.8
G1 X31.7333 Y10.0001
G1 X14.9333 Y10.0001 E56.356
G1 X11.7333 Y10.0001 E56.4624
G1 X11.7333 Y18.4001 E56.7418
G1 X11.7333 Y20.0001 E56.795
G1 X28.5333 Y20.0001 E57.3538
G1 X31.7333 Y20.0001 E57.4602
G1 X31.7333 Y11.6001 E57.7396
G1 X11.7333 Y10.4001
G1 X31.7333 Y10.4001 E58.4048
G1 X11.7333 Y10.8001
G1 X31.7333 Y10.8001 E59.07
G1 X11.7333 Y11.2001
G1 X31.7333 Y11.2001 E59.7352
G1 X11.7333 Y11.6001
G1 X31.7333 Y11.6001 E60.4004
G1 X11.7333 Y12.0001
G1 X31.7333 Y12.0001 E61.0656
G1 X11.7333 Y12.4001
G1 X31.7333 Y12.4001 E61.7308
G1 X11.7333 Y12.8001
G1 X31.7333 Y12.8001 E62.396
G1 X11.7333 Y13.2001
G1 X31.7333 Y13.2001 E63.0612
G1 X11.7333 Y13.6001
G1 X31.7333 Y13.6001 E63.7264
G1 X11.7333 Y14.0001
G1 X31.7333 Y14.0001 E64.3916
G1 X11.7333 Y14.4001
G1 X31.7333 Y14.4001 E65.0568
G1 X11.7333 Y14.8001
G1 X31.7333 Y14.8001 E65.722
G1 X11.7333 Y15.2001
G1 X31.7333 Y15.2001 E66.3872
G1 X11.7333 Y15.6001
G1 X31.7333 Y15.6001 E67.0524
G1 X11.7333 Y16.0001
G1 X31.7333 Y16.0001 E67.7176
G1 X11.7333 Y16.4001
G1 X31.7333 Y16.4001 E68.3828
G1 X11.7333 Y16.8001
G1 X31.7333 Y16.8001 E69.048
G1 X11.7333 Y17.2001
G1 X31.7333 Y17.2001 E69.7132
G1 X11.7333 Y17.6001
G1 X31.7333 Y17.6001 E70.3784
G1 X11.7333 Y18.0001
G1 X31.7333 Y18.0001 E71.0436
G1 X11.7333 Y18.4001
G1 X31.7333 Y18.4001 E71.7089
G1 X11.7333 Y18.8001
G1 X31.7333 Y18.8001 E72.3741
G1 X11.7333 Y19.2001
G1 X31.7333 Y19.2001 E73.0393
G1 X11.7333 Y19.6001
G1 X31.7333 Y19.6001 E73.7045
G1 X11.7333 Y20.0001
G1 X31.7333 Y20.0001 E74.3697
G1 Z1
G1 X31.7333 Y10.0001
G1 X15.7333 Y10.0001 E74.9018
G1 X11.7333 Y10.0001 E75.0349
G1 X11.7333 Y18.0001 E75.3009
G1 X11.7333 Y20.0001 E75.3675
G1 X27.7333 Y20.0001 E75.8996
G1 X31.7333 Y20.0001 E76.0327
G1 X31.7333 Y12.0001 E76.2987
G1 X11.7333 Y10.4001
G1 X31.7333 Y10.4001 E76.964
G1 X11.7333 Y10.8001
G1 X31.7333 Y10.8001 E77.6292
G1 X11.7333 Y11.2001
G1 X31.7333 Y11.2001 E78.2944
G1 X11.7333 Y11.6001
G1 X31.7333 Y11.6001 E78.9596
G1 X11.7333 Y12.0001
G1 X31.7333 Y12.0001 E79.6248
G1 X11.7333 Y12.4001
G1 X31.7333 Y12.4001 E80.29
G1 X11.7333 Y12.8001
G1 X31.7333 Y12.8001 E80.9552
G1 X11.7333 Y13.2001
G1 X31.7333 Y13.2001 E81.6204
G1 X11.7333 Y13.6001
G1 X31.7333 Y13.6001 E82.2856
G1 X11.7333 Y14.0001
G1 X31.7333 Y14.0001 E82.9508
G1 X11.7333 Y14.4001
G1 X31.7333 Y14.4001 E83.616
G1 X11.7333 Y14.8001
G1 X31.7333 Y14.8001 E84.2812
G1 X11.7333 Y15.2001
G1 X31.7333 Y15.2001 E84.9464
G1 X11.7333 Y15.6001
G1 X31.7333 Y15.6001 E85.6116
G1 X11.7333 Y16.0001
G1 X31.7333 Y16.0001 E86.2768
G1 X11.7333 Y16.4001
G1 X31.7333 Y16.4001 E86.942
G1 X11.7333 Y16.8001
G1 X31.7333 Y16.8001 E87.6072
G1 X11.7333 Y17.2001
G1 X31.7333 Y17.2001 E88.2724
G1 X11.7333 Y17.6001
G1 X31.7333 Y17.6001 E88.9376
G1 X11.7333 Y18.0001
G1 X31.7333 Y18.0001 E89.6028
G1 X11.7333 Y18.4001
G1 X31.7333 Y18.4001 E90.268
G1 X11.7333 Y18.8001
G1 X31.7333 Y18.8001 E90.9332
G1 X11.7333 Y19.2001
G1 X31.7333 Y19.2001 E91.5984
G1 X11.7333 Y19.6001
G1 X31.7333 Y19.6001 E92.2636
G1 X11.7333 Y20.0001
G1 X31.7333 Y20.0001 E92.9288
G1 Z1.2
G1 X31.7333 Y10.0001
G1 X16.5333 Y10.0001 E93.4344
G1 X11.7333 Y10.0001 E93.594
G1 X11.7333 Y17.6001 E93.8468
G1 X11.7333 Y20.0001 E93.9266
G1 X26.9333 Y20.0001 E94.4322
G1 X31.7333 Y20.0001 E94.5918
G1 X31.7333 Y12.4001 E94.8446
G1 X11.7333 Y10.4001
G1 X31.7333 Y10.4001 E95.5098
G1 X11.7333 Y10.8001
G1 X31.7333 Y10.8001 E96.175
G1 X11.7333 Y11.2001
G1 X31.7333 Y11.2001 E96.8402
G1 X11.7333 Y11.6001
G1 X31.7333 Y11.6001 E97.5054
G1 X11.7333 Y12.0001
G1 X31.7333 Y12.0001 E98.1706
G1 X11.7333 Y12.4001
G1 X31.7333 Y12.4001 E98.8358
G1 X11.7333 Y12.8001
G1 X31.7333 Y12.8001 E99.501
G1 X11.7333 Y13.2001
G1 X31.7333 Y13.2001 E100.166
G1 X11.7333 Y13.6001
G1 X31.7333 Y13.6001 E100.831
G1 X11.7333 Y14.0001
G1 X31.7333 Y14.0001 E101.497
G1 X11.7333 Y14.4001
G1 X31.7333 Y14.4001 E102.162
G1 X11.7333 Y14.8001
G1 X31.7333 Y14.8001 E102.827
G1 X11.7333 Y15.2001
G1 X31.7333 Y15.2001 E103.492
G1 X11.7333 Y15.6001
G1 X31.7333 Y15.6001 E104.157
G1 X11.7333 Y16.0001
G1 X31.7333 Y16.0001 E104.823
G1 X11.7333 Y16.4001
G1 X31.7333 Y16.4001 E105.488
G1 X11.7333 Y16.8001
G1 X31.7333 Y16.8001 E106.153
G1 X11.7333 Y17.2001
G1 X31.7333 Y17.2001 E106.818
G1 X11.7333 Y17.6001
G1 X11.7333 Y17.6001 E106.818
G1 X31.7333 Y17.6001
G1 X11.7333 Y18.0001
G1 X31.7333 Y18.0001 E107.483
G1 X11.7333 Y18.4001
G1 X31.7333 Y18.4001 E108.149
G1 X11.7333 Y18.8001
G1 X31.7333 Y18.8001 E108.814
G1 X11.7333 Y19.2001
G1 X31.7333 Y19.2001 E109.479
G1 X11.7333 Y19.6001
G1 X31.7333 Y19.6001 E110.144
G1 X11.7333 Y20.0001
G1 X31.7333 Y20.0001 E110.809
G1 Z1.4
G1 X31.7333 Y10.0001
G1 X17.3333 Y10.0001 E111.288
G1 X11.7333 Y10.0001 E111.475
G1 X11.7333 Y17.2001 E111.714
G1 X11.7333 Y20.0001 E111.807
G1 X26.1333 Y20.0001 E112.286
G1 X31.7333 Y20.0001 E112.472
G1 X31.7333 Y12.8001 E112.712
G1 X11.7333 Y10.4001
G1 X31.7333 Y10.4001 E113.377
G1 X11.7333 Y10.8001
G1 X31.7333 Y10.8001 E114.042
G1 X11.7333 Y11.2001
G1 X31.7333 Y11.2001 E114.708
G1 X11.7333 Y11.6001
G1 X31.7333 Y11.6001 E115.373
G1 X11.7333 Y12.0001
G1 X31.7333 Y12.0001 E116.038
G1 X11.7333 Y12.4001
G1 X31.7333 Y12.4001 E116.703
G1 X11.7333 Y12.8001
G1 X31.7333 Y12.8001 E117.368
G1 X11.7333 Y13.2001
G1 X31.7333 Y13.2001 E118.034
G1 X11.7333 Y13.6001
G1 X31.7333 Y13.6001 E118.699
G1 X11.7333 Y14.0001
G1 X31.7333 Y14.0001 E119.364
G1 X11.7333 Y14.4001
G1 X31.7333 Y14.4001 E120.029
G1 X11.7333 Y14.8001
G1 X31.7333 Y14.8001 E120.694
G1 X11.7333 Y15.2001
G1 X31.7333 Y15.2001 E121.36
G1 X11.7333 Y15.6001
G1 X31.7333 Y15.6001 E122.025
G1 X11.7333 Y16.0001
G1 X31.7333 Y16.0001 E122.69
G1 X11.7333 Y16.4001
G1 X31.7333 Y16.4001 E123.355
G1 X11.7333 Y16.8001
G1 X31.7333 Y16.8001 E124.02
G1 X11.7333 Y17.2001
G1 X11.7333 Y17.2001 E124.02
G1 X31.7333 Y17.2001
G1 X11.7333 Y17.6001
G1 X31.7333 Y17.6001 E124.686
G1 X11.7333 Y18.0001
G1 X31.7333 Y18.0001 E125.351
G1 X11.7333 Y18.4001
G1 X31.7333 Y18.4001 E126.016
G1 X11.7333 Y18.8001
G1 X31.7333 Y18.8001 E126.681
G1 X11.7333 Y19.2001
G1 X31.7333 Y19.2001 E127.346
G1 X11.7333 Y19.6001
G1 X31.7333 Y19.6001 E128.012
G1 X11.7333 Y20.0001
G1 X31.7333 Y20.0001 E128.677
G1 Z1.6
G1 X31.7333 Y10.0001
G1 X18.1333 Y10.0001 E129.129
G1 X11.7333 Y10.0001 E129.342
G1 X11.7333 Y16.8001 E129.568
G1 X11.7333 Y20.0001 E129.675
G1 X25.3333 Y20.0001 E130.127
G1 X31.7333 Y20.0001 E130.34
G1 X31.7333 Y13.2001 E130.566
G1 X11.7333 Y10.4001
G1 X31.7333 Y10.4001 E131.231
G1 X11.7333 Y10.8001
G1 X31.7333 Y10.8001 E131.896
G1 X11.7333 Y11.2001
G1 X31.7333 Y11.2001 E132.562
G1 X11.7333 Y11.6001
G1 X31.7333 Y11.6001 E133.227
G1 X11.7333 Y12.0001
G1 X31.7333 Y12.0001 E133.892
G1 X11.7333 Y12.4001
G1 X31.7333 Y12.4001 E134.557
G1 X11.7333 Y12.8001
G1 X31.7333 Y12.8001 E135.222
G1 X11.7333 Y13.2001
G1 X31.7333 Y13.2001 E135.888
G1 X11.7333 Y13.6001
G1 X31.7333 Y13.6001 E136.553
G1 X11.7333 Y14.0001
G1 X31.7333 Y14.0001 E137.218
G1 X11.7333 Y14.4001
G1 X31.7333 Y14.4001 E137.883
G1 X11.7333 Y14.8001
G1 X31.7333 Y14.8001 E138.548
G1 X11.7333 Y15.2001
G1 X31.7333 Y15.2001 E139.214
G1 X11.7333 Y15.6001
G1 X31.7333 Y15.6001 E139.879
G1 X11.7333 Y16.0001
G1 X31.7333 Y16.0001 E140.544
G1 X11.7333 Y16.4001
G1 X31.7333 Y16.4001 E141.209
G1 X11.7333 Y16.8001
G1 X31.7333 Y16.8001 E141.874
G1 X11.7333 Y17.2001
G1 X31.7333 Y17.2001 E142.54
G1 X11.7333 Y17.6001
G1 X31.7333 Y17.6001 E143.205
G1 X11.7333 Y18.0001
G1 X31.7333 Y18.0001 E143.87
G1 X11.7333 Y18.4001
G1 X31.7333 Y18.4001 E144.535
G1 X11.7333 Y18.8001
G1 X31.7333 Y18.8001 E145.2
G1 X11.7333 Y19.2001
G1 X31.7333 Y19.2001 E145.866
G1 X11.7333 Y19.6001
G1 X31.7333 Y19.6001 E146.531
G1 X11.7333 Y20.0001
G1 X31.7333 Y20.0001 E147.196
G1 Z1.8
G1 X31.7333 Y10.0001
G1 X18.9333 Y10.0001 E147.622
G1 X11.7333 Y10.0001 E147.861
G1 X11.7333 Y16.4001 E148.074
G1 X11.7333 Y20.0001 E148.194
G1 X24.5333 Y20.0001 E148.62
G1 X31.7333 Y20.0001 E148.859
G1 X31.7333 Y13.6001 E149.072
G1 X11.7333 Y10.4001
G1 X31.7333 Y10.4001 E149.737
G1 X11.7333 Y10.8001
G1 X31.7333 Y10.8001 E150.402
G1 X11.7333 Y11.2001
G1 X31.7333 Y11.2001 E151.068
G1 X11.7333 Y11.6001
G1 X31.7333 Y11.6001 E151.733
G1 X11.7333 Y12.0001
G1 X31.7333 Y12.0001 E152.398
G1 X11.7333 Y12.4001
G1 X31.7333 Y12.4001 E153.063
G1 X11.7333 Y12.8001
G1 X31.7333 Y12.8001 E153.728
G1 X11.7333 Y13.2001
G1 X31.7333 Y13.2001 E154.394
G1 X11.7333 Y13.6001
G1 X31.7333 Y13.6001 E155.059
G1 X11.7333 Y14.0001
G1 X31.7333 Y14.0001 E155.724
G1 X11.7333 Y14.4001
G1 X31.7333 Y14.4001 E156.389
G1 X11.7333 Y14.8001
G1 X31.7333 Y14.8001 E157.054
G1 X11.7333 Y15.2001
G1 X31.7333 Y15.2001 E157.72
G1 X11.7333 Y15.6001
G1 X31.7333 Y15.6001 E158.385
G1 X11.7333 Y16.0001
G1 X31.7333 Y16.0001 E159.05
G1 X11.7333 Y16.4001
G1 X31.7333 Y16.4001 E159.715
G1 X11.7333 Y16.8001
G1 X31.7333 Y16.8001 E160.38
G1 X11.7333 Y17.2001
G1 X31.7333 Y17.2001 E161.046
G1 X11.7333 Y17.6001
G1 X31.7333 Y17.6001 E161.711
G1 X11.7333 Y18.0001
G1 X31.7333 Y18.0001 E162.376
G1 X11.7333 Y18.4001
G1 X31.7333 Y18.4001 E163.041
G1 X11.7333 Y18.8001
G1 X31.7333 Y18.8001 E163.706
G1 X11.7333 Y19.2001
G1 X31.7333 Y19.2001 E164.372
G1 X11.7333 Y19.6001
G1 X31.7333 Y19.6001 E165.037
G1 X11.7333 Y20.0001
G1 X31.7333 Y20.0001 E165.702
G1 Z2
G1 X31.7333 Y10.0001
G1 X19.7333 Y10.0001 E166.101
G1 X11.7333 Y10.0001 E166.367
G1 X11.7333 Y16.0001 E166.567
G1 X11.7333 Y20.0001 E166.7
G1 X23.7333 Y20.0001 E167.099
G1 X31.7333 Y20.0001 E167.365
G1 X31.7333 Y14.0001 E167.565
G1 X11.7333 Y10.4001
G1 X31.7333 Y10.4001 E168.23
G1 X11.7333 Y10.8001
G1 X31.7333 Y10.8001 E168.895
G1 X11.7333 Y11.2001
G1 X31.7333 Y11.2001 E169.56
G1 X11.7333 Y11.6001
G1 X31.7333 Y11.6001 E170.225
G1 X11.7333 Y12.0001
G1 X31.7333 Y12.0001 E170.891
G1 X11.7333 Y12.4001
G1 X31.7333 Y12.4001 E171.556
G1 X11.7333 Y12.8001
G1 X31.7333 Y12.8001 E172.221
G1 X11.7333 Y13.2001
G1 X31.7333 Y13.2001 E172.886
G1 X11.7333 Y13.6001
G1 X31.7333 Y13.6001 E173.551
G1 X11.7333 Y14.0001
G1 X31.7333 Y14.0001 E174.217
G1 X11.7333 Y14.4001
G1 X31.7333 Y14.4001 E174.882
G1 X11.7333 Y14.8001
G1 X31.7333 Y14.8001 E175.547
G1 X11.7333 Y15.2001
G1 X31.7333 Y15.2001 E176.212
G1 X11.7333 Y15.6001
G1 X31.7333 Y15.6001 E176.877
G1 X11.7333 Y16.0001
G1 X31.7333 Y16.0001 E177.543
G1 X11.7333 Y16.4001
G1 X31.7333 Y16.4001 E178.208
G1 X11.7333 Y16.8001
G1 X31.7333 Y16.8001 E178.873
G1 X11.7333 Y17.2001
G1 X31.7333 Y17.2001 E179.538
G1 X11.7333 Y17.6001
G1 X31.7333 Y17.6001 E180.203
G1 X11.7333 Y18.0001
G1 X31.7333 Y18.0001 E180.869
G1 X11.7333 Y18.4001
G1 X31.7333 Y18.4001 E181.534
G1 X11.7333 Y18.8001
G1 X31.7333 Y18.8001 E182.199
G1 X11.7333 Y19.2001
G1 X31.7333 Y19.2001 E182.864
G1 X11.7333 Y19.6001
G1 X31.7333 Y19.6001 E183.529
G1 X11.7333 Y20.0001
G1 X31.7333 Y20.0001 E184.195
G1 Z2.2
G1 X31.7333 Y10.0001
G1 X20.5333 Y10.0001 E184.567
G1 X11.7333 Y10.0001 E184.86
G1 X11.7333 Y15.6001 E185.046
G1 X11.7333 Y20.0001 E185.192
G1 X22.9333 Y20.0001 E185.565
G1 X31.7333 Y20.0001 E185.858
G1 X31.7333 Y14.4001 E186.044
G1 X11.7333 Y10.4001
G1 X31.7333 Y10.4001 E186.709
