;generated by SUSSYSLICER by LUKE FADEL
G90 ; Use absolute coordinates 
M82 ; Use absolute extruder positioning
M140 S60 ; Set bed temperature to 60C (do not wait)
M104 S205 ; Set nozzle temperature to 205C (do not wait)
G28 ; Home all axes
M190 S60 ; Wait for bed temperature to reach 60C
M109 S205 ; Wait for nozzle temperature to reach 205C
G29 ; Perform bed leveling
G92 E0 ; Reset extruder position
G1 E10 F600 ; Prime nozzle
G0 F6000 ; Rapid move to start position
G1 Z0.2 F300 ; Move to first layer height
G1 Z0.2
G1 X-32.3607 Y-23.5114
G1 X-8.21152 Y-0.117557 E1.39785
G1 X-8.09017 Y1.11022e-15 E1.40487
G1 X-32.2393 Y23.3939 E2.80272
G1 X-32.3607 Y23.5114 E2.80975
G1 X-2.6493 Y7.7733 E4.2076
G1 X-2.5 Y7.69421 E4.21462
G1 X12.2864 Y37.8905 E5.61247
G1 X12.3607 Y38.0423 E5.6195
G1 X6.57416 Y4.92172 E7.01735
G1 X6.54509 Y4.75528 E7.02437
G1 X39.8327 Y0.0237764 E8.42222
G1 X40 Y0 E8.42924
G1 X6.71236 Y-4.73151 E9.82709
G1 X6.54509 Y-4.75528 E9.83412
G1 X12.3316 Y-37.8758 E11.232
G1 X12.3607 Y-38.0423 E11.239
G1 X-2.4257 Y-7.84595 E12.6368
G1 X-2.5 Y-7.69421 E12.6439
G1 X-32.2114 Y-23.4323 E14.0417
G1 X-32.3607 Y-23.5114 E14.0487
G1 X12.1158 Y-37.5423
G1 X12.2733 Y-37.5423 E14.0553
G1 X11.871 Y-37.0423
G1 X12.186 Y-37.0423 E14.0684
G1 X11.6262 Y-36.5423
G1 X12.0986 Y-36.5423 E14.088
G1 X11.3813 Y-36.0423
G1 X12.0113 Y-36.0423 E14.1142
G1 X11.1365 Y-35.5423
G1 X11.9239 Y-35.5423 E14.147
G1 X10.8917 Y-35.0423
G1 X11.8365 Y-35.0423 E14.1862
G1 X10.6468 Y-34.5423
G1 X11.7492 Y-34.5423 E14.2321
G1 X10.402 Y-34.0423
G1 X11.6618 Y-34.0423 E14.2844
G1 X10.1571 Y-33.5423
G1 X11.5745 Y-33.5423 E14.3434
G1 X9.91231 Y-33.0423
G1 X11.4871 Y-33.0423 E14.4088
G1 X9.66747 Y-32.5423
G1 X11.3998 Y-32.5423 E14.4809
G1 X9.42263 Y-32.0423
G1 X11.3124 Y-32.0423 E14.5594
G1 X9.17779 Y-31.5423
G1 X11.2251 Y-31.5423 E14.6445
G1 X8.93296 Y-31.0423
G1 X11.1377 Y-31.0423 E14.7362
G1 X8.68812 Y-30.5423
G1 X11.0503 Y-30.5423 E14.8344
G1 X8.44328 Y-30.0423
G1 X10.963 Y-30.0423 E14.9392
G1 X8.19844 Y-29.5423
G1 X10.8756 Y-29.5423 E15.0505
G1 X7.95361 Y-29.0423
G1 X10.7883 Y-29.0423 E15.1683
G1 X7.70877 Y-28.5423
G1 X10.7009 Y-28.5423 E15.2927
G1 X7.46393 Y-28.0423
G1 X10.6136 Y-28.0423 E15.4237
G1 X7.21909 Y-27.5423
G1 X10.5262 Y-27.5423 E15.5612
G1 X6.97426 Y-27.0423
G1 X10.4389 Y-27.0423 E15.7052
G1 X6.72942 Y-26.5423
G1 X10.3515 Y-26.5423 E15.8558
G1 X6.48458 Y-26.0423
G1 X10.2642 Y-26.0423 E16.0129
G1 X6.23974 Y-25.5423
G1 X10.1768 Y-25.5423 E16.1766
G1 X5.99491 Y-25.0423
G1 X10.0894 Y-25.0423 E16.3469
G1 X5.75007 Y-24.5423
G1 X10.0021 Y-24.5423 E16.5236
G1 X5.50523 Y-24.0423
G1 X9.91473 Y-24.0423 E16.707
G1 X5.26039 Y-23.5423
G1 X9.82737 Y-23.5423 E16.8968
G1 X-31.8764 Y-23.0423
G1 X-31.475 Y-23.0423 E16.9135
G1 X5.01556 Y-23.0423
G1 X9.74002 Y-23.0423 E17.1099
G1 X-31.3602 Y-22.5423
G1 X-30.5311 Y-22.5423 E17.1444
G1 X4.77072 Y-22.5423
G1 X9.65266 Y-22.5423 E17.3474
G1 X-30.8441 Y-22.0423
G1 X-29.5871 Y-22.0423 E17.3996
G1 X4.52588 Y-22.0423
G1 X9.56531 Y-22.0423 E17.6092
G1 X-30.328 Y-21.5423
G1 X-28.6432 Y-21.5423 E17.6792
G1 X4.28104 Y-21.5423
G1 X9.47795 Y-21.5423 E17.8953
G1 X-29.8118 Y-21.0423
G1 X-27.6993 Y-21.0423 E17.9831
G1 X4.03621 Y-21.0423
G1 X9.3906 Y-21.0423 E18.2057
G1 X-29.2957 Y-20.5423
G1 X-26.7553 Y-20.5423 E18.3113
G1 X3.79137 Y-20.5423
G1 X9.30324 Y-20.5423 E18.5405
G1 X-28.7795 Y-20.0423
G1 X-25.8114 Y-20.0423 E18.6639
G1 X3.54653 Y-20.0423
G1 X9.21589 Y-20.0423 E18.8996
G1 X-28.2634 Y-19.5423
G1 X-24.8675 Y-19.5423 E19.0408
G1 X3.30169 Y-19.5423
G1 X9.12853 Y-19.5423 E19.283
G1 X-27.7472 Y-19.0423
G1 X-23.9235 Y-19.0423 E19.442
G1 X3.05686 Y-19.0423
G1 X9.04117 Y-19.0423 E19.6908
G1 X-27.2311 Y-18.5423
G1 X-22.9796 Y-18.5423 E19.8675
G1 X2.81202 Y-18.5423
G1 X8.95382 Y-18.5423 E20.1229
G1 X-26.715 Y-18.0423
G1 X-22.0357 Y-18.0423 E20.3174
G1 X2.56718 Y-18.0423
G1 X8.86646 Y-18.0423 E20.5793
G1 X-26.1988 Y-17.5423
G1 X-21.0918 Y-17.5423 E20.7917
G1 X2.32234 Y-17.5423
G1 X8.77911 Y-17.5423 E21.0601
G1 X-25.6827 Y-17.0423
G1 X-20.1478 Y-17.0423 E21.2902
G1 X2.07751 Y-17.0423
G1 X8.69175 Y-17.0423 E21.5652
G1 X-25.1665 Y-16.5423
G1 X-19.2039 Y-16.5423 E21.8131
G1 X1.83267 Y-16.5423
G1 X8.6044 Y-16.5423 E22.0946
G1 X-24.6504 Y-16.0423
G1 X-18.26 Y-16.0423 E22.3603
G1 X1.58783 Y-16.0423
G1 X8.51704 Y-16.0423 E22.6484
G1 X-24.1342 Y-15.5423
G1 X-17.316 Y-15.5423 E22.9319
G1 X1.34299 Y-15.5423
G1 X8.42969 Y-15.5423 E23.2265
G1 X-23.6181 Y-15.0423
G1 X-16.3721 Y-15.0423 E23.5277
G1 X1.09816 Y-15.0423
G1 X8.34233 Y-15.0423 E23.8289
G1 X-23.1019 Y-14.5423
G1 X-15.4282 Y-14.5423 E24.148
G1 X0.853319 Y-14.5423
G1 X8.25498 Y-14.5423 E24.4557
G1 X-22.5858 Y-14.0423
G1 X-14.4842 Y-14.0423 E24.7925
G1 X0.608481 Y-14.0423
G1 X8.16762 Y-14.0423 E25.1068
G1 X-22.0697 Y-13.5423
G1 X-13.5403 Y-13.5423 E25.4614
G1 X0.363644 Y-13.5423
G1 X8.08026 Y-13.5423 E25.7822
G1 X-21.5535 Y-13.0423
G1 X-12.5964 Y-13.0423 E26.1546
G1 X0.118807 Y-13.0423
G1 X7.99291 Y-13.0423 E26.482
G1 X-21.0374 Y-12.5423
G1 X-11.6524 Y-12.5423 E26.8722
G1 X-0.126031 Y-12.5423
G1 X7.90555 Y-12.5423 E27.2061
G1 X-20.5212 Y-12.0423
G1 X-10.7085 Y-12.0423 E27.614
G1 X-0.370868 Y-12.0423
G1 X7.8182 Y-12.0423 E27.9545
G1 X-20.0051 Y-11.5423
G1 X-9.76459 Y-11.5423 E28.3802
G1 X-0.615706 Y-11.5423
G1 X7.73084 Y-11.5423 E28.7273
G1 X-19.4889 Y-11.0423
G1 X-8.82066 Y-11.0423 E29.1708
G1 X-0.860543 Y-11.0423
G1 X7.64349 Y-11.0423 E29.5243
G1 X-18.9728 Y-10.5423
G1 X-7.87672 Y-10.5423 E29.9857
G1 X-1.10538 Y-10.5423
G1 X7.55613 Y-10.5423 E30.3458
G1 X-18.4567 Y-10.0423
G1 X-6.93279 Y-10.0423 E30.8249
G1 X-1.35022 Y-10.0423
G1 X7.46878 Y-10.0423 E31.1915
G1 X-17.9405 Y-9.54226
G1 X-5.98886 Y-9.54226 E31.6884
G1 X-1.59506 Y-9.54226
G1 X7.38142 Y-9.54226 E32.0616
G1 X-17.4244 Y-9.04226
G1 X-5.04493 Y-9.04226 E32.5763
G1 X-1.83989 Y-9.04226
G1 X7.29407 Y-9.04226 E32.956
G1 X-16.9082 Y-8.54226
G1 X-4.101 Y-8.54226 E33.4885
G1 X-2.08473 Y-8.54226
G1 X7.20671 Y-8.54226 E33.8748
G1 X-16.3921 Y-8.04226
G1 X-3.15707 Y-8.04226 E34.425
G1 X-2.32957 Y-8.04226
G1 X7.11936 Y-8.04226 E34.8179
G1 X-15.8759 Y-7.54226
G1 X7.032 Y-7.54226 E35.7703
G1 X-15.3598 Y-7.04226
G1 X6.94464 Y-7.04226 E36.6976
G1 X-14.8437 Y-6.54226
G1 X6.85729 Y-6.54226 E37.5998
G1 X-14.3275 Y-6.04226
G1 X6.76993 Y-6.04226 E38.4769
G1 X-13.8114 Y-5.54226
G1 X6.68258 Y-5.54226 E39.329
G1 X-13.2952 Y-5.04226
G1 X6.59522 Y-5.04226 E40.1559
G1 X-12.7791 Y-4.54226
G1 X8.04377 Y-4.54226 E41.0217
G1 X-12.2629 Y-4.04226
G1 X11.5614 Y-4.04226 E42.0122
G1 X-11.7468 Y-3.54226
G1 X15.0791 Y-3.54226 E43.1274
G1 X-11.2307 Y-3.04226
G1 X18.5967 Y-3.04226 E44.3675
G1 X-10.7145 Y-2.54226
G1 X22.1144 Y-2.54226 E45.7324
G1 X-10.1984 Y-2.04226
G1 X25.6321 Y-2.04226 E47.222
G1 X-9.68222 Y-1.54226
G1 X29.1497 Y-1.54226 E48.8365
G1 X-9.16608 Y-1.04226
G1 X32.6674 Y-1.04226 E50.5757
G1 X-8.64994 Y-0.54226
G1 X36.185 Y-0.54226 E52.4397
G1 X-8.13379 Y-0.04226
G1 X39.7027 Y-0.04226 E54.4286
G1 X-8.56269 Y0.45774
G1 X36.7797 Y0.45774 E56.3137
G1 X-9.07883 Y0.95774
G1 X33.262 Y0.95774 E58.074
G1 X-9.59498 Y1.45774
G1 X29.7443 Y1.45774 E59.7095
G1 X-10.1111 Y1.95774
G1 X26.2267 Y1.95774 E61.2203
G1 X-10.6273 Y2.45774
G1 X22.709 Y2.45774 E62.6062
G1 X-11.1434 Y2.95774
G1 X19.1914 Y2.95774 E63.8674
G1 X-11.6595 Y3.45774
G1 X15.6737 Y3.45774 E65.0038
G1 X-12.1757 Y3.95774
G1 X12.1561 Y3.95774 E66.0154
G1 X-12.6918 Y4.45774
G1 X8.63839 Y4.45774 E66.9022
G1 X-13.208 Y4.95774
G1 X6.58046 Y4.95774 E67.7249
G1 X-13.7241 Y5.45774
G1 X6.66781 Y5.45774 E68.5727
G1 X-14.2403 Y5.95774
G1 X6.75517 Y5.95774 E69.4456
G1 X-14.7564 Y6.45774
G1 X6.84252 Y6.45774 E70.3436
G1 X-15.2726 Y6.95774
G1 X6.92988 Y6.95774 E71.2667
G1 X-15.7887 Y7.45774
G1 X7.01723 Y7.45774 E72.2148
G1 X-16.3048 Y7.95774
G1 X-2.99751 Y7.95774 E72.7681
G1 X-2.37096 Y7.95774
G1 X7.10459 Y7.95774 E73.162
G1 X-16.821 Y8.45774
G1 X-3.94144 Y8.45774 E73.6975
G1 X-2.12612 Y8.45774
G1 X7.19194 Y8.45774 E74.0849
G1 X-17.3371 Y8.95774
G1 X-4.88537 Y8.95774 E74.6026
G1 X-1.88128 Y8.95774
G1 X7.2793 Y8.95774 E74.9834
G1 X-17.8533 Y9.45774
G1 X-5.8293 Y9.45774 E75.4833
G1 X-1.63644 Y9.45774
G1 X7.36666 Y9.45774 E75.8576
G1 X-18.3694 Y9.95774
G1 X-6.77323 Y9.95774 E76.3397
G1 X-1.39161 Y9.95774
G1 X7.45401 Y9.95774 E76.7075
G1 X-18.8856 Y10.4577
G1 X-7.71716 Y10.4577 E77.1718
G1 X-1.14677 Y10.4577
G1 X7.54137 Y10.4577 E77.533
G1 X-19.4017 Y10.9577
G1 X-8.66109 Y10.9577 E77.9796
G1 X-0.901931 Y10.9577
G1 X7.62872 Y10.9577 E78.3342
G1 X-19.9178 Y11.4577
G1 X-9.60502 Y11.4577 E78.763
G1 X-0.657093 Y11.4577
G1 X7.71608 Y11.4577 E79.1111
G1 X-20.434 Y11.9577
G1 X-10.549 Y11.9577 E79.5221
G1 X-0.412256 Y11.9577
G1 X7.80343 Y11.9577 E79.8637
G1 X-20.9501 Y12.4577
G1 X-11.4929 Y12.4577 E80.2568
G1 X-0.167418 Y12.4577
G1 X7.89079 Y12.4577 E80.5919
G1 X-21.4663 Y12.9577
G1 X-12.4368 Y12.9577 E80.9673
G1 X0.0774192 Y12.9577
G1 X7.97814 Y12.9577 E81.2957
G1 X-21.9824 Y13.4577
G1 X-13.3807 Y13.4577 E81.6534
G1 X0.322257 Y13.4577
G1 X8.0655 Y13.4577 E81.9753
G1 X-22.4986 Y13.9577
G1 X-14.3247 Y13.9577 E82.3151
G1 X0.567094 Y13.9577
G1 X8.15285 Y13.9577 E82.6305
G1 X-23.0147 Y14.4577
G1 X-15.2686 Y14.4577 E82.9525
G1 X0.811932 Y14.4577
G1 X8.24021 Y14.4577 E83.2614
G1 X-23.5308 Y14.9577
G1 X-16.2125 Y14.9577 E83.5656
G1 X1.05677 Y14.9577
G1 X8.32756 Y14.9577 E83.8679
G1 X-24.047 Y15.4577
G1 X-17.1565 Y15.4577 E84.1544
G1 X1.30161 Y15.4577
G1 X8.41492 Y15.4577 E84.4501
G1 X-24.5631 Y15.9577
G1 X-18.1004 Y15.9577 E84.7188
G1 X1.54644 Y15.9577
G1 X8.50228 Y15.9577 E85.008
G1 X-25.0793 Y16.4577
G1 X-19.0443 Y16.4577 E85.2589
G1 X1.79128 Y16.4577
G1 X8.58963 Y16.4577 E85.5415
G1 X-25.5954 Y16.9577
G1 X-19.9883 Y16.9577 E85.7747
G1 X2.03612 Y16.9577
G1 X8.67699 Y16.9577 E86.0508
G1 X-26.1116 Y17.4577
G1 X-20.9322 Y17.4577 E86.2661
G1 X2.28096 Y17.4577
G1 X8.76434 Y17.4577 E86.5356
G1 X-26.6277 Y17.9577
G1 X-21.8761 Y17.9577 E86.7332
G1 X2.52579 Y17.9577
G1 X8.8517 Y17.9577 E86.9962
G1 X-27.1438 Y18.4577
G1 X-22.8201 Y18.4577 E87.176
G1 X2.77063 Y18.4577
G1 X8.93905 Y18.4577 E87.4324
G1 X-27.66 Y18.9577
G1 X-23.764 Y18.9577 E87.5944
G1 X3.01547 Y18.9577
G1 X9.02641 Y18.9577 E87.8443
G1 X-28.1761 Y19.4577
G1 X-24.7079 Y19.4577 E87.9885
G1 X3.26031 Y19.4577
G1 X9.11376 Y19.4577 E88.2318
G1 X-28.6923 Y19.9577
G1 X-25.6518 Y19.9577 E88.3582
G1 X3.50514 Y19.9577
G1 X9.20112 Y19.9577 E88.5951
G1 X-29.2084 Y20.4577
G1 X-26.5958 Y20.4577 E88.7037
G1 X3.74998 Y20.4577
G1 X9.28847 Y20.4577 E88.9339
G1 X-29.7246 Y20.9577
G1 X-27.5397 Y20.9577 E89.0248
G1 X3.99482 Y20.9577
G1 X9.37583 Y20.9577 E89.2485
G1 X-30.2407 Y21.4577
G1 X-28.4836 Y21.4577 E89.3215
G1 X4.23966 Y21.4577
G1 X9.46318 Y21.4577 E89.5387
G1 X-30.7568 Y21.9577
G1 X-29.4276 Y21.9577 E89.594
G1 X4.48449 Y21.9577
G1 X9.55054 Y21.9577 E89.8046
G1 X-31.273 Y22.4577
G1 X-30.3715 Y22.4577 E89.8421
G1 X4.72933 Y22.4577
G1 X9.6379 Y22.4577 E90.0462
G1 X-31.7891 Y22.9577
G1 X-31.3154 Y22.9577 E90.0658
G1 X4.97417 Y22.9577
G1 X9.72525 Y22.9577 E90.2634
G1 X-32.3053 Y23.4577
G1 X-32.2594 Y23.4577 E90.2653
G1 X5.21901 Y23.4577
G1 X9.81261 Y23.4577 E90.4563
G1 X5.46384 Y23.9577
G1 X9.89996 Y23.9577 E90.6407
G1 X5.70868 Y24.4577
G1 X9.98732 Y24.4577 E90.8186
G1 X5.95352 Y24.9577
G1 X10.0747 Y24.9577 E90.9899
G1 X6.19836 Y25.4577
G1 X10.162 Y25.4577 E91.1547
G1 X6.44319 Y25.9577
G1 X10.2494 Y25.9577 E91.313
G1 X6.68803 Y26.4577
G1 X10.3367 Y26.4577 E91.4646
G1 X6.93287 Y26.9577
G1 X10.4241 Y26.9577 E91.6098
G1 X7.17771 Y27.4577
G1 X10.5114 Y27.4577 E91.7484
G1 X7.42254 Y27.9577
G1 X10.5988 Y27.9577 E91.8804
G1 X7.66738 Y28.4577
G1 X10.6862 Y28.4577 E92.006
G1 X7.91222 Y28.9577
G1 X10.7735 Y28.9577 E92.1249
G1 X8.15706 Y29.4577
G1 X10.8609 Y29.4577 E92.2373
G1 X8.40189 Y29.9577
G1 X10.9482 Y29.9577 E92.3432
G1 X8.64673 Y30.4577
G1 X11.0356 Y30.4577 E92.4425
G1 X8.89157 Y30.9577
G1 X11.1229 Y30.9577 E92.5353
G1 X9.13641 Y31.4577
G1 X11.2103 Y31.4577 E92.6215
G1 X9.38124 Y31.9577
G1 X11.2976 Y31.9577 E92.7012
G1 X9.62608 Y32.4577
G1 X11.385 Y32.4577 E92.7743
G1 X9.87092 Y32.9577
G1 X11.4724 Y32.9577 E92.8409
G1 X10.1158 Y33.4577
G1 X11.5597 Y33.4577 E92.9009
G1 X10.3606 Y33.9577
G1 X11.6471 Y33.9577 E92.9544
G1 X10.6054 Y34.4577
G1 X11.7344 Y34.4577 E93.0013
G1 X10.8503 Y34.9577
G1 X11.8218 Y34.9577 E93.0417
G1 X11.0951 Y35.4577
G1 X11.9091 Y35.4577 E93.0756
G1 X11.3399 Y35.9577
G1 X11.9965 Y35.9577 E93.1029
G1 X11.5848 Y36.4577
G1 X12.0838 Y36.4577 E93.1236
G1 X11.8296 Y36.9577
G1 X12.1712 Y36.9577 E93.1378
G1 X12.0745 Y37.4577
G1 X12.2586 Y37.4577 E93.1455
G1 X12.3193 Y37.9577
G1 X12.3459 Y37.9577 E93.1466
G1 Z0.4
G1 X-32.3607 Y-23.5114
G1 X-8.33288 Y-0.235114 E94.5374
G1 X-8.09017 Y1.11022e-15 E94.5515
G1 X-32.118 Y23.2763 E95.9423
G1 X-32.3607 Y23.5114 E95.9563
G1 X-2.79861 Y7.85238 E97.3472
G1 X-2.5 Y7.69421 E97.3612
G1 X12.2121 Y37.7388 E98.752
G1 X12.3607 Y38.0423 E98.7661
G1 X6.60324 Y5.08815 E100.157
G1 X6.54509 Y4.75528 E100.171
G1 X39.6655 Y0.0475528 E101.562
G1 X40 Y0 E101.576
G1 X6.87963 Y-4.70773 E102.967
G1 X6.54509 Y-4.75528 E102.981
G1 X12.3025 Y-37.7094 E104.372
G1 X12.3607 Y-38.0423 E104.386
G1 X-2.35139 Y-7.99769 E105.776
G1 X-2.5 Y-7.69421 E105.79
G1 X-32.0621 Y-23.3532 E107.181
G1 X-32.3607 Y-23.5114 E107.195
G1 X12.1158 Y-37.5423
G1 X12.2733 Y-37.5423 E107.202
G1 X11.871 Y-37.0423
G1 X12.186 Y-37.0423 E107.215
G1 X11.6262 Y-36.5423
G1 X12.0986 Y-36.5423 E107.235
G1 X11.3813 Y-36.0423
G1 X12.0113 Y-36.0423 E107.261
G1 X11.1365 Y-35.5423
G1 X11.9239 Y-35.5423 E107.294
G1 X10.8917 Y-35.0423
G1 X11.8365 Y-35.0423 E107.333
G1 X10.6468 Y-34.5423
G1 X11.7492 Y-34.5423 E107.379
G1 X10.402 Y-34.0423
G1 X11.6618 Y-34.0423 E107.431
G1 X10.1571 Y-33.5423
G1 X11.5745 Y-33.5423 E107.49
G1 X9.91231 Y-33.0423
G1 X11.4871 Y-33.0423 E107.555
G1 X9.66747 Y-32.5423
G1 X11.3998 Y-32.5423 E107.627
G1 X9.42263 Y-32.0423
G1 X11.3124 Y-32.0423 E107.706
G1 X9.17779 Y-31.5423
G1 X11.2251 Y-31.5423 E107.791
G1 X8.93296 Y-31.0423
G1 X11.1377 Y-31.0423 E107.883
G1 X8.68812 Y-30.5423
G1 X11.0503 Y-30.5423 E107.981
G1 X8.44328 Y-30.0423
G1 X10.963 Y-30.0423 E108.086
G1 X8.19844 Y-29.5423
G1 X10.8756 Y-29.5423 E108.197
G1 X7.95361 Y-29.0423
G1 X10.7883 Y-29.0423 E108.315
G1 X7.70877 Y-28.5423
G1 X10.7009 Y-28.5423 E108.439
G1 X7.46393 Y-28.0423
G1 X10.6136 Y-28.0423 E108.57
G1 X7.21909 Y-27.5423
G1 X10.5262 Y-27.5423 E108.708
G1 X6.97426 Y-27.0423
G1 X10.4389 Y-27.0423 E108.852
G1 X6.72942 Y-26.5423
G1 X10.3515 Y-26.5423 E109.002
G1 X6.48458 Y-26.0423
G1 X10.2642 Y-26.0423 E109.16
G1 X6.23974 Y-25.5423
G1 X10.1768 Y-25.5423 E109.323
G1 X5.99491 Y-25.0423
G1 X10.0894 Y-25.0423 E109.493
G1 X5.75007 Y-24.5423
G1 X10.0021 Y-24.5423 E109.67
G1 X5.50523 Y-24.0423
G1 X9.91473 Y-24.0423 E109.854
G1 X5.26039 Y-23.5423
G1 X9.82737 Y-23.5423 E110.043
G1 X-31.8764 Y-23.0423
G1 X-31.475 Y-23.0423 E110.06
G1 X5.01556 Y-23.0423
G1 X9.74002 Y-23.0423 E110.257
G1 X-31.3602 Y-22.5423
G1 X-30.5311 Y-22.5423 E110.291
G1 X4.77072 Y-22.5423
G1 X9.65266 Y-22.5423 E110.494
G1 X-30.8441 Y-22.0423
G1 X-29.5871 Y-22.0423 E110.546
G1 X4.52588 Y-22.0423
G1 X9.56531 Y-22.0423 E110.756
G1 X-30.328 Y-21.5423
G1 X-28.6432 Y-21.5423 E110.826
G1 X4.28104 Y-21.5423
G1 X9.47795 Y-21.5423 E111.042
G1 X-29.8118 Y-21.0423
G1 X-27.6993 Y-21.0423 E111.13
G1 X4.03621 Y-21.0423
G1 X9.3906 Y-21.0423 E111.352
G1 X-29.2957 Y-20.5423
G1 X-26.7553 Y-20.5423 E111.458
G1 X3.79137 Y-20.5423
G1 X9.30324 Y-20.5423 E111.687
G1 X-28.7795 Y-20.0423
G1 X-25.8114 Y-20.0423 E111.81
G1 X3.54653 Y-20.0423
G1 X9.21589 Y-20.0423 E112.046
G1 X-28.2634 Y-19.5423
G1 X-24.8675 Y-19.5423 E112.187
G1 X3.30169 Y-19.5423
G1 X9.12853 Y-19.5423 E112.43
G1 X-27.7472 Y-19.0423
G1 X-23.9235 Y-19.0423 E112.589
G1 X3.05686 Y-19.0423
G1 X9.04117 Y-19.0423 E112.837
G1 X-27.2311 Y-18.5423
G1 X-22.9796 Y-18.5423 E113.014
G1 X2.81202 Y-18.5423
G1 X8.95382 Y-18.5423 E113.269
G1 X-26.715 Y-18.0423
G1 X-22.0357 Y-18.0423 E113.464
G1 X2.56718 Y-18.0423
G1 X8.86646 Y-18.0423 E113.726
G1 X-26.1988 Y-17.5423
G1 X-21.0918 Y-17.5423 E113.938
G1 X2.32234 Y-17.5423
G1 X8.77911 Y-17.5423 E114.207
G1 X-25.6827 Y-17.0423
G1 X-20.1478 Y-17.0423 E114.437
G1 X2.07751 Y-17.0423
